(.../pcb-gcode-3.6.2.4/pcb-gcode.ulp)
(Copyright 2005 - 2012 by John Johnson)
(See readme.txt for licensing terms.)
(This file generated from the board:)
(.../klafyvel/eagle/CNC/CommandeMoteurs.brd)
(Current profile is .../pcb-gcode-3.6.2.4/profiles/emc.pp  )
(This file generated 23/06/14 14:27)
(Settings from pcb-machine.h)
(spindle on time = 3.0000)
(  Tool Size)
(0.1778 )
(spindle speed = 30000.0000)
(tool change at 0.0000 0.0000 25.4000 )
(feed rate xy = F508.00 )
(feed rate z  = F254.00 )
(Z Axis Settings)
(  High     Up        Down     Drill)
(12.7000 	2.5400 	-0.1778 	-0.8128 )
(Settings from pcb-defaults.h)
(isolate min = 0.0254)
(isolate max = 0.5080)
(isolate step = 0.1270)
(Generated top outlines, top drill, bottom outlines, bottom drill, )
(Unit of measure: mm)
(Metric Mode)
G21
(Absolute Coordinates)
G90
S30000
G00 Z12.7000 
G00 X0.0000 Y0.0000 
M03
G04 P3.000000
G00 Z2.5400 
G00 X13.5521 Y4.4334 
G01 Z-0.1778 F254.00 
G01 X13.4411 Y4.5995 F508.00 
G01 X13.3647 Y4.7841 
X13.3257 Y4.9801 
Y5.1799 
X13.3647 Y5.3759 
X13.4411 Y5.5605 
X13.5521 Y5.7266 
X13.6934 Y5.8679 
X13.8595 Y5.9789 
X14.0441 Y6.0553 
X14.2401 Y6.0943 
X16.2399 
X16.4359 Y6.0553 
X16.6205 Y5.9789 
X16.7866 Y5.8679 
X16.9279 Y5.7266 
X17.0389 Y5.5605 
X17.1153 Y5.3759 
X17.1543 Y5.1799 
Y4.9801 
X17.1153 Y4.7841 
X17.0389 Y4.5995 
X16.9279 Y4.4334 
X16.7866 Y4.2921 
X16.6205 Y4.1811 
X16.4359 Y4.1047 
X16.2399 Y4.0657 
X14.2401 
X14.0441 Y4.1047 
X13.8595 Y4.1811 
X13.6934 Y4.2921 
X13.5521 Y4.4334 
G00 Z2.5400 
G00 X13.5521 Y6.9734 
G01 Z-0.1778 F254.00 
G01 X13.4411 Y7.1395 F508.00 
G01 X13.3647 Y7.3241 
X13.3257 Y7.5201 
Y7.7199 
X13.3647 Y7.9159 
X13.4411 Y8.1005 
X13.5521 Y8.2666 
X13.6934 Y8.4079 
X13.8595 Y8.5189 
X14.0441 Y8.5953 
X14.2401 Y8.6343 
X16.2399 
X16.4359 Y8.5953 
X16.6205 Y8.5189 
X16.7866 Y8.4079 
X16.9279 Y8.2666 
X17.0389 Y8.1005 
X17.1153 Y7.9159 
X17.1543 Y7.7199 
Y7.5201 
X17.1153 Y7.3241 
X17.0389 Y7.1395 
X16.9279 Y6.9734 
X16.7866 Y6.8321 
X16.6205 Y6.7211 
X16.4359 Y6.6447 
X16.2399 Y6.6057 
X14.2401 
X14.0441 Y6.6447 
X13.8595 Y6.7211 
X13.6934 Y6.8321 
X13.5521 Y6.9734 
G00 Z2.5400 
G00 X13.5521 Y9.5134 
G01 Z-0.1778 F254.00 
G01 X13.4411 Y9.6795 F508.00 
G01 X13.3647 Y9.8641 
X13.3257 Y10.0601 
Y10.2599 
X13.3647 Y10.4559 
X13.4411 Y10.6404 
X13.5521 Y10.8066 
X13.6934 Y10.9479 
X13.8595 Y11.0589 
X14.0441 Y11.1353 
X14.2401 Y11.1743 
X16.2399 
X16.4359 Y11.1353 
X16.6205 Y11.0589 
X16.7866 Y10.9479 
X16.9279 Y10.8066 
X17.0389 Y10.6404 
X17.1153 Y10.4559 
X17.1543 Y10.2599 
Y10.0601 
X17.1153 Y9.8641 
X17.0389 Y9.6795 
X16.9279 Y9.5134 
X16.7866 Y9.3721 
X16.6205 Y9.2611 
X16.4359 Y9.1847 
X16.2399 Y9.1457 
X14.2401 
X14.0441 Y9.1847 
X13.8595 Y9.2611 
X13.6934 Y9.3721 
X13.5521 Y9.5134 
G00 Z2.5400 
G00 X13.5521 Y12.0534 
G01 Z-0.1778 F254.00 
G01 X13.4411 Y12.2195 F508.00 
G01 X13.3647 Y12.4041 
X13.3257 Y12.6001 
Y12.7999 
X13.3647 Y12.9959 
X13.4411 Y13.1805 
X13.5521 Y13.3466 
X13.6934 Y13.4879 
X13.8595 Y13.5989 
X14.0441 Y13.6753 
X14.2401 Y13.7143 
X16.2399 
X16.4359 Y13.6753 
X16.6205 Y13.5989 
X16.7866 Y13.4879 
X16.9279 Y13.3466 
X17.0389 Y13.1805 
X17.1153 Y12.9959 
X17.1543 Y12.7999 
Y12.6001 
X17.1153 Y12.4041 
X17.0389 Y12.2195 
X16.9279 Y12.0534 
X16.7866 Y11.9121 
X16.6205 Y11.8011 
X16.4359 Y11.7247 
X16.2399 Y11.6857 
X14.2401 
X14.0441 Y11.7247 
X13.8595 Y11.8011 
X13.6934 Y11.9121 
X13.5521 Y12.0534 
G00 Z2.5400 
G00 X11.9979 Y12.0999 
G01 Z-0.1778 F254.00 
G01 X11.9559 Y12.0825 F508.00 
G01 X10.9041 Y12.0825 
X10.8621 Y12.0999 
X10.8299 Y12.1321 
X10.8125 Y12.1741 
Y13.2259 
X10.8299 Y13.2679 
X10.8621 Y13.3001 
X10.9041 Y13.3175 
X11.9559 
X11.9979 Y13.3001 
X12.0301 Y13.2679 
X12.0475 Y13.2259 
Y12.1741 
X12.0301 Y12.1321 
X11.9979 Y12.0999 
G00 Z2.5400 
G00 X13.5521 Y14.5934 
G01 Z-0.1778 F254.00 
G01 X13.4411 Y14.7595 F508.00 
G01 X13.3647 Y14.9441 
X13.3257 Y15.1401 
Y15.3399 
X13.3647 Y15.5359 
X13.4411 Y15.7204 
X13.5521 Y15.8866 
X13.6934 Y16.0279 
X13.8595 Y16.1389 
X14.0441 Y16.2153 
X14.2401 Y16.2543 
X16.2399 
X16.4359 Y16.2153 
X16.6205 Y16.1389 
X16.7866 Y16.0279 
X16.9279 Y15.8866 
X17.0389 Y15.7204 
X17.1153 Y15.5359 
X17.1543 Y15.3399 
Y15.1401 
X17.1153 Y14.9441 
X17.0389 Y14.7595 
X16.9279 Y14.5934 
X16.7866 Y14.4521 
X16.6205 Y14.3411 
X16.4359 Y14.2647 
X16.2399 Y14.2257 
X14.2401 
X14.0441 Y14.2647 
X13.8595 Y14.3411 
X13.6934 Y14.4521 
X13.5521 Y14.5934 
G00 Z2.5400 
G00 X13.5521 Y17.1334 
G01 Z-0.1778 F254.00 
G01 X13.4411 Y17.2995 F508.00 
G01 X13.3647 Y17.4841 
X13.3257 Y17.6801 
Y17.8799 
X13.3647 Y18.0759 
X13.4411 Y18.2604 
X13.5521 Y18.4266 
X13.6934 Y18.5679 
X13.8595 Y18.6789 
X14.0441 Y18.7553 
X14.2401 Y18.7943 
X16.2399 
X16.4359 Y18.7553 
X16.6205 Y18.6789 
X16.7866 Y18.5679 
X16.9279 Y18.4266 
X17.0389 Y18.2604 
X17.1153 Y18.0759 
X17.1543 Y17.8799 
Y17.6801 
X17.1153 Y17.4841 
X17.0389 Y17.2995 
X16.9279 Y17.1334 
X16.7866 Y16.9921 
X16.6205 Y16.8811 
X16.4359 Y16.8047 
X16.2399 Y16.7657 
X14.2401 
X14.0441 Y16.8047 
X13.8595 Y16.8811 
X13.6934 Y16.9921 
X13.5521 Y17.1334 
G00 Z2.5400 
G00 X13.5521 Y19.6734 
G01 Z-0.1778 F254.00 
G01 X13.4411 Y19.8395 F508.00 
G01 X13.3647 Y20.0241 
X13.3257 Y20.2201 
Y20.4199 
X13.3647 Y20.6159 
X13.4411 Y20.8005 
X13.5521 Y20.9666 
X13.6934 Y21.1079 
X13.8595 Y21.2189 
X14.0441 Y21.2953 
X14.2401 Y21.3343 
X16.2399 
X16.4359 Y21.2953 
X16.6205 Y21.2189 
X16.7866 Y21.1079 
X16.9279 Y20.9666 
X17.0389 Y20.8005 
X17.1153 Y20.6159 
X17.1543 Y20.4199 
Y20.2201 
X17.1153 Y20.0241 
X17.0389 Y19.8395 
X16.9279 Y19.6734 
X16.7866 Y19.5321 
X16.6205 Y19.4211 
X16.4359 Y19.3447 
X16.2399 Y19.3057 
X14.2401 
X14.0441 Y19.3447 
X13.8595 Y19.4211 
X13.6934 Y19.5321 
X13.5521 Y19.6734 
G00 Z2.5400 
G00 X13.5521 Y22.2134 
G01 Z-0.1778 F254.00 
G01 X13.4411 Y22.3795 F508.00 
G01 X13.3647 Y22.5641 
X13.3257 Y22.7601 
Y22.9599 
X13.3647 Y23.1559 
X13.4411 Y23.3405 
X13.5521 Y23.5066 
X13.6934 Y23.6479 
X13.8595 Y23.7589 
X14.0441 Y23.8353 
X14.2401 Y23.8743 
X16.2399 
X16.4359 Y23.8353 
X16.6205 Y23.7589 
X16.7866 Y23.6479 
X16.9279 Y23.5066 
X17.0389 Y23.3405 
X17.1153 Y23.1559 
X17.1543 Y22.9599 
Y22.7601 
X17.1153 Y22.5641 
X17.0389 Y22.3795 
X16.9279 Y22.2134 
X16.7866 Y22.0721 
X16.6205 Y21.9611 
X16.4359 Y21.8847 
X16.2399 Y21.8457 
X14.2401 
X14.0441 Y21.8847 
X13.8595 Y21.9611 
X13.6934 Y22.0721 
X13.5521 Y22.2134 
G00 Z2.5400 
G00 X11.9979 Y22.2599 
G01 Z-0.1778 F254.00 
G01 X11.9559 Y22.2425 F508.00 
G01 X10.9041 Y22.2425 
X10.8621 Y22.2599 
X10.8299 Y22.2921 
X10.8125 Y22.3341 
Y23.3859 
X10.8299 Y23.4279 
X10.8621 Y23.4601 
X10.9041 Y23.4775 
X11.9559 
X11.9979 Y23.4601 
X12.0301 Y23.4279 
X12.0475 Y23.3859 
Y22.3341 
X12.0301 Y22.2921 
X11.9979 Y22.2599 
G00 Z2.5400 
G00 X11.9979 Y24.7999 
G01 Z-0.1778 F254.00 
G01 X11.9559 Y24.7825 F508.00 
G01 X10.9041 Y24.7825 
X10.8621 Y24.7999 
X10.8299 Y24.8321 
X10.8125 Y24.8741 
Y25.9259 
X10.8299 Y25.9679 
X10.8621 Y26.0001 
X10.9041 Y26.0175 
X11.9559 
X11.9979 Y26.0001 
X12.0301 Y25.9679 
X12.0475 Y25.9259 
Y24.8741 
X12.0301 Y24.8321 
X11.9979 Y24.7999 
G00 Z2.5400 
G00 X18.7734 Y22.3779 
G01 Z-0.1778 F254.00 
G01 X18.9395 Y22.4889 F508.00 
G01 X19.1241 Y22.5653 
X19.3201 Y22.6043 
X21.3199 
X21.5159 Y22.5653 
X21.7005 Y22.4889 
X21.8666 Y22.3779 
X22.0079 Y22.2366 
X22.1189 Y22.0705 
X22.1953 Y21.8859 
X22.2343 Y21.6899 
Y21.4901 
X22.1953 Y21.2941 
X22.1189 Y21.1095 
X22.0079 Y20.9434 
X21.8666 Y20.8021 
X21.7005 Y20.6911 
X21.5159 Y20.6147 
X21.3199 Y20.5757 
X19.3201 
X19.1241 Y20.6147 
X18.9395 Y20.6911 
X18.7734 Y20.8021 
X18.6321 Y20.9434 
X18.5211 Y21.1095 
X18.4447 Y21.2941 
X18.4057 Y21.4901 
Y21.6899 
X18.4447 Y21.8859 
X18.5211 Y22.0705 
X18.6321 Y22.2366 
X18.7734 Y22.3779 
G00 Z2.5400 
G00 X18.7734 Y19.8379 
G01 Z-0.1778 F254.00 
G01 X18.9395 Y19.9489 F508.00 
G01 X19.1241 Y20.0253 
X19.3201 Y20.0643 
X21.3199 
X21.5159 Y20.0253 
X21.7005 Y19.9489 
X21.8666 Y19.8379 
X22.0079 Y19.6966 
X22.1189 Y19.5304 
X22.1953 Y19.3459 
X22.2343 Y19.1499 
Y18.9501 
X22.1953 Y18.7541 
X22.1189 Y18.5695 
X22.0079 Y18.4034 
X21.8666 Y18.2621 
X21.7005 Y18.1511 
X21.5159 Y18.0747 
X21.3199 Y18.0357 
X19.3201 
X19.1241 Y18.0747 
X18.9395 Y18.1511 
X18.7734 Y18.2621 
X18.6321 Y18.4034 
X18.5211 Y18.5695 
X18.4447 Y18.7541 
X18.4057 Y18.9501 
Y19.1499 
X18.4447 Y19.3459 
X18.5211 Y19.5304 
X18.6321 Y19.6966 
X18.7734 Y19.8379 
G00 Z2.5400 
G00 X18.7734 Y17.2979 
G01 Z-0.1778 F254.00 
G01 X18.9395 Y17.4089 F508.00 
G01 X19.1241 Y17.4853 
X19.3201 Y17.5243 
X21.3199 
X21.5159 Y17.4853 
X21.7005 Y17.4089 
X21.8666 Y17.2979 
X22.0079 Y17.1566 
X22.1189 Y16.9904 
X22.1953 Y16.8059 
X22.2343 Y16.6099 
Y16.4101 
X22.1953 Y16.2141 
X22.1189 Y16.0295 
X22.0079 Y15.8634 
X21.8666 Y15.7221 
X21.7005 Y15.6111 
X21.5159 Y15.5347 
X21.3199 Y15.4957 
X19.3201 
X19.1241 Y15.5347 
X18.9395 Y15.6111 
X18.7734 Y15.7221 
X18.6321 Y15.8634 
X18.5211 Y16.0295 
X18.4447 Y16.2141 
X18.4057 Y16.4101 
Y16.6099 
X18.4447 Y16.8059 
X18.5211 Y16.9904 
X18.6321 Y17.1566 
X18.7734 Y17.2979 
G00 Z2.5400 
G00 X18.7734 Y14.7579 
G01 Z-0.1778 F254.00 
G01 X18.9395 Y14.8689 F508.00 
G01 X19.1241 Y14.9453 
X19.3201 Y14.9843 
X21.3199 
X21.5159 Y14.9453 
X21.7005 Y14.8689 
X21.8666 Y14.7579 
X22.0079 Y14.6166 
X22.1189 Y14.4505 
X22.1953 Y14.2659 
X22.2343 Y14.0699 
Y13.8701 
X22.1953 Y13.6741 
X22.1189 Y13.4895 
X22.0079 Y13.3234 
X21.8666 Y13.1821 
X21.7005 Y13.0711 
X21.5159 Y12.9947 
X21.3199 Y12.9557 
X19.3201 
X19.1241 Y12.9947 
X18.9395 Y13.0711 
X18.7734 Y13.1821 
X18.6321 Y13.3234 
X18.5211 Y13.4895 
X18.4447 Y13.6741 
X18.4057 Y13.8701 
Y14.0699 
X18.4447 Y14.2659 
X18.5211 Y14.4505 
X18.6321 Y14.6166 
X18.7734 Y14.7579 
G00 Z2.5400 
G00 X18.7734 Y12.2179 
G01 Z-0.1778 F254.00 
G01 X18.9395 Y12.3289 F508.00 
G01 X19.1241 Y12.4053 
X19.3201 Y12.4443 
X21.3199 
X21.5159 Y12.4053 
X21.7005 Y12.3289 
X21.8666 Y12.2179 
X22.0079 Y12.0766 
X22.1189 Y11.9105 
X22.1953 Y11.7259 
X22.2343 Y11.5299 
Y11.3301 
X22.1953 Y11.1341 
X22.1189 Y10.9495 
X22.0079 Y10.7834 
X21.8666 Y10.6421 
X21.7005 Y10.5311 
X21.5159 Y10.4547 
X21.3199 Y10.4157 
X19.3201 
X19.1241 Y10.4547 
X18.9395 Y10.5311 
X18.7734 Y10.6421 
X18.6321 Y10.7834 
X18.5211 Y10.9495 
X18.4447 Y11.1341 
X18.4057 Y11.3301 
Y11.5299 
X18.4447 Y11.7259 
X18.5211 Y11.9105 
X18.6321 Y12.0766 
X18.7734 Y12.2179 
G00 Z2.5400 
G00 X18.7734 Y9.6779 
G01 Z-0.1778 F254.00 
G01 X18.9395 Y9.7889 F508.00 
G01 X19.1241 Y9.8653 
X19.3201 Y9.9043 
X21.3199 
X21.5159 Y9.8653 
X21.7005 Y9.7889 
X21.8666 Y9.6779 
X22.0079 Y9.5366 
X22.1189 Y9.3704 
X22.1953 Y9.1859 
X22.2343 Y8.9899 
Y8.7901 
X22.1953 Y8.5941 
X22.1189 Y8.4095 
X22.0079 Y8.2434 
X21.8666 Y8.1021 
X21.7005 Y7.9911 
X21.5159 Y7.9147 
X21.3199 Y7.8757 
X19.3201 
X19.1241 Y7.9147 
X18.9395 Y7.9911 
X18.7734 Y8.1021 
X18.6321 Y8.2434 
X18.5211 Y8.4095 
X18.4447 Y8.5941 
X18.4057 Y8.7901 
Y8.9899 
X18.4447 Y9.1859 
X18.5211 Y9.3704 
X18.6321 Y9.5366 
X18.7734 Y9.6779 
G00 Z2.5400 
G00 X18.7734 Y7.1379 
G01 Z-0.1778 F254.00 
G01 X18.9395 Y7.2489 F508.00 
G01 X19.1241 Y7.3253 
X19.3201 Y7.3643 
X21.3199 
X21.5159 Y7.3253 
X21.7005 Y7.2489 
X21.8666 Y7.1379 
X22.0079 Y6.9966 
X22.1189 Y6.8304 
X22.1953 Y6.6459 
X22.2343 Y6.4499 
Y6.2501 
X22.1953 Y6.0541 
X22.1189 Y5.8695 
X22.0079 Y5.7034 
X21.8666 Y5.5621 
X21.7005 Y5.4511 
X21.5159 Y5.3747 
X21.3199 Y5.3357 
X19.3201 
X19.1241 Y5.3747 
X18.9395 Y5.4511 
X18.7734 Y5.5621 
X18.6321 Y5.7034 
X18.5211 Y5.8695 
X18.4447 Y6.0541 
X18.4057 Y6.2501 
Y6.4499 
X18.4447 Y6.6459 
X18.5211 Y6.8304 
X18.6321 Y6.9966 
X18.7734 Y7.1379 
G00 Z2.5400 
G00 X22.7679 Y8.3221 
G01 Z-0.1778 F254.00 
G01 X22.7505 Y8.3641 F508.00 
G01 X22.7505 Y9.4159 
X22.7679 Y9.4579 
X22.8001 Y9.4901 
X22.8421 Y9.5075 
X23.8939 
X23.9359 Y9.4901 
X23.9681 Y9.4579 
X23.9855 Y9.4159 
Y8.3641 
X23.9681 Y8.3221 
X23.9359 Y8.2899 
X23.8939 Y8.2725 
X22.8421 
X22.8001 Y8.2899 
X22.7679 Y8.3221 
G00 Z2.5400 
G00 X24.7999 Y10.3541 
G01 Z-0.1778 F254.00 
G01 X24.7825 Y10.3961 F508.00 
G01 X24.7825 Y11.4479 
X24.7999 Y11.4899 
X24.8321 Y11.5221 
X24.8741 Y11.5395 
X25.9259 
X25.9679 Y11.5221 
X26.0001 Y11.4899 
X26.0175 Y11.4479 
Y10.3961 
X26.0001 Y10.3541 
X25.9679 Y10.3219 
X25.9259 Y10.3045 
X24.8741 
X24.8321 Y10.3219 
X24.7999 Y10.3541 
G00 Z2.5400 
G00 X31.1483 Y11.5458 
G01 Z-0.1778 F254.00 
G01 X31.0635 Y11.6726 F508.00 
G01 X31.0051 Y11.8136 
X30.9753 Y11.9633 
Y13.4367 
X31.0051 Y13.5864 
X31.0635 Y13.7274 
X31.1483 Y13.8542 
X31.2562 Y13.9621 
X31.3830 Y14.0469 
X31.5240 Y14.1053 
X31.6737 Y14.1351 
X31.8263 
X31.9760 Y14.1053 
X32.1170 Y14.0469 
X32.2438 Y13.9621 
X32.3517 Y13.8542 
X32.4365 Y13.7274 
X32.4949 Y13.5864 
X32.5247 Y13.4367 
Y11.9633 
X32.4949 Y11.8136 
X32.4365 Y11.6726 
X32.3517 Y11.5458 
X32.2438 Y11.4378 
X32.1170 Y11.3531 
X31.9760 Y11.2947 
X31.8263 Y11.2649 
X31.6737 
X31.5240 Y11.2947 
X31.3830 Y11.3531 
X31.2562 Y11.4378 
X31.1483 Y11.5458 
G00 Z2.5400 
G00 X34.9582 Y11.5458 
G01 Z-0.1778 F254.00 
G01 X34.8735 Y11.6726 F508.00 
G01 X34.8151 Y11.8136 
X34.7853 Y11.9633 
Y13.4367 
X34.8151 Y13.5864 
X34.8735 Y13.7274 
X34.9582 Y13.8542 
X35.0662 Y13.9621 
X35.1930 Y14.0469 
X35.3340 Y14.1053 
X35.4837 Y14.1351 
X35.6363 
X35.7860 Y14.1053 
X35.9270 Y14.0469 
X36.0538 Y13.9621 
X36.1617 Y13.8542 
X36.2465 Y13.7274 
X36.3049 Y13.5864 
X36.3347 Y13.4367 
Y11.9633 
X36.3049 Y11.8136 
X36.2465 Y11.6726 
X36.1617 Y11.5458 
X36.0538 Y11.4378 
X35.9270 Y11.3531 
X35.7860 Y11.2947 
X35.6363 Y11.2649 
X35.4837 
X35.3340 Y11.2947 
X35.1930 Y11.3531 
X35.0662 Y11.4378 
X34.9582 Y11.5458 
G00 Z2.5400 
G00 X37.4999 Y12.1321 
G01 Z-0.1778 F254.00 
G01 X37.4825 Y12.1741 F508.00 
G01 X37.4825 Y13.2259 
X37.4999 Y13.2679 
X37.5321 Y13.3001 
X37.5741 Y13.3175 
X38.5953 
Y13.4367 
X38.6251 Y13.5864 
X38.6835 Y13.7274 
X38.7683 Y13.8542 
X38.8762 Y13.9621 
X39.0030 Y14.0469 
X39.1440 Y14.1053 
X39.2937 Y14.1351 
X39.4463 
X39.5960 Y14.1053 
X39.7370 Y14.0469 
X39.8638 Y13.9621 
X39.9717 Y13.8542 
X40.0565 Y13.7274 
X40.1149 Y13.5864 
X40.1447 Y13.4367 
Y11.9633 
X40.1149 Y11.8136 
X40.0565 Y11.6726 
X39.9717 Y11.5458 
X39.8638 Y11.4378 
X39.7370 Y11.3531 
X39.5960 Y11.2947 
X39.4463 Y11.2649 
X39.2937 
X39.1440 Y11.2947 
X39.0030 Y11.3531 
X38.8762 Y11.4378 
X38.7683 Y11.5458 
X38.6835 Y11.6726 
X38.6251 Y11.8136 
X38.5953 Y11.9633 
Y12.0825 
X37.5741 
X37.5321 Y12.0999 
X37.4999 Y12.1321 
G00 Z2.5400 
G00 X38.7683 Y15.3558 
G01 Z-0.1778 F254.00 
G01 X38.6835 Y15.4826 F508.00 
G01 X38.6251 Y15.6236 
X38.5953 Y15.7733 
Y17.2467 
X38.6251 Y17.3964 
X38.6835 Y17.5374 
X38.7683 Y17.6642 
X38.8762 Y17.7721 
X39.0030 Y17.8569 
X39.1440 Y17.9153 
X39.2937 Y17.9451 
X39.4463 
X39.5960 Y17.9153 
X39.7370 Y17.8569 
X39.8638 Y17.7721 
X39.9717 Y17.6642 
X40.0565 Y17.5374 
X40.1149 Y17.3964 
X40.1447 Y17.2467 
Y15.7733 
X40.1149 Y15.6236 
X40.0565 Y15.4826 
X39.9717 Y15.3558 
X39.8638 Y15.2478 
X39.7370 Y15.1631 
X39.5960 Y15.1047 
X39.4463 Y15.0749 
X39.2937 
X39.1440 Y15.1047 
X39.0030 Y15.1631 
X38.8762 Y15.2478 
X38.7683 Y15.3558 
G00 Z2.5400 
G00 X36.1617 Y15.3558 
G01 Z-0.1778 F254.00 
G01 X36.0538 Y15.2478 F508.00 
G01 X35.9270 Y15.1631 
X35.7860 Y15.1047 
X35.6363 Y15.0749 
X35.4837 
X35.3340 Y15.1047 
X35.1930 Y15.1631 
X35.0662 Y15.2478 
X34.9582 Y15.3558 
X34.8735 Y15.4826 
X34.8151 Y15.6236 
X34.7853 Y15.7733 
Y17.2467 
X34.8151 Y17.3964 
X34.8735 Y17.5374 
X34.9582 Y17.6642 
X35.0662 Y17.7721 
X35.1930 Y17.8569 
X35.3340 Y17.9153 
X35.4837 Y17.9451 
X35.6363 
X35.7860 Y17.9153 
X35.9270 Y17.8569 
X36.0538 Y17.7721 
X36.1617 Y17.6642 
X36.2465 Y17.5374 
X36.3049 Y17.3964 
X36.3347 Y17.2467 
Y15.7733 
X36.3049 Y15.6236 
X36.2465 Y15.4826 
X36.1617 Y15.3558 
G00 Z2.5400 
G00 X32.3517 Y15.3558 
G01 Z-0.1778 F254.00 
G01 X32.2438 Y15.2478 F508.00 
G01 X32.1170 Y15.1631 
X31.9760 Y15.1047 
X31.8263 Y15.0749 
X31.6737 
X31.5240 Y15.1047 
X31.3830 Y15.1631 
X31.2562 Y15.2478 
X31.1483 Y15.3558 
X31.0635 Y15.4826 
X31.0051 Y15.6236 
X30.9753 Y15.7733 
Y17.2467 
X31.0051 Y17.3964 
X31.0635 Y17.5374 
X31.1483 Y17.6642 
X31.2562 Y17.7721 
X31.3830 Y17.8569 
X31.5240 Y17.9153 
X31.6737 Y17.9451 
X31.8263 
X31.9760 Y17.9153 
X32.1170 Y17.8569 
X32.2438 Y17.7721 
X32.3517 Y17.6642 
X32.4365 Y17.5374 
X32.4949 Y17.3964 
X32.5247 Y17.2467 
Y15.7733 
X32.4949 Y15.6236 
X32.4365 Y15.4826 
X32.3517 Y15.3558 
G00 Z2.5400 
G00 X32.2438 Y25.4078 
G01 Z-0.1778 F254.00 
G01 X32.1170 Y25.3231 F508.00 
G01 X31.9760 Y25.2647 
X31.8263 Y25.2349 
X31.6737 
X31.5240 Y25.2647 
X31.3830 Y25.3231 
X31.2562 Y25.4078 
X31.1483 Y25.5158 
X31.0635 Y25.6426 
X31.0051 Y25.7836 
X30.9753 Y25.9333 
Y27.4067 
X31.0051 Y27.5564 
X31.0635 Y27.6974 
X31.1483 Y27.8242 
X31.2562 Y27.9321 
X31.3830 Y28.0169 
X31.5240 Y28.0753 
X31.6737 Y28.1051 
X31.8263 
X31.9760 Y28.0753 
X32.1170 Y28.0169 
X32.2438 Y27.9321 
X32.3517 Y27.8242 
X32.4365 Y27.6974 
X32.4949 Y27.5564 
X32.5247 Y27.4067 
Y25.9333 
X32.4949 Y25.7836 
X32.4365 Y25.6426 
X32.3517 Y25.5158 
X32.2438 Y25.4078 
G00 Z2.5400 
G00 X34.9582 Y25.5158 
G01 Z-0.1778 F254.00 
G01 X34.8735 Y25.6426 F508.00 
G01 X34.8151 Y25.7836 
X34.7853 Y25.9333 
Y27.4067 
X34.8151 Y27.5564 
X34.8735 Y27.6974 
X34.9582 Y27.8242 
X35.0662 Y27.9321 
X35.1930 Y28.0169 
X35.3340 Y28.0753 
X35.4837 Y28.1051 
X35.6363 
X35.7860 Y28.0753 
X35.9270 Y28.0169 
X36.0538 Y27.9321 
X36.1617 Y27.8242 
X36.2465 Y27.6974 
X36.3049 Y27.5564 
X36.3347 Y27.4067 
Y25.9333 
X36.3049 Y25.7836 
X36.2465 Y25.6426 
X36.1617 Y25.5158 
X36.0538 Y25.4078 
X35.9270 Y25.3231 
X35.7860 Y25.2647 
X35.6363 Y25.2349 
X35.4837 
X35.3340 Y25.2647 
X35.1930 Y25.3231 
X35.0662 Y25.4078 
X34.9582 Y25.5158 
G00 Z2.5400 
G00 X38.7683 Y25.5158 
G01 Z-0.1778 F254.00 
G01 X38.6835 Y25.6426 F508.00 
G01 X38.6251 Y25.7836 
X38.5953 Y25.9333 
Y27.4067 
X38.6251 Y27.5564 
X38.6835 Y27.6974 
X38.7683 Y27.8242 
X38.8762 Y27.9321 
X39.0030 Y28.0169 
X39.1440 Y28.0753 
X39.2937 Y28.1051 
X39.4463 
X39.5960 Y28.0753 
X39.7370 Y28.0169 
X39.8638 Y27.9321 
X39.9717 Y27.8242 
X40.0565 Y27.6974 
X40.1149 Y27.5564 
X40.1447 Y27.4067 
Y25.9333 
X40.1149 Y25.7836 
X40.0565 Y25.6426 
X39.9717 Y25.5158 
X39.8638 Y25.4078 
X39.7370 Y25.3231 
X39.5960 Y25.2647 
X39.4463 Y25.2349 
X39.2937 
X39.1440 Y25.2647 
X39.0030 Y25.3231 
X38.8762 Y25.4078 
X38.7683 Y25.5158 
G00 Z2.5400 
G00 X42.5782 Y25.5158 
G01 Z-0.1778 F254.00 
G01 X42.4935 Y25.6426 F508.00 
G01 X42.4351 Y25.7836 
X42.4053 Y25.9333 
Y27.4067 
X42.4351 Y27.5564 
X42.4935 Y27.6974 
X42.5782 Y27.8242 
X42.6862 Y27.9321 
X42.8130 Y28.0169 
X42.9540 Y28.0753 
X43.1037 Y28.1051 
X43.2563 
X43.4060 Y28.0753 
X43.5470 Y28.0169 
X43.6738 Y27.9321 
X43.7817 Y27.8242 
X43.8665 Y27.6974 
X43.9249 Y27.5564 
X43.9547 Y27.4067 
Y25.9333 
X43.9249 Y25.7836 
X43.8665 Y25.6426 
X43.7817 Y25.5158 
X43.6738 Y25.4078 
X43.5470 Y25.3231 
X43.4060 Y25.2647 
X43.2563 Y25.2349 
X43.1037 
X42.9540 Y25.2647 
X42.8130 Y25.3231 
X42.6862 Y25.4078 
X42.5782 Y25.5158 
G00 Z2.5400 
G00 X42.6862 Y17.7721 
G01 Z-0.1778 F254.00 
G01 X42.8130 Y17.8569 F508.00 
G01 X42.9540 Y17.9153 
X43.1037 Y17.9451 
X43.2563 
X43.4060 Y17.9153 
X43.5470 Y17.8569 
X43.6738 Y17.7721 
X43.7817 Y17.6642 
X43.8665 Y17.5374 
X43.9249 Y17.3964 
X43.9547 Y17.2467 
Y15.7733 
X43.9249 Y15.6236 
X43.8665 Y15.4826 
X43.7817 Y15.3558 
X43.6738 Y15.2478 
X43.5470 Y15.1631 
X43.4060 Y15.1047 
X43.2563 Y15.0749 
X43.1037 
X42.9540 Y15.1047 
X42.8130 Y15.1631 
X42.6862 Y15.2478 
X42.5782 Y15.3558 
X42.4935 Y15.4826 
X42.4351 Y15.6236 
X42.4053 Y15.7733 
Y17.2467 
X42.4351 Y17.3964 
X42.4935 Y17.5374 
X42.5782 Y17.6642 
X42.6862 Y17.7721 
G00 Z2.5400 
G00 X42.6862 Y13.9621 
G01 Z-0.1778 F254.00 
G01 X42.8130 Y14.0469 F508.00 
G01 X42.9540 Y14.1053 
X43.1037 Y14.1351 
X43.2563 
X43.4060 Y14.1053 
X43.5470 Y14.0469 
X43.6738 Y13.9621 
X43.7817 Y13.8542 
X43.8665 Y13.7274 
X43.9249 Y13.5864 
X43.9547 Y13.4367 
Y11.9633 
X43.9249 Y11.8136 
X43.8665 Y11.6726 
X43.7817 Y11.5458 
X43.6738 Y11.4378 
X43.5470 Y11.3531 
X43.4060 Y11.2947 
X43.2563 Y11.2649 
X43.1037 
X42.9540 Y11.2947 
X42.8130 Y11.3531 
X42.6862 Y11.4378 
X42.5782 Y11.5458 
X42.4935 Y11.6726 
X42.4351 Y11.8136 
X42.4053 Y11.9633 
Y13.4367 
X42.4351 Y13.5864 
X42.4935 Y13.7274 
X42.5782 Y13.8542 
X42.6862 Y13.9621 
G00 Z2.5400 
G00 X42.6862 Y3.8021 
G01 Z-0.1778 F254.00 
G01 X42.8130 Y3.8869 F508.00 
G01 X42.9540 Y3.9453 
X43.1037 Y3.9751 
X43.2563 
X43.4060 Y3.9453 
X43.5470 Y3.8869 
X43.6738 Y3.8021 
X43.7817 Y3.6942 
X43.8665 Y3.5674 
X43.9249 Y3.4264 
X43.9547 Y3.2767 
Y1.8033 
X43.9249 Y1.6536 
X43.8665 Y1.5126 
X43.7817 Y1.3858 
X43.6738 Y1.2778 
X43.5470 Y1.1931 
X43.4060 Y1.1347 
X43.2563 Y1.1049 
X43.1037 
X42.9540 Y1.1347 
X42.8130 Y1.1931 
X42.6862 Y1.2778 
X42.5782 Y1.3858 
X42.4935 Y1.5126 
X42.4351 Y1.6536 
X42.4053 Y1.8033 
Y3.2767 
X42.4351 Y3.4264 
X42.4935 Y3.5674 
X42.5782 Y3.6942 
X42.6862 Y3.8021 
G00 Z2.5400 
G00 X39.9717 Y3.6942 
G01 Z-0.1778 F254.00 
G01 X40.0565 Y3.5674 F508.00 
G01 X40.1149 Y3.4264 
X40.1447 Y3.2767 
Y1.8033 
X40.1149 Y1.6536 
X40.0565 Y1.5126 
X39.9717 Y1.3858 
X39.8638 Y1.2778 
X39.7370 Y1.1931 
X39.5960 Y1.1347 
X39.4463 Y1.1049 
X39.2937 
X39.1440 Y1.1347 
X39.0030 Y1.1931 
X38.8762 Y1.2778 
X38.7683 Y1.3858 
X38.6835 Y1.5126 
X38.6251 Y1.6536 
X38.5953 Y1.8033 
Y3.2767 
X38.6251 Y3.4264 
X38.6835 Y3.5674 
X38.7683 Y3.6942 
X38.8762 Y3.8021 
X39.0030 Y3.8869 
X39.1440 Y3.9453 
X39.2937 Y3.9751 
X39.4463 
X39.5960 Y3.9453 
X39.7370 Y3.8869 
X39.8638 Y3.8021 
X39.9717 Y3.6942 
G00 Z2.5400 
G00 X36.1617 Y3.6942 
G01 Z-0.1778 F254.00 
G01 X36.2465 Y3.5674 F508.00 
G01 X36.3049 Y3.4264 
X36.3347 Y3.2767 
Y1.8033 
X36.3049 Y1.6536 
X36.2465 Y1.5126 
X36.1617 Y1.3858 
X36.0538 Y1.2778 
X35.9270 Y1.1931 
X35.7860 Y1.1347 
X35.6363 Y1.1049 
X35.4837 
X35.3340 Y1.1347 
X35.1930 Y1.1931 
X35.0662 Y1.2778 
X34.9582 Y1.3858 
X34.8735 Y1.5126 
X34.8151 Y1.6536 
X34.7853 Y1.8033 
Y3.2767 
X34.8151 Y3.4264 
X34.8735 Y3.5674 
X34.9582 Y3.6942 
X35.0662 Y3.8021 
X35.1930 Y3.8869 
X35.3340 Y3.9453 
X35.4837 Y3.9751 
X35.6363 
X35.7860 Y3.9453 
X35.9270 Y3.8869 
X36.0538 Y3.8021 
X36.1617 Y3.6942 
G00 Z2.5400 
G00 X32.3517 Y3.6942 
G01 Z-0.1778 F254.00 
G01 X32.4365 Y3.5674 F508.00 
G01 X32.4949 Y3.4264 
X32.5247 Y3.2767 
Y1.8033 
X32.4949 Y1.6536 
X32.4365 Y1.5126 
X32.3517 Y1.3858 
X32.2438 Y1.2778 
X32.1170 Y1.1931 
X31.9760 Y1.1347 
X31.8263 Y1.1049 
X31.6737 
X31.5240 Y1.1347 
X31.3830 Y1.1931 
X31.2562 Y1.2778 
X31.1483 Y1.3858 
X31.0635 Y1.5126 
X31.0051 Y1.6536 
X30.9753 Y1.8033 
Y3.2767 
X31.0051 Y3.4264 
X31.0635 Y3.5674 
X31.1483 Y3.6942 
X31.2562 Y3.8021 
X31.3830 Y3.8869 
X31.5240 Y3.9453 
X31.6737 Y3.9751 
X31.8263 
X31.9760 Y3.9453 
X32.1170 Y3.8869 
X32.2438 Y3.8021 
X32.3517 Y3.6942 
G00 Z2.5400 
G00 X28.5079 Y24.7999 
G01 Z-0.1778 F254.00 
G01 X28.4659 Y24.7825 F508.00 
G01 X27.4141 Y24.7825 
X27.3721 Y24.7999 
X27.3399 Y24.8321 
X27.3225 Y24.8741 
Y25.9259 
X27.3399 Y25.9679 
X27.3721 Y26.0001 
X27.4141 Y26.0175 
X28.4659 
X28.5079 Y26.0001 
X28.5401 Y25.9679 
X28.5575 Y25.9259 
Y24.8741 
X28.5401 Y24.8321 
X28.5079 Y24.7999 
G00 Z2.5400 
G00 X28.5079 Y27.3399 
G01 Z-0.1778 F254.00 
G01 X28.4659 Y27.3225 F508.00 
G01 X27.4141 Y27.3225 
X27.3721 Y27.3399 
X27.3399 Y27.3721 
X27.3225 Y27.4141 
Y28.4659 
X27.3399 Y28.5079 
X27.3721 Y28.5401 
X27.4141 Y28.5575 
X28.4659 
X28.5079 Y28.5401 
X28.5401 Y28.5079 
X28.5575 Y28.4659 
Y27.4141 
X28.5401 Y27.3721 
X28.5079 Y27.3399 
G00 Z2.5400 
G00 X26.0001 Y26.9839 
G01 Z-0.1778 F254.00 
G01 X26.0175 Y26.9419 F508.00 
G01 X26.0175 Y25.8901 
X26.0001 Y25.8481 
X25.9679 Y25.8159 
X25.9259 Y25.7985 
X24.8741 
X24.8321 Y25.8159 
X24.7999 Y25.8481 
X24.7825 Y25.8901 
Y26.9419 
X24.7999 Y26.9839 
X24.8321 Y27.0161 
X24.8741 Y27.0335 
X25.9259 
X25.9679 Y27.0161 
X26.0001 Y26.9839 
G00 Z2.5400 
G00 X23.9855 Y26.9061 
G01 Z-0.1778 F254.00 
G01 X23.9681 Y26.8641 F508.00 
G01 X23.9359 Y26.8319 
X23.8939 Y26.8145 
X22.8421 
X22.8001 Y26.8319 
X22.7679 Y26.8641 
X22.7505 Y26.9061 
Y27.9579 
X22.7679 Y27.9999 
X22.8001 Y28.0321 
X22.8421 Y28.0495 
X23.8939 
X23.9359 Y28.0321 
X23.9681 Y27.9999 
X23.9855 Y27.9579 
Y26.9061 
G00 Z2.5400 
G00 X24.1379 Y29.9862 
G01 Z-0.1778 F254.00 
G01 X24.0531 Y30.1130 F508.00 
G01 X23.9947 Y30.2540 
X23.9649 Y30.4037 
Y30.5563 
X23.9947 Y30.7060 
X24.0531 Y30.8470 
X24.1379 Y30.9738 
X24.2458 Y31.0817 
X24.3726 Y31.1665 
X24.5136 Y31.2249 
X24.6633 Y31.2547 
X26.1367 
X26.2864 Y31.2249 
X26.4274 Y31.1665 
X26.5542 Y31.0817 
X26.6621 Y30.9738 
X26.7469 Y30.8470 
X26.8053 Y30.7060 
X26.8351 Y30.5563 
Y30.4037 
X26.8053 Y30.2540 
X26.7469 Y30.1130 
X26.6621 Y29.9862 
X26.5542 Y29.8783 
X26.4274 Y29.7935 
X26.2864 Y29.7351 
X26.1367 Y29.7053 
X24.6633 
X24.5136 Y29.7351 
X24.3726 Y29.7935 
X24.2458 Y29.8783 
X24.1379 Y29.9862 
G00 Z2.5400 
G00 X24.1379 Y32.5262 
G01 Z-0.1778 F254.00 
G01 X24.0531 Y32.6530 F508.00 
G01 X23.9947 Y32.7940 
X23.9649 Y32.9437 
Y33.0963 
X23.9947 Y33.2460 
X24.0531 Y33.3870 
X24.1379 Y33.5138 
X24.2458 Y33.6217 
X24.3726 Y33.7065 
X24.5136 Y33.7649 
X24.6633 Y33.7947 
X26.1367 
X26.2864 Y33.7649 
X26.4274 Y33.7065 
X26.5542 Y33.6217 
X26.6621 Y33.5138 
X26.7469 Y33.3870 
X26.8053 Y33.2460 
X26.8351 Y33.0963 
Y32.9437 
X26.8053 Y32.7940 
X26.7469 Y32.6530 
X26.6621 Y32.5262 
X26.5542 Y32.4183 
X26.4274 Y32.3335 
X26.2864 Y32.2751 
X26.1367 Y32.2453 
X24.6633 
X24.5136 Y32.2751 
X24.3726 Y32.3335 
X24.2458 Y32.4183 
X24.1379 Y32.5262 
G00 Z2.5400 
G00 X24.1379 Y35.0662 
G01 Z-0.1778 F254.00 
G01 X24.0531 Y35.1930 F508.00 
G01 X23.9947 Y35.3340 
X23.9649 Y35.4837 
Y35.6363 
X23.9947 Y35.7860 
X24.0531 Y35.9270 
X24.1379 Y36.0538 
X24.2458 Y36.1617 
X24.3726 Y36.2465 
X24.5136 Y36.3049 
X24.6633 Y36.3347 
X26.1367 
X26.2864 Y36.3049 
X26.4274 Y36.2465 
X26.5542 Y36.1617 
X26.6621 Y36.0538 
X26.7469 Y35.9270 
X26.8053 Y35.7860 
X26.8351 Y35.6363 
Y35.4837 
X26.8053 Y35.3340 
X26.7469 Y35.1930 
X26.6621 Y35.0662 
X26.5542 Y34.9582 
X26.4274 Y34.8735 
X26.2864 Y34.8151 
X26.1367 Y34.7853 
X24.6633 
X24.5136 Y34.8151 
X24.3726 Y34.8735 
X24.2458 Y34.9582 
X24.1379 Y35.0662 
G00 Z2.5400 
G00 X24.1379 Y37.6062 
G01 Z-0.1778 F254.00 
G01 X24.0531 Y37.7330 F508.00 
G01 X23.9947 Y37.8740 
X23.9649 Y38.0237 
Y38.1763 
X23.9947 Y38.3260 
X24.0531 Y38.4670 
X24.1379 Y38.5938 
X24.2458 Y38.7017 
X24.3726 Y38.7865 
X24.5136 Y38.8449 
X24.6633 Y38.8747 
X26.1367 
X26.2864 Y38.8449 
X26.4274 Y38.7865 
X26.5542 Y38.7017 
X26.6621 Y38.5938 
X26.7469 Y38.4670 
X26.8053 Y38.3260 
X26.8351 Y38.1763 
Y38.0237 
X26.8053 Y37.8740 
X26.7469 Y37.7330 
X26.6621 Y37.6062 
X26.5542 Y37.4982 
X26.4274 Y37.4135 
X26.2864 Y37.3551 
X26.1367 Y37.3253 
X24.6633 
X24.5136 Y37.3551 
X24.3726 Y37.4135 
X24.2458 Y37.4982 
X24.1379 Y37.6062 
G00 Z2.5400 
G00 X24.1379 Y40.1462 
G01 Z-0.1778 F254.00 
G01 X24.0531 Y40.2730 F508.00 
G01 X23.9947 Y40.4140 
X23.9649 Y40.5637 
Y40.7163 
X23.9947 Y40.8660 
X24.0531 Y41.0070 
X24.1379 Y41.1338 
X24.2458 Y41.2417 
X24.3726 Y41.3265 
X24.5136 Y41.3849 
X24.6633 Y41.4147 
X26.1367 
X26.2864 Y41.3849 
X26.4274 Y41.3265 
X26.5542 Y41.2417 
X26.6621 Y41.1338 
X26.7469 Y41.0070 
X26.8053 Y40.8660 
X26.8351 Y40.7163 
Y40.5637 
X26.8053 Y40.4140 
X26.7469 Y40.2730 
X26.6621 Y40.1462 
X26.5542 Y40.0382 
X26.4274 Y39.9535 
X26.2864 Y39.8951 
X26.1367 Y39.8653 
X24.6633 
X24.5136 Y39.8951 
X24.3726 Y39.9535 
X24.2458 Y40.0382 
X24.1379 Y40.1462 
G00 Z2.5400 
G00 X24.1379 Y42.6862 
G01 Z-0.1778 F254.00 
G01 X24.0531 Y42.8130 F508.00 
G01 X23.9947 Y42.9540 
X23.9649 Y43.1037 
Y43.2563 
X23.9947 Y43.4060 
X24.0531 Y43.5470 
X24.1379 Y43.6738 
X24.2458 Y43.7817 
X24.3726 Y43.8665 
X24.5136 Y43.9249 
X24.6633 Y43.9547 
X26.1367 
X26.2864 Y43.9249 
X26.4274 Y43.8665 
X26.5542 Y43.7817 
X26.6621 Y43.6738 
X26.7469 Y43.5470 
X26.8053 Y43.4060 
X26.8351 Y43.2563 
Y43.1037 
X26.8053 Y42.9540 
X26.7469 Y42.8130 
X26.6621 Y42.6862 
X26.5542 Y42.5782 
X26.4274 Y42.4935 
X26.2864 Y42.4351 
X26.1367 Y42.4053 
X24.6633 
X24.5136 Y42.4351 
X24.3726 Y42.4935 
X24.2458 Y42.5782 
X24.1379 Y42.6862 
G00 Z2.5400 
G00 X24.1379 Y45.2262 
G01 Z-0.1778 F254.00 
G01 X24.0531 Y45.3530 F508.00 
G01 X23.9947 Y45.4940 
X23.9649 Y45.6437 
Y45.7963 
X23.9947 Y45.9460 
X24.0531 Y46.0870 
X24.1379 Y46.2138 
X24.2458 Y46.3217 
X24.3726 Y46.4065 
X24.5136 Y46.4649 
X24.6633 Y46.4947 
X26.1367 
X26.2864 Y46.4649 
X26.4274 Y46.4065 
X26.5542 Y46.3217 
X26.6621 Y46.2138 
X26.7469 Y46.0870 
X26.8053 Y45.9460 
X26.8351 Y45.7963 
Y45.6437 
X26.8053 Y45.4940 
X26.7469 Y45.3530 
X26.6621 Y45.2262 
X26.5542 Y45.1183 
X26.4274 Y45.0335 
X26.2864 Y44.9751 
X26.1367 Y44.9453 
X24.6633 
X24.5136 Y44.9751 
X24.3726 Y45.0335 
X24.2458 Y45.1183 
X24.1379 Y45.2262 
G00 Z2.5400 
G00 X24.1379 Y47.7662 
G01 Z-0.1778 F254.00 
G01 X24.0531 Y47.8930 F508.00 
G01 X23.9947 Y48.0340 
X23.9649 Y48.1837 
Y48.3363 
X23.9947 Y48.4860 
X24.0531 Y48.6270 
X24.1379 Y48.7538 
X24.2458 Y48.8617 
X24.3726 Y48.9465 
X24.5136 Y49.0049 
X24.6633 Y49.0347 
X26.1367 
X26.2864 Y49.0049 
X26.4274 Y48.9465 
X26.5542 Y48.8617 
X26.6621 Y48.7538 
X26.7469 Y48.6270 
X26.8053 Y48.4860 
X26.8351 Y48.3363 
Y48.1837 
X26.8053 Y48.0340 
X26.7469 Y47.8930 
X26.6621 Y47.7662 
X26.5542 Y47.6583 
X26.4274 Y47.5735 
X26.2864 Y47.5151 
X26.1367 Y47.4853 
X24.6633 
X24.5136 Y47.5151 
X24.3726 Y47.5735 
X24.2458 Y47.6583 
X24.1379 Y47.7662 
G00 Z2.5400 
G00 X19.0421 Y47.7662 
G01 Z-0.1778 F254.00 
G01 X18.9342 Y47.6583 F508.00 
G01 X18.8074 Y47.5735 
X18.6664 Y47.5151 
X18.5167 Y47.4853 
X17.0433 
X16.8936 Y47.5151 
X16.7526 Y47.5735 
X16.6258 Y47.6583 
X16.5178 Y47.7662 
X16.4331 Y47.8930 
X16.3747 Y48.0340 
X16.3449 Y48.1837 
Y48.3363 
X16.3747 Y48.4860 
X16.4331 Y48.6270 
X16.5178 Y48.7538 
X16.6258 Y48.8617 
X16.7526 Y48.9465 
X16.8936 Y49.0049 
X17.0433 Y49.0347 
X18.5167 
X18.6664 Y49.0049 
X18.8074 Y48.9465 
X18.9342 Y48.8617 
X19.0421 Y48.7538 
X19.1269 Y48.6270 
X19.1853 Y48.4860 
X19.2151 Y48.3363 
Y48.1837 
X19.1853 Y48.0340 
X19.1269 Y47.8930 
X19.0421 Y47.7662 
G00 Z2.5400 
G00 X19.0421 Y46.2138 
G01 Z-0.1778 F254.00 
G01 X19.1269 Y46.0870 F508.00 
G01 X19.1853 Y45.9460 
X19.2151 Y45.7963 
Y45.6437 
X19.1853 Y45.4940 
X19.1269 Y45.3530 
X19.0421 Y45.2262 
X18.9342 Y45.1183 
X18.8074 Y45.0335 
X18.6664 Y44.9751 
X18.5167 Y44.9453 
X17.0433 
X16.8936 Y44.9751 
X16.7526 Y45.0335 
X16.6258 Y45.1183 
X16.5178 Y45.2262 
X16.4331 Y45.3530 
X16.3747 Y45.4940 
X16.3449 Y45.6437 
Y45.7963 
X16.3747 Y45.9460 
X16.4331 Y46.0870 
X16.5178 Y46.2138 
X16.6258 Y46.3217 
X16.7526 Y46.4065 
X16.8936 Y46.4649 
X17.0433 Y46.4947 
X18.5167 
X18.6664 Y46.4649 
X18.8074 Y46.4065 
X18.9342 Y46.3217 
X19.0421 Y46.2138 
G00 Z2.5400 
G00 X19.0421 Y43.6738 
G01 Z-0.1778 F254.00 
G01 X19.1269 Y43.5470 F508.00 
G01 X19.1853 Y43.4060 
X19.2151 Y43.2563 
Y43.1037 
X19.1853 Y42.9540 
X19.1269 Y42.8130 
X19.0421 Y42.6862 
X18.9342 Y42.5782 
X18.8074 Y42.4935 
X18.6664 Y42.4351 
X18.5167 Y42.4053 
X17.0433 
X16.8936 Y42.4351 
X16.7526 Y42.4935 
X16.6258 Y42.5782 
X16.5178 Y42.6862 
X16.4331 Y42.8130 
X16.3747 Y42.9540 
X16.3449 Y43.1037 
Y43.2563 
X16.3747 Y43.4060 
X16.4331 Y43.5470 
X16.5178 Y43.6738 
X16.6258 Y43.7817 
X16.7526 Y43.8665 
X16.8936 Y43.9249 
X17.0433 Y43.9547 
X18.5167 
X18.6664 Y43.9249 
X18.8074 Y43.8665 
X18.9342 Y43.7817 
X19.0421 Y43.6738 
G00 Z2.5400 
G00 X19.0421 Y41.1338 
G01 Z-0.1778 F254.00 
G01 X19.1269 Y41.0070 F508.00 
G01 X19.1853 Y40.8660 
X19.2151 Y40.7163 
Y40.5637 
X19.1853 Y40.4140 
X19.1269 Y40.2730 
X19.0421 Y40.1462 
X18.9342 Y40.0382 
X18.8074 Y39.9535 
X18.6664 Y39.8951 
X18.5167 Y39.8653 
X17.0433 
X16.8936 Y39.8951 
X16.7526 Y39.9535 
X16.6258 Y40.0382 
X16.5178 Y40.1462 
X16.4331 Y40.2730 
X16.3747 Y40.4140 
X16.3449 Y40.5637 
Y40.7163 
X16.3747 Y40.8660 
X16.4331 Y41.0070 
X16.5178 Y41.1338 
X16.6258 Y41.2417 
X16.7526 Y41.3265 
X16.8936 Y41.3849 
X17.0433 Y41.4147 
X18.5167 
X18.6664 Y41.3849 
X18.8074 Y41.3265 
X18.9342 Y41.2417 
X19.0421 Y41.1338 
G00 Z2.5400 
G00 X19.0421 Y38.5938 
G01 Z-0.1778 F254.00 
G01 X19.1269 Y38.4670 F508.00 
G01 X19.1853 Y38.3260 
X19.2151 Y38.1763 
Y38.0237 
X19.1853 Y37.8740 
X19.1269 Y37.7330 
X19.0421 Y37.6062 
X18.9342 Y37.4982 
X18.8074 Y37.4135 
X18.6664 Y37.3551 
X18.5167 Y37.3253 
X17.0433 
X16.8936 Y37.3551 
X16.7526 Y37.4135 
X16.6258 Y37.4982 
X16.5178 Y37.6062 
X16.4331 Y37.7330 
X16.3747 Y37.8740 
X16.3449 Y38.0237 
Y38.1763 
X16.3747 Y38.3260 
X16.4331 Y38.4670 
X16.5178 Y38.5938 
X16.6258 Y38.7017 
X16.7526 Y38.7865 
X16.8936 Y38.8449 
X17.0433 Y38.8747 
X18.5167 
X18.6664 Y38.8449 
X18.8074 Y38.7865 
X18.9342 Y38.7017 
X19.0421 Y38.5938 
G00 Z2.5400 
G00 X19.0421 Y36.0538 
G01 Z-0.1778 F254.00 
G01 X19.1269 Y35.9270 F508.00 
G01 X19.1853 Y35.7860 
X19.2151 Y35.6363 
Y35.4837 
X19.1853 Y35.3340 
X19.1269 Y35.1930 
X19.0421 Y35.0662 
X18.9342 Y34.9582 
X18.8074 Y34.8735 
X18.6664 Y34.8151 
X18.5167 Y34.7853 
X17.0433 
X16.8936 Y34.8151 
X16.7526 Y34.8735 
X16.6258 Y34.9582 
X16.5178 Y35.0662 
X16.4331 Y35.1930 
X16.3747 Y35.3340 
X16.3449 Y35.4837 
Y35.6363 
X16.3747 Y35.7860 
X16.4331 Y35.9270 
X16.5178 Y36.0538 
X16.6258 Y36.1617 
X16.7526 Y36.2465 
X16.8936 Y36.3049 
X17.0433 Y36.3347 
X18.5167 
X18.6664 Y36.3049 
X18.8074 Y36.2465 
X18.9342 Y36.1617 
X19.0421 Y36.0538 
G00 Z2.5400 
G00 X19.0421 Y33.5138 
G01 Z-0.1778 F254.00 
G01 X19.1269 Y33.3870 F508.00 
G01 X19.1853 Y33.2460 
X19.2151 Y33.0963 
Y32.9437 
X19.1853 Y32.7940 
X19.1269 Y32.6530 
X19.0421 Y32.5262 
X18.9342 Y32.4183 
X18.8074 Y32.3335 
X18.6664 Y32.2751 
X18.5167 Y32.2453 
X17.0433 
X16.8936 Y32.2751 
X16.7526 Y32.3335 
X16.6258 Y32.4183 
X16.5178 Y32.5262 
X16.4331 Y32.6530 
X16.3747 Y32.7940 
X16.3449 Y32.9437 
Y33.0963 
X16.3747 Y33.2460 
X16.4331 Y33.3870 
X16.5178 Y33.5138 
X16.6258 Y33.6217 
X16.7526 Y33.7065 
X16.8936 Y33.7649 
X17.0433 Y33.7947 
X18.5167 
X18.6664 Y33.7649 
X18.8074 Y33.7065 
X18.9342 Y33.6217 
X19.0421 Y33.5138 
G00 Z2.5400 
G00 X19.0421 Y30.9738 
G01 Z-0.1778 F254.00 
G01 X19.1269 Y30.8470 F508.00 
G01 X19.1853 Y30.7060 
X19.2151 Y30.5563 
Y30.4037 
X19.1853 Y30.2540 
X19.1269 Y30.1130 
X19.0421 Y29.9862 
X18.9342 Y29.8783 
X18.8074 Y29.7935 
X18.6664 Y29.7351 
X18.5167 Y29.7053 
X17.0433 
X16.8936 Y29.7351 
X16.7526 Y29.7935 
X16.6258 Y29.8783 
X16.5178 Y29.9862 
X16.4331 Y30.1130 
X16.3747 Y30.2540 
X16.3449 Y30.4037 
Y30.5563 
X16.3747 Y30.7060 
X16.4331 Y30.8470 
X16.5178 Y30.9738 
X16.6258 Y31.0817 
X16.7526 Y31.1665 
X16.8936 Y31.2249 
X17.0433 Y31.2547 
X18.5167 
X18.6664 Y31.2249 
X18.8074 Y31.1665 
X18.9342 Y31.0817 
X19.0421 Y30.9738 
G00 Z2.5400 
G00 X19.7199 Y51.2481 
G01 Z-0.1778 F254.00 
G01 X19.7025 Y51.2901 F508.00 
G01 X19.7025 Y52.3419 
X19.7199 Y52.3839 
X19.7521 Y52.4161 
X19.7941 Y52.4335 
X20.8459 
X20.8879 Y52.4161 
X20.9201 Y52.3839 
X20.9375 Y52.3419 
Y51.2901 
X20.9201 Y51.2481 
X20.8879 Y51.2159 
X20.8459 Y51.1985 
X19.7941 
X19.7521 Y51.2159 
X19.7199 Y51.2481 
G00 Z2.5400 
G00 X20.4819 Y52.5181 
G01 Z-0.1778 F254.00 
G01 X20.4645 Y52.5601 F508.00 
G01 X20.4645 Y53.6119 
X20.4819 Y53.6539 
X20.5141 Y53.6861 
X20.5561 Y53.7035 
X21.6079 
X21.6499 Y53.6861 
X21.6821 Y53.6539 
X21.6995 Y53.6119 
Y52.5601 
X21.6821 Y52.5181 
X21.6499 Y52.4859 
X21.6079 Y52.4685 
X20.5561 
X20.5141 Y52.4859 
X20.4819 Y52.5181 
G00 Z2.5400 
G00 X21.2439 Y53.7881 
G01 Z-0.1778 F254.00 
G01 X21.2265 Y53.8301 F508.00 
G01 X21.2265 Y54.8819 
X21.2439 Y54.9239 
X21.2761 Y54.9561 
X21.3181 Y54.9735 
X22.3699 
X22.4119 Y54.9561 
X22.4441 Y54.9239 
X22.4615 Y54.8819 
Y53.8301 
X22.4441 Y53.7881 
X22.4119 Y53.7559 
X22.3699 Y53.7385 
X21.3181 
X21.2761 Y53.7559 
X21.2439 Y53.7881 
G00 Z2.5400 
G00 X22.0059 Y55.0581 
G01 Z-0.1778 F254.00 
G01 X21.9885 Y55.1001 F508.00 
G01 X21.9885 Y56.1519 
X22.0059 Y56.1939 
X22.0381 Y56.2261 
X22.0801 Y56.2435 
X23.1319 
X23.1739 Y56.2261 
X23.2061 Y56.1939 
X23.2235 Y56.1519 
Y55.1001 
X23.2061 Y55.0581 
X23.1739 Y55.0259 
X23.1319 Y55.0085 
X22.0801 
X22.0381 Y55.0259 
X22.0059 Y55.0581 
G00 Z2.5400 
G00 X24.1379 Y57.9262 
G01 Z-0.1778 F254.00 
G01 X24.0531 Y58.0530 F508.00 
G01 X23.9947 Y58.1940 
X23.9649 Y58.3437 
Y58.4963 
X23.9947 Y58.6460 
X24.0531 Y58.7870 
X24.1379 Y58.9138 
X24.2458 Y59.0217 
X24.3726 Y59.1065 
X24.5136 Y59.1649 
X24.6633 Y59.1947 
X26.1367 
X26.2864 Y59.1649 
X26.4274 Y59.1065 
X26.5542 Y59.0217 
X26.6621 Y58.9138 
X26.7469 Y58.7870 
X26.8053 Y58.6460 
X26.8351 Y58.4963 
Y58.3437 
X26.8053 Y58.1940 
X26.7469 Y58.0530 
X26.6621 Y57.9262 
X26.5542 Y57.8182 
X26.4274 Y57.7335 
X26.2864 Y57.6751 
X26.1367 Y57.6453 
X24.6633 
X24.5136 Y57.6751 
X24.3726 Y57.7335 
X24.2458 Y57.8182 
X24.1379 Y57.9262 
G00 Z2.5400 
G00 X24.1379 Y60.4662 
G01 Z-0.1778 F254.00 
G01 X24.0531 Y60.5930 F508.00 
G01 X23.9947 Y60.7340 
X23.9649 Y60.8837 
Y61.0363 
X23.9947 Y61.1860 
X24.0531 Y61.3270 
X24.1379 Y61.4538 
X24.2458 Y61.5617 
X24.3726 Y61.6465 
X24.5136 Y61.7049 
X24.6633 Y61.7347 
X26.1367 
X26.2864 Y61.7049 
X26.4274 Y61.6465 
X26.5542 Y61.5617 
X26.6621 Y61.4538 
X26.7469 Y61.3270 
X26.8053 Y61.1860 
X26.8351 Y61.0363 
Y60.8837 
X26.8053 Y60.7340 
X26.7469 Y60.5930 
X26.6621 Y60.4662 
X26.5542 Y60.3582 
X26.4274 Y60.2735 
X26.2864 Y60.2151 
X26.1367 Y60.1853 
X24.6633 
X24.5136 Y60.2151 
X24.3726 Y60.2735 
X24.2458 Y60.3582 
X24.1379 Y60.4662 
G00 Z2.5400 
G00 X24.1379 Y63.0062 
G01 Z-0.1778 F254.00 
G01 X24.0531 Y63.1330 F508.00 
G01 X23.9947 Y63.2740 
X23.9649 Y63.4237 
Y63.5763 
X23.9947 Y63.7260 
X24.0531 Y63.8670 
X24.1379 Y63.9938 
X24.2458 Y64.1017 
X24.3726 Y64.1865 
X24.5136 Y64.2449 
X24.6633 Y64.2747 
X26.1367 
X26.2864 Y64.2449 
X26.4274 Y64.1865 
X26.5542 Y64.1017 
X26.6621 Y63.9938 
X26.7469 Y63.8670 
X26.8053 Y63.7260 
X26.8351 Y63.5763 
Y63.4237 
X26.8053 Y63.2740 
X26.7469 Y63.1330 
X26.6621 Y63.0062 
X26.5542 Y62.8982 
X26.4274 Y62.8135 
X26.2864 Y62.7551 
X26.1367 Y62.7253 
X24.6633 
X24.5136 Y62.7551 
X24.3726 Y62.8135 
X24.2458 Y62.8982 
X24.1379 Y63.0062 
G00 Z2.5400 
G00 X24.1379 Y65.5462 
G01 Z-0.1778 F254.00 
G01 X24.0531 Y65.6730 F508.00 
G01 X23.9947 Y65.8140 
X23.9649 Y65.9637 
Y66.1163 
X23.9947 Y66.2660 
X24.0531 Y66.4070 
X24.1379 Y66.5338 
X24.2458 Y66.6417 
X24.3726 Y66.7265 
X24.5136 Y66.7849 
X24.6633 Y66.8147 
X26.1367 
X26.2864 Y66.7849 
X26.4274 Y66.7265 
X26.5542 Y66.6417 
X26.6621 Y66.5338 
X26.7469 Y66.4070 
X26.8053 Y66.2660 
X26.8351 Y66.1163 
Y65.9637 
X26.8053 Y65.8140 
X26.7469 Y65.6730 
X26.6621 Y65.5462 
X26.5542 Y65.4382 
X26.4274 Y65.3535 
X26.2864 Y65.2951 
X26.1367 Y65.2653 
X24.6633 
X24.5136 Y65.2951 
X24.3726 Y65.3535 
X24.2458 Y65.4382 
X24.1379 Y65.5462 
G00 Z2.5400 
G00 X24.1379 Y68.0862 
G01 Z-0.1778 F254.00 
G01 X24.0531 Y68.2130 F508.00 
G01 X23.9947 Y68.3540 
X23.9649 Y68.5037 
Y68.6563 
X23.9947 Y68.8060 
X24.0531 Y68.9470 
X24.1379 Y69.0738 
X24.2458 Y69.1817 
X24.3726 Y69.2665 
X24.5136 Y69.3249 
X24.6633 Y69.3547 
X26.1367 
X26.2864 Y69.3249 
X26.4274 Y69.2665 
X26.5542 Y69.1817 
X26.6621 Y69.0738 
X26.7469 Y68.9470 
X26.8053 Y68.8060 
X26.8351 Y68.6563 
Y68.5037 
X26.8053 Y68.3540 
X26.7469 Y68.2130 
X26.6621 Y68.0862 
X26.5542 Y67.9783 
X26.4274 Y67.8935 
X26.2864 Y67.8351 
X26.1367 Y67.8053 
X24.6633 
X24.5136 Y67.8351 
X24.3726 Y67.8935 
X24.2458 Y67.9783 
X24.1379 Y68.0862 
G00 Z2.5400 
G00 X24.1379 Y70.6262 
G01 Z-0.1778 F254.00 
G01 X24.0531 Y70.7530 F508.00 
G01 X23.9947 Y70.8940 
X23.9649 Y71.0437 
Y71.1963 
X23.9947 Y71.3460 
X24.0531 Y71.4870 
X24.1379 Y71.6138 
X24.2458 Y71.7217 
X24.3726 Y71.8065 
X24.5136 Y71.8649 
X24.6633 Y71.8947 
X26.1367 
X26.2864 Y71.8649 
X26.4274 Y71.8065 
X26.5542 Y71.7217 
X26.6621 Y71.6138 
X26.7469 Y71.4870 
X26.8053 Y71.3460 
X26.8351 Y71.1963 
Y71.0437 
X26.8053 Y70.8940 
X26.7469 Y70.7530 
X26.6621 Y70.6262 
X26.5542 Y70.5182 
X26.4274 Y70.4335 
X26.2864 Y70.3751 
X26.1367 Y70.3453 
X24.6633 
X24.5136 Y70.3751 
X24.3726 Y70.4335 
X24.2458 Y70.5182 
X24.1379 Y70.6262 
G00 Z2.5400 
G00 X24.1379 Y73.1662 
G01 Z-0.1778 F254.00 
G01 X24.0531 Y73.2930 F508.00 
G01 X23.9947 Y73.4340 
X23.9649 Y73.5837 
Y73.7363 
X23.9947 Y73.8860 
X24.0531 Y74.0270 
X24.1379 Y74.1538 
X24.2458 Y74.2617 
X24.3726 Y74.3465 
X24.5136 Y74.4049 
X24.6633 Y74.4347 
X26.1367 
X26.2864 Y74.4049 
X26.4274 Y74.3465 
X26.5542 Y74.2617 
X26.6621 Y74.1538 
X26.7469 Y74.0270 
X26.8053 Y73.8860 
X26.8351 Y73.7363 
Y73.5837 
X26.8053 Y73.4340 
X26.7469 Y73.2930 
X26.6621 Y73.1662 
X26.5542 Y73.0583 
X26.4274 Y72.9735 
X26.2864 Y72.9151 
X26.1367 Y72.8853 
X24.6633 
X24.5136 Y72.9151 
X24.3726 Y72.9735 
X24.2458 Y73.0583 
X24.1379 Y73.1662 
G00 Z2.5400 
G00 X24.1379 Y75.7062 
G01 Z-0.1778 F254.00 
G01 X24.0531 Y75.8330 F508.00 
G01 X23.9947 Y75.9740 
X23.9649 Y76.1237 
Y76.2763 
X23.9947 Y76.4260 
X24.0531 Y76.5670 
X24.1379 Y76.6938 
X24.2458 Y76.8017 
X24.3726 Y76.8865 
X24.5136 Y76.9449 
X24.6633 Y76.9747 
X26.1367 
X26.2864 Y76.9449 
X26.4274 Y76.8865 
X26.5542 Y76.8017 
X26.6621 Y76.6938 
X26.7469 Y76.5670 
X26.8053 Y76.4260 
X26.8351 Y76.2763 
Y76.1237 
X26.8053 Y75.9740 
X26.7469 Y75.8330 
X26.6621 Y75.7062 
X26.5542 Y75.5982 
X26.4274 Y75.5135 
X26.2864 Y75.4551 
X26.1367 Y75.4253 
X24.6633 
X24.5136 Y75.4551 
X24.3726 Y75.5135 
X24.2458 Y75.5982 
X24.1379 Y75.7062 
G00 Z2.5400 
G00 X19.0421 Y75.7062 
G01 Z-0.1778 F254.00 
G01 X18.9342 Y75.5982 F508.00 
G01 X18.8074 Y75.5135 
X18.6664 Y75.4551 
X18.5167 Y75.4253 
X17.0433 
X16.8936 Y75.4551 
X16.7526 Y75.5135 
X16.6258 Y75.5982 
X16.5178 Y75.7062 
X16.4331 Y75.8330 
X16.3747 Y75.9740 
X16.3449 Y76.1237 
Y76.2763 
X16.3747 Y76.4260 
X16.4331 Y76.5670 
X16.5178 Y76.6938 
X16.6258 Y76.8017 
X16.7526 Y76.8865 
X16.8936 Y76.9449 
X17.0433 Y76.9747 
X18.5167 
X18.6664 Y76.9449 
X18.8074 Y76.8865 
X18.9342 Y76.8017 
X19.0421 Y76.6938 
X19.1269 Y76.5670 
X19.1853 Y76.4260 
X19.2151 Y76.2763 
Y76.1237 
X19.1853 Y75.9740 
X19.1269 Y75.8330 
X19.0421 Y75.7062 
G00 Z2.5400 
G00 X19.0421 Y74.1538 
G01 Z-0.1778 F254.00 
G01 X19.1269 Y74.0270 F508.00 
G01 X19.1853 Y73.8860 
X19.2151 Y73.7363 
Y73.5837 
X19.1853 Y73.4340 
X19.1269 Y73.2930 
X19.0421 Y73.1662 
X18.9342 Y73.0583 
X18.8074 Y72.9735 
X18.6664 Y72.9151 
X18.5167 Y72.8853 
X17.0433 
X16.8936 Y72.9151 
X16.7526 Y72.9735 
X16.6258 Y73.0583 
X16.5178 Y73.1662 
X16.4331 Y73.2930 
X16.3747 Y73.4340 
X16.3449 Y73.5837 
Y73.7363 
X16.3747 Y73.8860 
X16.4331 Y74.0270 
X16.5178 Y74.1538 
X16.6258 Y74.2617 
X16.7526 Y74.3465 
X16.8936 Y74.4049 
X17.0433 Y74.4347 
X18.5167 
X18.6664 Y74.4049 
X18.8074 Y74.3465 
X18.9342 Y74.2617 
X19.0421 Y74.1538 
G00 Z2.5400 
G00 X19.0421 Y71.6138 
G01 Z-0.1778 F254.00 
G01 X19.1269 Y71.4870 F508.00 
G01 X19.1853 Y71.3460 
X19.2151 Y71.1963 
Y71.0437 
X19.1853 Y70.8940 
X19.1269 Y70.7530 
X19.0421 Y70.6262 
X18.9342 Y70.5182 
X18.8074 Y70.4335 
X18.6664 Y70.3751 
X18.5167 Y70.3453 
X17.0433 
X16.8936 Y70.3751 
X16.7526 Y70.4335 
X16.6258 Y70.5182 
X16.5178 Y70.6262 
X16.4331 Y70.7530 
X16.3747 Y70.8940 
X16.3449 Y71.0437 
Y71.1963 
X16.3747 Y71.3460 
X16.4331 Y71.4870 
X16.5178 Y71.6138 
X16.6258 Y71.7217 
X16.7526 Y71.8065 
X16.8936 Y71.8649 
X17.0433 Y71.8947 
X18.5167 
X18.6664 Y71.8649 
X18.8074 Y71.8065 
X18.9342 Y71.7217 
X19.0421 Y71.6138 
G00 Z2.5400 
G00 X19.0421 Y69.0738 
G01 Z-0.1778 F254.00 
G01 X19.1269 Y68.9470 F508.00 
G01 X19.1853 Y68.8060 
X19.2151 Y68.6563 
Y68.5037 
X19.1853 Y68.3540 
X19.1269 Y68.2130 
X19.0421 Y68.0862 
X18.9342 Y67.9783 
X18.8074 Y67.8935 
X18.6664 Y67.8351 
X18.5167 Y67.8053 
X17.0433 
X16.8936 Y67.8351 
X16.7526 Y67.8935 
X16.6258 Y67.9783 
X16.5178 Y68.0862 
X16.4331 Y68.2130 
X16.3747 Y68.3540 
X16.3449 Y68.5037 
Y68.6563 
X16.3747 Y68.8060 
X16.4331 Y68.9470 
X16.5178 Y69.0738 
X16.6258 Y69.1817 
X16.7526 Y69.2665 
X16.8936 Y69.3249 
X17.0433 Y69.3547 
X18.5167 
X18.6664 Y69.3249 
X18.8074 Y69.2665 
X18.9342 Y69.1817 
X19.0421 Y69.0738 
G00 Z2.5400 
G00 X19.0421 Y66.5338 
G01 Z-0.1778 F254.00 
G01 X19.1269 Y66.4070 F508.00 
G01 X19.1853 Y66.2660 
X19.2151 Y66.1163 
Y65.9637 
X19.1853 Y65.8140 
X19.1269 Y65.6730 
X19.0421 Y65.5462 
X18.9342 Y65.4382 
X18.8074 Y65.3535 
X18.6664 Y65.2951 
X18.5167 Y65.2653 
X17.0433 
X16.8936 Y65.2951 
X16.7526 Y65.3535 
X16.6258 Y65.4382 
X16.5178 Y65.5462 
X16.4331 Y65.6730 
X16.3747 Y65.8140 
X16.3449 Y65.9637 
Y66.1163 
X16.3747 Y66.2660 
X16.4331 Y66.4070 
X16.5178 Y66.5338 
X16.6258 Y66.6417 
X16.7526 Y66.7265 
X16.8936 Y66.7849 
X17.0433 Y66.8147 
X18.5167 
X18.6664 Y66.7849 
X18.8074 Y66.7265 
X18.9342 Y66.6417 
X19.0421 Y66.5338 
G00 Z2.5400 
G00 X19.0421 Y63.9938 
G01 Z-0.1778 F254.00 
G01 X19.1269 Y63.8670 F508.00 
G01 X19.1853 Y63.7260 
X19.2151 Y63.5763 
Y63.4237 
X19.1853 Y63.2740 
X19.1269 Y63.1330 
X19.0421 Y63.0062 
X18.9342 Y62.8982 
X18.8074 Y62.8135 
X18.6664 Y62.7551 
X18.5167 Y62.7253 
X17.0433 
X16.8936 Y62.7551 
X16.7526 Y62.8135 
X16.6258 Y62.8982 
X16.5178 Y63.0062 
X16.4331 Y63.1330 
X16.3747 Y63.2740 
X16.3449 Y63.4237 
Y63.5763 
X16.3747 Y63.7260 
X16.4331 Y63.8670 
X16.5178 Y63.9938 
X16.6258 Y64.1017 
X16.7526 Y64.1865 
X16.8936 Y64.2449 
X17.0433 Y64.2747 
X18.5167 
X18.6664 Y64.2449 
X18.8074 Y64.1865 
X18.9342 Y64.1017 
X19.0421 Y63.9938 
G00 Z2.5400 
G00 X19.0421 Y61.4538 
G01 Z-0.1778 F254.00 
G01 X19.1269 Y61.3270 F508.00 
G01 X19.1853 Y61.1860 
X19.2151 Y61.0363 
Y60.8837 
X19.1853 Y60.7340 
X19.1269 Y60.5930 
X19.0421 Y60.4662 
X18.9342 Y60.3582 
X18.8074 Y60.2735 
X18.6664 Y60.2151 
X18.5167 Y60.1853 
X17.0433 
X16.8936 Y60.2151 
X16.7526 Y60.2735 
X16.6258 Y60.3582 
X16.5178 Y60.4662 
X16.4331 Y60.5930 
X16.3747 Y60.7340 
X16.3449 Y60.8837 
Y61.0363 
X16.3747 Y61.1860 
X16.4331 Y61.3270 
X16.5178 Y61.4538 
X16.6258 Y61.5617 
X16.7526 Y61.6465 
X16.8936 Y61.7049 
X17.0433 Y61.7347 
X18.5167 
X18.6664 Y61.7049 
X18.8074 Y61.6465 
X18.9342 Y61.5617 
X19.0421 Y61.4538 
G00 Z2.5400 
G00 X19.0421 Y58.9138 
G01 Z-0.1778 F254.00 
G01 X19.1269 Y58.7870 F508.00 
G01 X19.1853 Y58.6460 
X19.2151 Y58.4963 
Y58.3437 
X19.1853 Y58.1940 
X19.1269 Y58.0530 
X19.0421 Y57.9262 
X18.9342 Y57.8182 
X18.8074 Y57.7335 
X18.6664 Y57.6751 
X18.5167 Y57.6453 
X17.0433 
X16.8936 Y57.6751 
X16.7526 Y57.7335 
X16.6258 Y57.8182 
X16.5178 Y57.9262 
X16.4331 Y58.0530 
X16.3747 Y58.1940 
X16.3449 Y58.3437 
Y58.4963 
X16.3747 Y58.6460 
X16.4331 Y58.7870 
X16.5178 Y58.9138 
X16.6258 Y59.0217 
X16.7526 Y59.1065 
X16.8936 Y59.1649 
X17.0433 Y59.1947 
X18.5167 
X18.6664 Y59.1649 
X18.8074 Y59.1065 
X18.9342 Y59.0217 
X19.0421 Y58.9138 
G00 Z2.5400 
G00 X27.8479 Y59.3761 
G01 Z-0.1778 F254.00 
G01 X27.8305 Y59.4181 F508.00 
G01 X27.8305 Y60.4699 
X27.8479 Y60.5119 
X27.8801 Y60.5441 
X27.9221 Y60.5615 
X28.9739 
X29.0159 Y60.5441 
X29.0481 Y60.5119 
X29.0655 Y60.4699 
Y59.4181 
X29.0481 Y59.3761 
X29.0159 Y59.3439 
X28.9739 Y59.3265 
X27.9221 
X27.8801 Y59.3439 
X27.8479 Y59.3761 
G00 Z2.5400 
G00 X37.8234 Y59.2079 
G01 Z-0.1778 F254.00 
G01 X37.9895 Y59.3189 F508.00 
G01 X38.1741 Y59.3953 
X38.3701 Y59.4343 
X40.3699 
X40.5659 Y59.3953 
X40.7505 Y59.3189 
X40.9166 Y59.2079 
X41.0579 Y59.0666 
X41.1689 Y58.9004 
X41.2453 Y58.7159 
X41.2843 Y58.5199 
Y58.3201 
X41.2453 Y58.1241 
X41.1689 Y57.9395 
X41.0579 Y57.7734 
X40.9166 Y57.6321 
X40.7505 Y57.5211 
X40.5659 Y57.4447 
X40.3699 Y57.4057 
X38.3701 
X38.1741 Y57.4447 
X37.9895 Y57.5211 
X37.8234 Y57.6321 
X37.6821 Y57.7734 
X37.5711 Y57.9395 
X37.4947 Y58.1241 
X37.4557 Y58.3201 
Y58.5199 
X37.4947 Y58.7159 
X37.5711 Y58.9004 
X37.6821 Y59.0666 
X37.8234 Y59.2079 
G00 Z2.5400 
G00 X37.8234 Y60.1721 
G01 Z-0.1778 F254.00 
G01 X37.6821 Y60.3134 F508.00 
G01 X37.5711 Y60.4795 
X37.4947 Y60.6641 
X37.4557 Y60.8601 
Y61.0599 
X37.4947 Y61.2559 
X37.5711 Y61.4404 
X37.6821 Y61.6066 
X37.8234 Y61.7479 
X37.9895 Y61.8589 
X38.1741 Y61.9353 
X38.3701 Y61.9743 
X40.3699 
X40.5659 Y61.9353 
X40.7505 Y61.8589 
X40.9166 Y61.7479 
X41.0579 Y61.6066 
X41.1689 Y61.4404 
X41.2453 Y61.2559 
X41.2843 Y61.0599 
Y60.8601 
X41.2453 Y60.6641 
X41.1689 Y60.4795 
X41.0579 Y60.3134 
X40.9166 Y60.1721 
X40.7505 Y60.0611 
X40.5659 Y59.9847 
X40.3699 Y59.9457 
X38.3701 
X38.1741 Y59.9847 
X37.9895 Y60.0611 
X37.8234 Y60.1721 
G00 Z2.5400 
G00 X37.8234 Y62.7121 
G01 Z-0.1778 F254.00 
G01 X37.6821 Y62.8534 F508.00 
G01 X37.5711 Y63.0195 
X37.4947 Y63.2041 
X37.4557 Y63.4001 
Y63.5999 
X37.4947 Y63.7959 
X37.5711 Y63.9804 
X37.6821 Y64.1466 
X37.8234 Y64.2879 
X37.9895 Y64.3989 
X38.1741 Y64.4753 
X38.3701 Y64.5143 
X40.3699 
X40.5659 Y64.4753 
X40.7505 Y64.3989 
X40.9166 Y64.2879 
X41.0579 Y64.1466 
X41.1689 Y63.9804 
X41.2453 Y63.7959 
X41.2843 Y63.5999 
Y63.4001 
X41.2453 Y63.2041 
X41.1689 Y63.0195 
X41.0579 Y62.8534 
X40.9166 Y62.7121 
X40.7505 Y62.6011 
X40.5659 Y62.5247 
X40.3699 Y62.4857 
X38.3701 
X38.1741 Y62.5247 
X37.9895 Y62.6011 
X37.8234 Y62.7121 
G00 Z2.5400 
G00 X37.8234 Y65.2521 
G01 Z-0.1778 F254.00 
G01 X37.6821 Y65.3934 F508.00 
G01 X37.5711 Y65.5595 
X37.4947 Y65.7441 
X37.4557 Y65.9401 
Y66.1399 
X37.4947 Y66.3359 
X37.5711 Y66.5204 
X37.6821 Y66.6866 
X37.8234 Y66.8279 
X37.9895 Y66.9389 
X38.1741 Y67.0153 
X38.3701 Y67.0543 
X40.3699 
X40.5659 Y67.0153 
X40.7505 Y66.9389 
X40.9166 Y66.8279 
X41.0579 Y66.6866 
X41.1689 Y66.5204 
X41.2453 Y66.3359 
X41.2843 Y66.1399 
Y65.9401 
X41.2453 Y65.7441 
X41.1689 Y65.5595 
X41.0579 Y65.3934 
X40.9166 Y65.2521 
X40.7505 Y65.1411 
X40.5659 Y65.0647 
X40.3699 Y65.0257 
X38.3701 
X38.1741 Y65.0647 
X37.9895 Y65.1411 
X37.8234 Y65.2521 
G00 Z2.5400 
G00 X37.8234 Y67.7921 
G01 Z-0.1778 F254.00 
G01 X37.6821 Y67.9334 F508.00 
G01 X37.5711 Y68.0995 
X37.4947 Y68.2841 
X37.4557 Y68.4801 
Y68.6799 
X37.4947 Y68.8759 
X37.5711 Y69.0605 
X37.6821 Y69.2266 
X37.8234 Y69.3679 
X37.9895 Y69.4789 
X38.1741 Y69.5553 
X38.3701 Y69.5943 
X40.3699 
X40.5659 Y69.5553 
X40.7505 Y69.4789 
X40.9166 Y69.3679 
X41.0579 Y69.2266 
X41.1689 Y69.0605 
X41.2453 Y68.8759 
X41.2843 Y68.6799 
Y68.4801 
X41.2453 Y68.2841 
X41.1689 Y68.0995 
X41.0579 Y67.9334 
X40.9166 Y67.7921 
X40.7505 Y67.6811 
X40.5659 Y67.6047 
X40.3699 Y67.5657 
X38.3701 
X38.1741 Y67.6047 
X37.9895 Y67.6811 
X37.8234 Y67.7921 
G00 Z2.5400 
G00 X37.8234 Y70.3321 
G01 Z-0.1778 F254.00 
G01 X37.6821 Y70.4734 F508.00 
G01 X37.5711 Y70.6395 
X37.4947 Y70.8241 
X37.4557 Y71.0201 
Y71.2199 
X37.4947 Y71.4159 
X37.5711 Y71.6004 
X37.6821 Y71.7666 
X37.8234 Y71.9079 
X37.9895 Y72.0189 
X38.1741 Y72.0953 
X38.3701 Y72.1343 
X40.3699 
X40.5659 Y72.0953 
X40.7505 Y72.0189 
X40.9166 Y71.9079 
X41.0579 Y71.7666 
X41.1689 Y71.6004 
X41.2453 Y71.4159 
X41.2843 Y71.2199 
Y71.0201 
X41.2453 Y70.8241 
X41.1689 Y70.6395 
X41.0579 Y70.4734 
X40.9166 Y70.3321 
X40.7505 Y70.2211 
X40.5659 Y70.1447 
X40.3699 Y70.1057 
X38.3701 
X38.1741 Y70.1447 
X37.9895 Y70.2211 
X37.8234 Y70.3321 
G00 Z2.5400 
G00 X37.8234 Y72.8721 
G01 Z-0.1778 F254.00 
G01 X37.6821 Y73.0134 F508.00 
G01 X37.5711 Y73.1795 
X37.4947 Y73.3641 
X37.4557 Y73.5601 
Y73.7599 
X37.4947 Y73.9559 
X37.5711 Y74.1405 
X37.6821 Y74.3066 
X37.8234 Y74.4479 
X37.9895 Y74.5589 
X38.1741 Y74.6353 
X38.3701 Y74.6743 
X40.3699 
X40.5659 Y74.6353 
X40.7505 Y74.5589 
X40.9166 Y74.4479 
X41.0579 Y74.3066 
X41.1689 Y74.1405 
X41.2453 Y73.9559 
X41.2843 Y73.7599 
Y73.5601 
X41.2453 Y73.3641 
X41.1689 Y73.1795 
X41.0579 Y73.0134 
X40.9166 Y72.8721 
X40.7505 Y72.7611 
X40.5659 Y72.6847 
X40.3699 Y72.6457 
X38.3701 
X38.1741 Y72.6847 
X37.9895 Y72.7611 
X37.8234 Y72.8721 
G00 Z2.5400 
G00 X37.8234 Y75.4121 
G01 Z-0.1778 F254.00 
G01 X37.6821 Y75.5534 F508.00 
G01 X37.5711 Y75.7195 
X37.4947 Y75.9041 
X37.4557 Y76.1001 
Y76.2999 
X37.4947 Y76.4959 
X37.5711 Y76.6804 
X37.6821 Y76.8466 
X37.8234 Y76.9879 
X37.9895 Y77.0989 
X38.1741 Y77.1753 
X38.3701 Y77.2143 
X40.3699 
X40.5659 Y77.1753 
X40.7505 Y77.0989 
X40.9166 Y76.9879 
X41.0579 Y76.8466 
X41.1689 Y76.6804 
X41.2453 Y76.4959 
X41.2843 Y76.2999 
Y76.1001 
X41.2453 Y75.9041 
X41.1689 Y75.7195 
X41.0579 Y75.5534 
X40.9166 Y75.4121 
X40.7505 Y75.3011 
X40.5659 Y75.2247 
X40.3699 Y75.1857 
X38.3701 
X38.1741 Y75.2247 
X37.9895 Y75.3011 
X37.8234 Y75.4121 
G00 Z2.5400 
G00 X42.6511 Y75.4104 
G01 Z-0.1778 F254.00 
G01 X42.7621 Y75.5766 F508.00 
G01 X42.9034 Y75.7179 
X43.0695 Y75.8289 
X43.2541 Y75.9053 
X43.4501 Y75.9443 
X45.4499 
X45.6459 Y75.9053 
X45.8304 Y75.8289 
X45.9966 Y75.7179 
X46.1379 Y75.5766 
X46.2489 Y75.4104 
X46.3253 Y75.2259 
X46.3643 Y75.0299 
Y74.8301 
X46.3253 Y74.6341 
X46.2489 Y74.4495 
X46.1379 Y74.2834 
X45.9966 Y74.1421 
X45.8304 Y74.0311 
X45.6459 Y73.9547 
X45.4499 Y73.9157 
X43.4501 
X43.2541 Y73.9547 
X43.0695 Y74.0311 
X42.9034 Y74.1421 
X42.7621 Y74.2834 
X42.6511 Y74.4495 
X42.5747 Y74.6341 
X42.5357 Y74.8301 
Y75.0299 
X42.5747 Y75.2259 
X42.6511 Y75.4104 
G00 Z2.5400 
G00 X42.9034 Y73.1779 
G01 Z-0.1778 F254.00 
G01 X43.0695 Y73.2889 F508.00 
G01 X43.2541 Y73.3653 
X43.4501 Y73.4043 
X45.4499 
X45.6459 Y73.3653 
X45.8304 Y73.2889 
X45.9966 Y73.1779 
X46.1379 Y73.0366 
X46.2489 Y72.8705 
X46.3253 Y72.6859 
X46.3643 Y72.4899 
Y72.2901 
X46.3253 Y72.0941 
X46.2489 Y71.9095 
X46.1379 Y71.7434 
X45.9966 Y71.6021 
X45.8304 Y71.4911 
X45.6459 Y71.4147 
X45.4499 Y71.3757 
X43.4501 
X43.2541 Y71.4147 
X43.0695 Y71.4911 
X42.9034 Y71.6021 
X42.7621 Y71.7434 
X42.6511 Y71.9095 
X42.5747 Y72.0941 
X42.5357 Y72.2901 
Y72.4899 
X42.5747 Y72.6859 
X42.6511 Y72.8705 
X42.7621 Y73.0366 
X42.9034 Y73.1779 
G00 Z2.5400 
G00 X42.9034 Y70.6379 
G01 Z-0.1778 F254.00 
G01 X43.0695 Y70.7489 F508.00 
G01 X43.2541 Y70.8253 
X43.4501 Y70.8643 
X45.4499 
X45.6459 Y70.8253 
X45.8304 Y70.7489 
X45.9966 Y70.6379 
X46.1379 Y70.4966 
X46.2489 Y70.3304 
X46.3253 Y70.1459 
X46.3643 Y69.9499 
Y69.7501 
X46.3253 Y69.5541 
X46.2489 Y69.3695 
X46.1379 Y69.2034 
X45.9966 Y69.0621 
X45.8304 Y68.9511 
X45.6459 Y68.8747 
X45.4499 Y68.8357 
X43.4501 
X43.2541 Y68.8747 
X43.0695 Y68.9511 
X42.9034 Y69.0621 
X42.7621 Y69.2034 
X42.6511 Y69.3695 
X42.5747 Y69.5541 
X42.5357 Y69.7501 
Y69.9499 
X42.5747 Y70.1459 
X42.6511 Y70.3304 
X42.7621 Y70.4966 
X42.9034 Y70.6379 
G00 Z2.5400 
G00 X42.9034 Y68.0979 
G01 Z-0.1778 F254.00 
G01 X43.0695 Y68.2089 F508.00 
G01 X43.2541 Y68.2853 
X43.4501 Y68.3243 
X45.4499 
X45.6459 Y68.2853 
X45.8304 Y68.2089 
X45.9966 Y68.0979 
X46.1379 Y67.9566 
X46.2489 Y67.7905 
X46.3253 Y67.6059 
X46.3643 Y67.4099 
Y67.2101 
X46.3253 Y67.0141 
X46.2489 Y66.8295 
X46.1379 Y66.6634 
X45.9966 Y66.5221 
X45.8304 Y66.4111 
X45.6459 Y66.3347 
X45.4499 Y66.2957 
X43.4501 
X43.2541 Y66.3347 
X43.0695 Y66.4111 
X42.9034 Y66.5221 
X42.7621 Y66.6634 
X42.6511 Y66.8295 
X42.5747 Y67.0141 
X42.5357 Y67.2101 
Y67.4099 
X42.5747 Y67.6059 
X42.6511 Y67.7905 
X42.7621 Y67.9566 
X42.9034 Y68.0979 
G00 Z2.5400 
G00 X42.9034 Y65.5579 
G01 Z-0.1778 F254.00 
G01 X43.0695 Y65.6689 F508.00 
G01 X43.2541 Y65.7453 
X43.4501 Y65.7843 
X45.4499 
X45.6459 Y65.7453 
X45.8304 Y65.6689 
X45.9966 Y65.5579 
X46.1379 Y65.4166 
X46.2489 Y65.2505 
X46.3253 Y65.0659 
X46.3643 Y64.8699 
Y64.6701 
X46.3253 Y64.4741 
X46.2489 Y64.2895 
X46.1379 Y64.1234 
X45.9966 Y63.9821 
X45.8304 Y63.8711 
X45.6459 Y63.7947 
X45.4499 Y63.7557 
X43.4501 
X43.2541 Y63.7947 
X43.0695 Y63.8711 
X42.9034 Y63.9821 
X42.7621 Y64.1234 
X42.6511 Y64.2895 
X42.5747 Y64.4741 
X42.5357 Y64.6701 
Y64.8699 
X42.5747 Y65.0659 
X42.6511 Y65.2505 
X42.7621 Y65.4166 
X42.9034 Y65.5579 
G00 Z2.5400 
G00 X42.9034 Y63.0179 
G01 Z-0.1778 F254.00 
G01 X43.0695 Y63.1289 F508.00 
G01 X43.2541 Y63.2053 
X43.4501 Y63.2443 
X45.4499 
X45.6459 Y63.2053 
X45.8304 Y63.1289 
X45.9966 Y63.0179 
X46.1379 Y62.8766 
X46.2489 Y62.7105 
X46.3253 Y62.5259 
X46.3643 Y62.3299 
Y62.1301 
X46.3253 Y61.9341 
X46.2489 Y61.7495 
X46.1379 Y61.5834 
X45.9966 Y61.4421 
X45.8304 Y61.3311 
X45.6459 Y61.2547 
X45.4499 Y61.2157 
X43.4501 
X43.2541 Y61.2547 
X43.0695 Y61.3311 
X42.9034 Y61.4421 
X42.7621 Y61.5834 
X42.6511 Y61.7495 
X42.5747 Y61.9341 
X42.5357 Y62.1301 
Y62.3299 
X42.5747 Y62.5259 
X42.6511 Y62.7105 
X42.7621 Y62.8766 
X42.9034 Y63.0179 
G00 Z2.5400 
G00 X42.9034 Y60.4779 
G01 Z-0.1778 F254.00 
G01 X43.0695 Y60.5889 F508.00 
G01 X43.2541 Y60.6653 
X43.4501 Y60.7043 
X45.4499 
X45.6459 Y60.6653 
X45.8304 Y60.5889 
X45.9966 Y60.4779 
X46.1379 Y60.3366 
X46.2489 Y60.1705 
X46.3253 Y59.9859 
X46.3643 Y59.7899 
Y59.5901 
X46.3253 Y59.3941 
X46.2489 Y59.2095 
X46.1379 Y59.0434 
X45.9966 Y58.9021 
X45.8304 Y58.7911 
X45.6459 Y58.7147 
X45.4499 Y58.6757 
X43.4501 
X43.2541 Y58.7147 
X43.0695 Y58.7911 
X42.9034 Y58.9021 
X42.7621 Y59.0434 
X42.6511 Y59.2095 
X42.5747 Y59.3941 
X42.5357 Y59.5901 
Y59.7899 
X42.5747 Y59.9859 
X42.6511 Y60.1705 
X42.7621 Y60.3366 
X42.9034 Y60.4779 
G00 Z2.5400 
G00 X42.5101 Y57.9719 
G01 Z-0.1778 F254.00 
G01 X42.5275 Y57.9299 F508.00 
G01 X42.5275 Y56.8781 
X42.5101 Y56.8361 
X42.4779 Y56.8039 
X42.4359 Y56.7865 
X41.3841 
X41.3421 Y56.8039 
X41.3099 Y56.8361 
X41.2925 Y56.8781 
Y57.9299 
X41.3099 Y57.9719 
X41.3421 Y58.0041 
X41.3841 Y58.0215 
X42.4359 
X42.4779 Y58.0041 
X42.5101 Y57.9719 
G00 Z2.5400 
G00 X43.8821 Y56.9881 
G01 Z-0.1778 F254.00 
G01 X43.9241 Y57.0055 F508.00 
G01 X44.9759 Y57.0055 
X45.0179 Y56.9881 
X45.0501 Y56.9559 
X45.0675 Y56.9139 
Y55.8621 
X45.0501 Y55.8201 
X45.0179 Y55.7879 
X44.9759 Y55.7705 
X43.9241 
X43.8821 Y55.7879 
X43.8499 Y55.8201 
X43.8325 Y55.8621 
Y56.9139 
X43.8499 Y56.9559 
X43.8821 Y56.9881 
G00 Z2.5400 
G00 X47.1841 Y56.9881 
G01 Z-0.1778 F254.00 
G01 X47.2261 Y57.0055 F508.00 
G01 X48.2779 Y57.0055 
X48.3199 Y56.9881 
X48.3521 Y56.9559 
X48.3695 Y56.9139 
Y55.8621 
X48.3521 Y55.8201 
X48.3199 Y55.7879 
X48.2779 Y55.7705 
X47.2261 
X47.1841 Y55.7879 
X47.1519 Y55.8201 
X47.1345 Y55.8621 
Y56.9139 
X47.1519 Y56.9559 
X47.1841 Y56.9881 
G00 Z2.5400 
G00 X49.9285 Y56.8781 
G01 Z-0.1778 F254.00 
G01 X49.9285 Y57.9299 F508.00 
G01 X49.9459 Y57.9719 
X49.9781 Y58.0041 
X50.0201 Y58.0215 
X51.0719 
X51.1139 Y58.0041 
X51.1461 Y57.9719 
X51.1635 Y57.9299 
Y56.8781 
X51.1461 Y56.8361 
X51.1139 Y56.8039 
X51.0719 Y56.7865 
X50.0201 
X49.9781 Y56.8039 
X49.9459 Y56.8361 
X49.9285 Y56.8781 
G00 Z2.5400 
G00 X49.5121 Y56.2435 
G01 Z-0.1778 F254.00 
G01 X50.5639 Y56.2435 F508.00 
G01 X50.6059 Y56.2261 
X50.6381 Y56.1939 
X50.6555 Y56.1519 
Y55.1001 
X50.6381 Y55.0581 
X50.6059 Y55.0259 
X50.5639 Y55.0085 
X49.5121 
X49.4701 Y55.0259 
X49.4379 Y55.0581 
X49.4205 Y55.1001 
Y56.1519 
X49.4379 Y56.1939 
X49.4701 Y56.2261 
X49.5121 Y56.2435 
G00 Z2.5400 
G00 X49.8019 Y54.9735 
G01 Z-0.1778 F254.00 
G01 X49.8439 Y54.9561 F508.00 
G01 X49.8761 Y54.9239 
X49.8935 Y54.8819 
Y53.8301 
X49.8761 Y53.7881 
X49.8439 Y53.7559 
X49.8019 Y53.7385 
X48.7501 
X48.7081 Y53.7559 
X48.6759 Y53.7881 
X48.6585 Y53.8301 
Y54.8819 
X48.6759 Y54.9239 
X48.7081 Y54.9561 
X48.7501 Y54.9735 
X49.8019 
G00 Z2.5400 
G00 X49.1141 Y53.6539 
G01 Z-0.1778 F254.00 
G01 X49.1315 Y53.6119 F508.00 
G01 X49.1315 Y52.5601 
X49.1141 Y52.5181 
X49.0819 Y52.4859 
X49.0399 Y52.4685 
X47.9881 
X47.9461 Y52.4859 
X47.9139 Y52.5181 
X47.8965 Y52.5601 
Y53.6119 
X47.9139 Y53.6539 
X47.9461 Y53.6861 
X47.9881 Y53.7035 
X49.0399 
X49.0819 Y53.6861 
X49.1141 Y53.6539 
G00 Z2.5400 
G00 X48.3521 Y52.3839 
G01 Z-0.1778 F254.00 
G01 X48.3695 Y52.3419 F508.00 
G01 X48.3695 Y51.2901 
X48.3521 Y51.2481 
X48.3199 Y51.2159 
X48.2779 Y51.1985 
X47.2261 
X47.1841 Y51.2159 
X47.1519 Y51.2481 
X47.1345 Y51.2901 
Y52.3419 
X47.1519 Y52.3839 
X47.1841 Y52.4161 
X47.2261 Y52.4335 
X48.2779 
X48.3199 Y52.4161 
X48.3521 Y52.3839 
G00 Z2.5400 
G00 X48.9299 Y59.1221 
G01 Z-0.1778 F254.00 
G01 X48.9125 Y59.1641 F508.00 
G01 X48.9125 Y60.2159 
X48.9299 Y60.2579 
X48.9621 Y60.2901 
X49.0041 Y60.3075 
X50.0559 
X50.0979 Y60.2901 
X50.1301 Y60.2579 
X50.1475 Y60.2159 
Y59.1641 
X50.1301 Y59.1221 
X50.0979 Y59.0899 
X50.0559 Y59.0725 
X49.0041 
X48.9621 Y59.0899 
X48.9299 Y59.1221 
G00 Z2.5400 
G00 X49.9459 Y64.4561 
G01 Z-0.1778 F254.00 
G01 X49.9285 Y64.4981 F508.00 
G01 X49.9285 Y65.5499 
X49.9459 Y65.5919 
X49.9781 Y65.6241 
X50.0201 Y65.6415 
X51.0719 
X51.1139 Y65.6241 
X51.1461 Y65.5919 
X51.1635 Y65.5499 
Y64.4981 
X51.1461 Y64.4561 
X51.1139 Y64.4239 
X51.0719 Y64.4065 
X50.0201 
X49.9781 Y64.4239 
X49.9459 Y64.4561 
G00 Z2.5400 
G00 X57.6751 Y64.3864 
G01 Z-0.1778 F254.00 
G01 X57.7335 Y64.5274 F508.00 
G01 X57.8182 Y64.6542 
X57.9262 Y64.7621 
X58.0530 Y64.8469 
X58.1940 Y64.9053 
X58.3437 Y64.9351 
X58.4963 
X58.6460 Y64.9053 
X58.7870 Y64.8469 
X58.9138 Y64.7621 
X59.0217 Y64.6542 
X59.1065 Y64.5274 
X59.1649 Y64.3864 
X59.1947 Y64.2367 
Y62.7633 
X59.1649 Y62.6136 
X59.1065 Y62.4726 
X59.0217 Y62.3458 
X58.9138 Y62.2379 
X58.7870 Y62.1531 
X58.6460 Y62.0947 
X58.4963 Y62.0649 
X58.3437 
X58.1940 Y62.0947 
X58.0530 Y62.1531 
X57.9262 Y62.2379 
X57.8182 Y62.3458 
X57.7335 Y62.4726 
X57.6751 Y62.6136 
X57.6453 Y62.7633 
Y64.2367 
X57.6751 Y64.3864 
G00 Z2.5400 
G00 X57.8182 Y66.1558 
G01 Z-0.1778 F254.00 
G01 X57.7335 Y66.2826 F508.00 
G01 X57.6751 Y66.4236 
X57.6453 Y66.5733 
Y68.0467 
X57.6751 Y68.1964 
X57.7335 Y68.3374 
X57.8182 Y68.4642 
X57.9262 Y68.5721 
X58.0530 Y68.6569 
X58.1940 Y68.7153 
X58.3437 Y68.7451 
X58.4963 
X58.6460 Y68.7153 
X58.7870 Y68.6569 
X58.9138 Y68.5721 
X59.0217 Y68.4642 
X59.1065 Y68.3374 
X59.1649 Y68.1964 
X59.1947 Y68.0467 
Y66.5733 
X59.1649 Y66.4236 
X59.1065 Y66.2826 
X59.0217 Y66.1558 
X58.9138 Y66.0478 
X58.7870 Y65.9631 
X58.6460 Y65.9047 
X58.4963 Y65.8749 
X58.3437 
X58.1940 Y65.9047 
X58.0530 Y65.9631 
X57.9262 Y66.0478 
X57.8182 Y66.1558 
G00 Z2.5400 
G00 X61.6283 Y66.1558 
G01 Z-0.1778 F254.00 
G01 X61.5435 Y66.2826 F508.00 
G01 X61.4851 Y66.4236 
X61.4553 Y66.5733 
Y68.0467 
X61.4851 Y68.1964 
X61.5435 Y68.3374 
X61.6283 Y68.4642 
X61.7362 Y68.5721 
X61.8630 Y68.6569 
X62.0040 Y68.7153 
X62.1537 Y68.7451 
X62.3063 
X62.4560 Y68.7153 
X62.5970 Y68.6569 
X62.7238 Y68.5721 
X62.8317 Y68.4642 
X62.9165 Y68.3374 
X62.9749 Y68.1964 
X63.0047 Y68.0467 
Y66.5733 
X62.9749 Y66.4236 
X62.9165 Y66.2826 
X62.8317 Y66.1558 
X62.7238 Y66.0478 
X62.5970 Y65.9631 
X62.4560 Y65.9047 
X62.3063 Y65.8749 
X62.1537 
X62.0040 Y65.9047 
X61.8630 Y65.9631 
X61.7362 Y66.0478 
X61.6283 Y66.1558 
G00 Z2.5400 
G00 X61.7362 Y64.7621 
G01 Z-0.1778 F254.00 
G01 X61.8630 Y64.8469 F508.00 
G01 X62.0040 Y64.9053 
X62.1537 Y64.9351 
X62.3063 
X62.4560 Y64.9053 
X62.5970 Y64.8469 
X62.7238 Y64.7621 
X62.8317 Y64.6542 
X62.9165 Y64.5274 
X62.9749 Y64.3864 
X63.0047 Y64.2367 
Y62.7633 
X62.9749 Y62.6136 
X62.9165 Y62.4726 
X62.8317 Y62.3458 
X62.7238 Y62.2379 
X62.5970 Y62.1531 
X62.4560 Y62.0947 
X62.3063 Y62.0649 
X62.1537 
X62.0040 Y62.0947 
X61.8630 Y62.1531 
X61.7362 Y62.2379 
X61.6283 Y62.3458 
X61.5435 Y62.4726 
X61.4851 Y62.6136 
X61.4553 Y62.7633 
Y64.2367 
X61.4851 Y64.3864 
X61.5435 Y64.5274 
X61.6283 Y64.6542 
X61.7362 Y64.7621 
G00 Z2.5400 
G00 X63.8985 Y64.4981 
G01 Z-0.1778 F254.00 
G01 X63.8985 Y65.5499 F508.00 
G01 X63.9159 Y65.5919 
X63.9481 Y65.6241 
X63.9901 Y65.6415 
X65.0419 
X65.0839 Y65.6241 
X65.1161 Y65.5919 
X65.1335 Y65.5499 
Y64.4981 
X65.1161 Y64.4561 
X65.0839 Y64.4239 
X65.0419 Y64.4065 
X63.9901 
X63.9481 Y64.4239 
X63.9159 Y64.4561 
X63.8985 Y64.4981 
G00 Z2.5400 
G00 X65.3535 Y64.5274 
G01 Z-0.1778 F254.00 
G01 X65.4382 Y64.6542 F508.00 
G01 X65.5462 Y64.7621 
X65.6730 Y64.8469 
X65.8140 Y64.9053 
X65.9637 Y64.9351 
X66.1163 
X66.2660 Y64.9053 
X66.4070 Y64.8469 
X66.5338 Y64.7621 
X66.6417 Y64.6542 
X66.7265 Y64.5274 
X66.7849 Y64.3864 
X66.8147 Y64.2367 
Y62.7633 
X66.7849 Y62.6136 
X66.7265 Y62.4726 
X66.6417 Y62.3458 
X66.5338 Y62.2379 
X66.4070 Y62.1531 
X66.2660 Y62.0947 
X66.1163 Y62.0649 
X65.9637 
X65.8140 Y62.0947 
X65.6730 Y62.1531 
X65.5462 Y62.2379 
X65.4382 Y62.3458 
X65.3535 Y62.4726 
X65.2951 Y62.6136 
X65.2653 Y62.7633 
Y64.2367 
X65.2951 Y64.3864 
X65.3535 Y64.5274 
G00 Z2.5400 
G00 X65.4382 Y66.1558 
G01 Z-0.1778 F254.00 
G01 X65.3535 Y66.2826 F508.00 
G01 X65.2951 Y66.4236 
X65.2653 Y66.5733 
Y68.0467 
X65.2951 Y68.1964 
X65.3535 Y68.3374 
X65.4382 Y68.4642 
X65.5462 Y68.5721 
X65.6730 Y68.6569 
X65.8140 Y68.7153 
X65.9637 Y68.7451 
X66.1163 
X66.2660 Y68.7153 
X66.4070 Y68.6569 
X66.5338 Y68.5721 
X66.6417 Y68.4642 
X66.7265 Y68.3374 
X66.7849 Y68.1964 
X66.8147 Y68.0467 
Y66.5733 
X66.7849 Y66.4236 
X66.7265 Y66.2826 
X66.6417 Y66.1558 
X66.5338 Y66.0478 
X66.4070 Y65.9631 
X66.2660 Y65.9047 
X66.1163 Y65.8749 
X65.9637 
X65.8140 Y65.9047 
X65.6730 Y65.9631 
X65.5462 Y66.0478 
X65.4382 Y66.1558 
G00 Z2.5400 
G00 X69.2482 Y66.1558 
G01 Z-0.1778 F254.00 
G01 X69.1635 Y66.2826 F508.00 
G01 X69.1051 Y66.4236 
X69.0753 Y66.5733 
Y68.0467 
X69.1051 Y68.1964 
X69.1635 Y68.3374 
X69.2482 Y68.4642 
X69.3562 Y68.5721 
X69.4830 Y68.6569 
X69.6240 Y68.7153 
X69.7737 Y68.7451 
X69.9263 
X70.0760 Y68.7153 
X70.2170 Y68.6569 
X70.3438 Y68.5721 
X70.4517 Y68.4642 
X70.5365 Y68.3374 
X70.5949 Y68.1964 
X70.6247 Y68.0467 
Y66.5733 
X70.5949 Y66.4236 
X70.5365 Y66.2826 
X70.4517 Y66.1558 
X70.3438 Y66.0478 
X70.2170 Y65.9631 
X70.0760 Y65.9047 
X69.9263 Y65.8749 
X69.7737 
X69.6240 Y65.9047 
X69.4830 Y65.9631 
X69.3562 Y66.0478 
X69.2482 Y66.1558 
G00 Z2.5400 
G00 X69.3562 Y64.7621 
G01 Z-0.1778 F254.00 
G01 X69.4830 Y64.8469 F508.00 
G01 X69.6240 Y64.9053 
X69.7737 Y64.9351 
X69.9263 
X70.0760 Y64.9053 
X70.2170 Y64.8469 
X70.3438 Y64.7621 
X70.4517 Y64.6542 
X70.5365 Y64.5274 
X70.5949 Y64.3864 
X70.6247 Y64.2367 
Y62.7633 
X70.5949 Y62.6136 
X70.5365 Y62.4726 
X70.4517 Y62.3458 
X70.3438 Y62.2379 
X70.2170 Y62.1531 
X70.0760 Y62.0947 
X69.9263 Y62.0649 
X69.7737 
X69.6240 Y62.0947 
X69.4830 Y62.1531 
X69.3562 Y62.2379 
X69.2482 Y62.3458 
X69.1635 Y62.4726 
X69.1051 Y62.6136 
X69.0753 Y62.7633 
Y64.2367 
X69.1051 Y64.3864 
X69.1635 Y64.5274 
X69.2482 Y64.6542 
X69.3562 Y64.7621 
G00 Z2.5400 
G00 X68.6721 Y64.0679 
G01 Z-0.1778 F254.00 
G01 X68.6895 Y64.0259 F508.00 
G01 X68.6895 Y62.9741 
X68.6721 Y62.9321 
X68.6399 Y62.8999 
X68.5979 Y62.8825 
X67.5461 
X67.5041 Y62.8999 
X67.4719 Y62.9321 
X67.4545 Y62.9741 
Y64.0259 
X67.4719 Y64.0679 
X67.5041 Y64.1001 
X67.5461 Y64.1175 
X68.5979 
X68.6399 Y64.1001 
X68.6721 Y64.0679 
G00 Z2.5400 
G00 X68.6721 Y60.7659 
G01 Z-0.1778 F254.00 
G01 X68.6895 Y60.7239 F508.00 
G01 X68.6895 Y59.6721 
X68.6721 Y59.6301 
X68.6399 Y59.5979 
X68.5979 Y59.5805 
X67.5461 
X67.5041 Y59.5979 
X67.4719 Y59.6301 
X67.4545 Y59.6721 
Y60.7239 
X67.4719 Y60.7659 
X67.5041 Y60.7981 
X67.5461 Y60.8155 
X68.5979 
X68.6399 Y60.7981 
X68.6721 Y60.7659 
G00 Z2.5400 
G00 X69.3562 Y54.6021 
G01 Z-0.1778 F254.00 
G01 X69.4830 Y54.6869 F508.00 
G01 X69.6240 Y54.7453 
X69.7737 Y54.7751 
X69.9263 
X70.0760 Y54.7453 
X70.2170 Y54.6869 
X70.3438 Y54.6021 
X70.4517 Y54.4942 
X70.5365 Y54.3674 
X70.5949 Y54.2264 
X70.6247 Y54.0767 
Y52.6033 
X70.5949 Y52.4536 
X70.5365 Y52.3126 
X70.4517 Y52.1858 
X70.3438 Y52.0778 
X70.2170 Y51.9931 
X70.0760 Y51.9347 
X69.9263 Y51.9049 
X69.7737 
X69.6240 Y51.9347 
X69.4830 Y51.9931 
X69.3562 Y52.0778 
X69.2482 Y52.1858 
X69.1635 Y52.3126 
X69.1051 Y52.4536 
X69.0753 Y52.6033 
Y54.0767 
X69.1051 Y54.2264 
X69.1635 Y54.3674 
X69.2482 Y54.4942 
X69.3562 Y54.6021 
G00 Z2.5400 
G00 X66.6417 Y54.4942 
G01 Z-0.1778 F254.00 
G01 X66.7265 Y54.3674 F508.00 
G01 X66.7849 Y54.2264 
X66.8147 Y54.0767 
Y52.6033 
X66.7849 Y52.4536 
X66.7265 Y52.3126 
X66.6417 Y52.1858 
X66.5338 Y52.0778 
X66.4070 Y51.9931 
X66.2660 Y51.9347 
X66.1163 Y51.9049 
X65.9637 
X65.8140 Y51.9347 
X65.6730 Y51.9931 
X65.5462 Y52.0778 
X65.4382 Y52.1858 
X65.3535 Y52.3126 
X65.2951 Y52.4536 
X65.2653 Y52.6033 
Y54.0767 
X65.2951 Y54.2264 
X65.3535 Y54.3674 
X65.4382 Y54.4942 
X65.5462 Y54.6021 
X65.6730 Y54.6869 
X65.8140 Y54.7453 
X65.9637 Y54.7751 
X66.1163 
X66.2660 Y54.7453 
X66.4070 Y54.6869 
X66.5338 Y54.6021 
X66.6417 Y54.4942 
G00 Z2.5400 
G00 X62.8317 Y54.4942 
G01 Z-0.1778 F254.00 
G01 X62.9165 Y54.3674 F508.00 
G01 X62.9749 Y54.2264 
X63.0047 Y54.0767 
Y52.6033 
X62.9749 Y52.4536 
X62.9165 Y52.3126 
X62.8317 Y52.1858 
X62.7238 Y52.0778 
X62.5970 Y51.9931 
X62.4560 Y51.9347 
X62.3063 Y51.9049 
X62.1537 
X62.0040 Y51.9347 
X61.8630 Y51.9931 
X61.7362 Y52.0778 
X61.6283 Y52.1858 
X61.5435 Y52.3126 
X61.4851 Y52.4536 
X61.4553 Y52.6033 
Y54.0767 
X61.4851 Y54.2264 
X61.5435 Y54.3674 
X61.6283 Y54.4942 
X61.7362 Y54.6021 
X61.8630 Y54.6869 
X62.0040 Y54.7453 
X62.1537 Y54.7751 
X62.3063 
X62.4560 Y54.7453 
X62.5970 Y54.6869 
X62.7238 Y54.6021 
X62.8317 Y54.4942 
G00 Z2.5400 
G00 X59.0217 Y54.4942 
G01 Z-0.1778 F254.00 
G01 X59.1065 Y54.3674 F508.00 
G01 X59.1649 Y54.2264 
X59.1947 Y54.0767 
Y52.6033 
X59.1649 Y52.4536 
X59.1065 Y52.3126 
X59.0217 Y52.1858 
X58.9138 Y52.0778 
X58.7870 Y51.9931 
X58.6460 Y51.9347 
X58.4963 Y51.9049 
X58.3437 
X58.1940 Y51.9347 
X58.0530 Y51.9931 
X57.9262 Y52.0778 
X57.8182 Y52.1858 
X57.7335 Y52.3126 
X57.6751 Y52.4536 
X57.6453 Y52.6033 
Y54.0767 
X57.6751 Y54.2264 
X57.7335 Y54.3674 
X57.8182 Y54.4942 
X57.9262 Y54.6021 
X58.0530 Y54.6869 
X58.1940 Y54.7453 
X58.3437 Y54.7751 
X58.4963 
X58.6460 Y54.7453 
X58.7870 Y54.6869 
X58.9138 Y54.6021 
X59.0217 Y54.4942 
G00 Z2.5400 
G00 X57.7179 Y59.0899 
G01 Z-0.1778 F254.00 
G01 X57.6759 Y59.0725 F508.00 
G01 X56.6241 Y59.0725 
X56.5821 Y59.0899 
X56.5499 Y59.1221 
X56.5325 Y59.1641 
Y60.2159 
X56.5499 Y60.2579 
X56.5821 Y60.2901 
X56.6241 Y60.3075 
X57.6759 
X57.7179 Y60.2901 
X57.7501 Y60.2579 
X57.7675 Y60.2159 
Y59.1641 
X57.7501 Y59.1221 
X57.7179 Y59.0899 
G00 Z2.5400 
G00 X57.4201 Y46.7343 
G01 Z-0.1778 F254.00 
G01 X59.4199 Y46.7343 F508.00 
G01 X59.6159 Y46.6953 
X59.8004 Y46.6189 
X59.9666 Y46.5079 
X60.1079 Y46.3666 
X60.2189 Y46.2004 
X60.2953 Y46.0159 
X60.3343 Y45.8199 
Y45.6201 
X60.2953 Y45.4241 
X60.2189 Y45.2395 
X60.1079 Y45.0734 
X59.9666 Y44.9321 
X59.8004 Y44.8211 
X59.6159 Y44.7447 
X59.4199 Y44.7057 
X57.4201 
X57.2241 Y44.7447 
X57.0395 Y44.8211 
X56.8734 Y44.9321 
X56.7321 Y45.0734 
X56.6211 Y45.2395 
X56.5447 Y45.4241 
X56.5057 Y45.6201 
Y45.8199 
X56.5447 Y46.0159 
X56.6211 Y46.2004 
X56.7321 Y46.3666 
X56.8734 Y46.5079 
X57.0395 Y46.6189 
X57.2241 Y46.6953 
X57.4201 Y46.7343 
G00 Z2.5400 
G00 X55.2153 Y46.6941 
G01 Z-0.1778 F254.00 
G01 X55.1389 Y46.5095 F508.00 
G01 X55.0279 Y46.3434 
X54.8866 Y46.2021 
X54.7204 Y46.0911 
X54.5359 Y46.0147 
X54.3399 Y45.9757 
X52.3401 
X52.1441 Y46.0147 
X51.9595 Y46.0911 
X51.7934 Y46.2021 
X51.6521 Y46.3434 
X51.5411 Y46.5095 
X51.4647 Y46.6941 
X51.4257 Y46.8901 
Y47.0899 
X51.4647 Y47.2859 
X51.5411 Y47.4704 
X51.6521 Y47.6366 
X51.7934 Y47.7779 
X51.9595 Y47.8889 
X52.1441 Y47.9653 
X52.3401 Y48.0043 
X54.3399 
X54.5359 Y47.9653 
X54.7204 Y47.8889 
X54.8866 Y47.7779 
X55.0279 Y47.6366 
X55.1389 Y47.4704 
X55.2153 Y47.2859 
X55.2543 Y47.0899 
Y46.8901 
X55.2153 Y46.6941 
G00 Z2.5400 
G00 X55.0279 Y45.0966 
G01 Z-0.1778 F254.00 
G01 X55.1389 Y44.9305 F508.00 
G01 X55.2153 Y44.7459 
X55.2543 Y44.5499 
Y44.3501 
X55.2153 Y44.1541 
X55.1389 Y43.9695 
X55.0279 Y43.8034 
X54.8866 Y43.6621 
X54.7204 Y43.5511 
X54.5359 Y43.4747 
X54.3399 Y43.4357 
X52.3401 
X52.1441 Y43.4747 
X51.9595 Y43.5511 
X51.7934 Y43.6621 
X51.6521 Y43.8034 
X51.6213 Y43.8496 
X51.5799 Y43.8325 
X50.5281 
X50.4861 Y43.8499 
X50.4539 Y43.8821 
X50.4365 Y43.9241 
Y44.9759 
X50.4539 Y45.0179 
X50.4861 Y45.0501 
X50.5281 Y45.0675 
X51.5799 
X51.6213 Y45.0504 
X51.6521 Y45.0966 
X51.7934 Y45.2379 
X51.9595 Y45.3489 
X52.1441 Y45.4253 
X52.3401 Y45.4643 
X54.3399 
X54.5359 Y45.4253 
X54.7204 Y45.3489 
X54.8866 Y45.2379 
X55.0279 Y45.0966 
G00 Z2.5400 
G00 X55.0279 Y42.5566 
G01 Z-0.1778 F254.00 
G01 X55.1389 Y42.3905 F508.00 
G01 X55.2153 Y42.2059 
X55.2543 Y42.0099 
Y41.8101 
X55.2153 Y41.6141 
X55.1389 Y41.4295 
X55.0279 Y41.2634 
X54.8866 Y41.1221 
X54.7204 Y41.0111 
X54.5359 Y40.9347 
X54.3399 Y40.8957 
X52.3401 
X52.1441 Y40.9347 
X51.9595 Y41.0111 
X51.7934 Y41.1221 
X51.6521 Y41.2634 
X51.5411 Y41.4295 
X51.4647 Y41.6141 
X51.4257 Y41.8101 
Y42.0099 
X51.4647 Y42.2059 
X51.5411 Y42.3905 
X51.6521 Y42.5566 
X51.7934 Y42.6979 
X51.9595 Y42.8089 
X52.1441 Y42.8853 
X52.3401 Y42.9243 
X54.3399 
X54.5359 Y42.8853 
X54.7204 Y42.8089 
X54.8866 Y42.6979 
X55.0279 Y42.5566 
G00 Z2.5400 
G00 X56.7321 Y42.5334 
G01 Z-0.1778 F254.00 
G01 X56.6211 Y42.6995 F508.00 
G01 X56.5447 Y42.8841 
X56.5057 Y43.0801 
Y43.2799 
X56.5447 Y43.4759 
X56.6211 Y43.6604 
X56.7321 Y43.8266 
X56.8734 Y43.9679 
X57.0395 Y44.0789 
X57.2241 Y44.1553 
X57.4201 Y44.1943 
X59.4199 
X59.6159 Y44.1553 
X59.8004 Y44.0789 
X59.9666 Y43.9679 
X60.1079 Y43.8266 
X60.2189 Y43.6604 
X60.2953 Y43.4759 
X60.3343 Y43.2799 
Y43.0801 
X60.2953 Y42.8841 
X60.2189 Y42.6995 
X60.1079 Y42.5334 
X59.9666 Y42.3921 
X59.8004 Y42.2811 
X59.6159 Y42.2047 
X59.4199 Y42.1657 
X57.4201 
X57.2241 Y42.2047 
X57.0395 Y42.2811 
X56.8734 Y42.3921 
X56.7321 Y42.5334 
G00 Z2.5400 
G00 X56.8734 Y41.4279 
G01 Z-0.1778 F254.00 
G01 X57.0395 Y41.5389 F508.00 
G01 X57.2241 Y41.6153 
X57.4201 Y41.6543 
X59.4199 
X59.6159 Y41.6153 
X59.8004 Y41.5389 
X59.9666 Y41.4279 
X60.1079 Y41.2866 
X60.2189 Y41.1204 
X60.2953 Y40.9359 
X60.3343 Y40.7399 
Y40.5401 
X60.2953 Y40.3441 
X60.2189 Y40.1595 
X60.1079 Y39.9934 
X59.9666 Y39.8521 
X59.8004 Y39.7411 
X59.6159 Y39.6647 
X59.4199 Y39.6257 
X57.4201 
X57.2241 Y39.6647 
X57.0395 Y39.7411 
X56.8734 Y39.8521 
X56.7321 Y39.9934 
X56.6211 Y40.1595 
X56.5447 Y40.3441 
X56.5057 Y40.5401 
Y40.7399 
X56.5447 Y40.9359 
X56.6211 Y41.1204 
X56.7321 Y41.2866 
X56.8734 Y41.4279 
G00 Z2.5400 
G00 X56.8734 Y38.8879 
G01 Z-0.1778 F254.00 
G01 X57.0395 Y38.9989 F508.00 
G01 X57.2241 Y39.0753 
X57.4201 Y39.1143 
X59.4199 
X59.6159 Y39.0753 
X59.8004 Y38.9989 
X59.9666 Y38.8879 
X60.1079 Y38.7466 
X60.2189 Y38.5804 
X60.2953 Y38.3959 
X60.3343 Y38.1999 
Y38.0001 
X60.2953 Y37.8041 
X60.2189 Y37.6195 
X60.1079 Y37.4534 
X59.9666 Y37.3121 
X59.8004 Y37.2011 
X59.6159 Y37.1247 
X59.4199 Y37.0857 
X57.4201 
X57.2241 Y37.1247 
X57.0395 Y37.2011 
X56.8734 Y37.3121 
X56.7321 Y37.4534 
X56.6211 Y37.6195 
X56.5447 Y37.8041 
X56.5057 Y38.0001 
Y38.1999 
X56.5447 Y38.3959 
X56.6211 Y38.5804 
X56.7321 Y38.7466 
X56.8734 Y38.8879 
G00 Z2.5400 
G00 X55.1389 Y38.8895 
G01 Z-0.1778 F254.00 
G01 X55.0279 Y38.7234 F508.00 
G01 X54.8866 Y38.5821 
X54.7204 Y38.4711 
X54.5359 Y38.3947 
X54.3399 Y38.3557 
X52.3401 
X52.1441 Y38.3947 
X51.9595 Y38.4711 
X51.7934 Y38.5821 
X51.6521 Y38.7234 
X51.5411 Y38.8895 
X51.4647 Y39.0741 
X51.4257 Y39.2701 
Y39.4699 
X51.4647 Y39.6659 
X51.5411 Y39.8505 
X51.6521 Y40.0166 
X51.7934 Y40.1579 
X51.9595 Y40.2689 
X52.1441 Y40.3453 
X52.3401 Y40.3843 
X54.3399 
X54.5359 Y40.3453 
X54.7204 Y40.2689 
X54.8866 Y40.1579 
X55.0279 Y40.0166 
X55.1389 Y39.8505 
X55.2153 Y39.6659 
X55.2543 Y39.4699 
Y39.2701 
X55.2153 Y39.0741 
X55.1389 Y38.8895 
G00 Z2.5400 
G00 X55.0279 Y37.4766 
G01 Z-0.1778 F254.00 
G01 X55.1389 Y37.3105 F508.00 
G01 X55.2153 Y37.1259 
X55.2543 Y36.9299 
Y36.7301 
X55.2153 Y36.5341 
X55.1389 Y36.3495 
X55.0279 Y36.1834 
X54.8866 Y36.0421 
X54.7204 Y35.9311 
X54.5359 Y35.8547 
X54.3399 Y35.8157 
X52.3401 
X52.1441 Y35.8547 
X51.9595 Y35.9311 
X51.7934 Y36.0421 
X51.6521 Y36.1834 
X51.5411 Y36.3495 
X51.4647 Y36.5341 
X51.4257 Y36.7301 
Y36.9299 
X51.4647 Y37.1259 
X51.5411 Y37.3105 
X51.6521 Y37.4766 
X51.7934 Y37.6179 
X51.9595 Y37.7289 
X52.1441 Y37.8053 
X52.3401 Y37.8443 
X54.3399 
X54.5359 Y37.8053 
X54.7204 Y37.7289 
X54.8866 Y37.6179 
X55.0279 Y37.4766 
G00 Z2.5400 
G00 X55.0279 Y34.9366 
G01 Z-0.1778 F254.00 
G01 X55.1389 Y34.7704 F508.00 
G01 X55.2153 Y34.5859 
X55.2543 Y34.3899 
Y34.1901 
X55.2153 Y33.9941 
X55.1389 Y33.8095 
X55.0279 Y33.6434 
X54.8866 Y33.5021 
X54.7204 Y33.3911 
X54.5359 Y33.3147 
X54.3399 Y33.2757 
X52.3401 
X52.1441 Y33.3147 
X51.9595 Y33.3911 
X51.7934 Y33.5021 
X51.6521 Y33.6434 
X51.5411 Y33.8095 
X51.4647 Y33.9941 
X51.4257 Y34.1901 
Y34.3899 
X51.4647 Y34.5859 
X51.5411 Y34.7704 
X51.6521 Y34.9366 
X51.7934 Y35.0779 
X51.9595 Y35.1889 
X52.1441 Y35.2653 
X52.3401 Y35.3043 
X54.3399 
X54.5359 Y35.2653 
X54.7204 Y35.1889 
X54.8866 Y35.0779 
X55.0279 Y34.9366 
G00 Z2.5400 
G00 X56.7321 Y34.9134 
G01 Z-0.1778 F254.00 
G01 X56.6211 Y35.0795 F508.00 
G01 X56.5447 Y35.2641 
X56.5057 Y35.4601 
Y35.6599 
X56.5447 Y35.8559 
X56.6211 Y36.0404 
X56.7321 Y36.2066 
X56.8734 Y36.3479 
X57.0395 Y36.4589 
X57.2241 Y36.5353 
X57.4201 Y36.5743 
X59.4199 
X59.6159 Y36.5353 
X59.8004 Y36.4589 
X59.9666 Y36.3479 
X60.1079 Y36.2066 
X60.2189 Y36.0404 
X60.2953 Y35.8559 
X60.3343 Y35.6599 
Y35.4601 
X60.2953 Y35.2641 
X60.2189 Y35.0795 
X60.1079 Y34.9134 
X59.9666 Y34.7721 
X59.8004 Y34.6611 
X59.6159 Y34.5847 
X59.4199 Y34.5457 
X57.4201 
X57.2241 Y34.5847 
X57.0395 Y34.6611 
X56.8734 Y34.7721 
X56.7321 Y34.9134 
G00 Z2.5400 
G00 X56.8734 Y33.8079 
G01 Z-0.1778 F254.00 
G01 X57.0395 Y33.9189 F508.00 
G01 X57.2241 Y33.9953 
X57.4201 Y34.0343 
X59.4199 
X59.6159 Y33.9953 
X59.8004 Y33.9189 
X59.9666 Y33.8079 
X60.1079 Y33.6666 
X60.2189 Y33.5005 
X60.2953 Y33.3159 
X60.3343 Y33.1199 
Y32.9201 
X60.2953 Y32.7241 
X60.2189 Y32.5395 
X60.1079 Y32.3734 
X59.9666 Y32.2321 
X59.8004 Y32.1211 
X59.6159 Y32.0447 
X59.4199 Y32.0057 
X57.4201 
X57.2241 Y32.0447 
X57.0395 Y32.1211 
X56.8734 Y32.2321 
X56.7321 Y32.3734 
X56.6211 Y32.5395 
X56.5447 Y32.7241 
X56.5057 Y32.9201 
Y33.1199 
X56.5447 Y33.3159 
X56.6211 Y33.5005 
X56.7321 Y33.6666 
X56.8734 Y33.8079 
G00 Z2.5400 
G00 X56.8734 Y31.2679 
G01 Z-0.1778 F254.00 
G01 X57.0395 Y31.3789 F508.00 
G01 X57.2241 Y31.4553 
X57.4201 Y31.4943 
X59.4199 
X59.6159 Y31.4553 
X59.8004 Y31.3789 
X59.9666 Y31.2679 
X60.1079 Y31.1266 
X60.2189 Y30.9605 
X60.2953 Y30.7759 
X60.3343 Y30.5799 
Y30.3801 
X60.2953 Y30.1841 
X60.2189 Y29.9995 
X60.1079 Y29.8334 
X59.9666 Y29.6921 
X59.8004 Y29.5811 
X59.6159 Y29.5047 
X59.4199 Y29.4657 
X57.4201 
X57.2241 Y29.5047 
X57.0395 Y29.5811 
X56.8734 Y29.6921 
X56.7321 Y29.8334 
X56.6211 Y29.9995 
X56.5447 Y30.1841 
X56.5057 Y30.3801 
Y30.5799 
X56.5447 Y30.7759 
X56.6211 Y30.9605 
X56.7321 Y31.1266 
X56.8734 Y31.2679 
G00 Z2.5400 
G00 X55.1389 Y31.2695 
G01 Z-0.1778 F254.00 
G01 X55.0279 Y31.1034 F508.00 
G01 X54.8866 Y30.9621 
X54.7204 Y30.8511 
X54.5359 Y30.7747 
X54.3399 Y30.7357 
X52.3401 
X52.1441 Y30.7747 
X51.9595 Y30.8511 
X51.7934 Y30.9621 
X51.6521 Y31.1034 
X51.5411 Y31.2695 
X51.4647 Y31.4541 
X51.4257 Y31.6501 
Y31.8499 
X51.4647 Y32.0459 
X51.5411 Y32.2304 
X51.6521 Y32.3966 
X51.7934 Y32.5379 
X51.9595 Y32.6489 
X52.1441 Y32.7253 
X52.3401 Y32.7643 
X54.3399 
X54.5359 Y32.7253 
X54.7204 Y32.6489 
X54.8866 Y32.5379 
X55.0279 Y32.3966 
X55.1389 Y32.2304 
X55.2153 Y32.0459 
X55.2543 Y31.8499 
Y31.6501 
X55.2153 Y31.4541 
X55.1389 Y31.2695 
G00 Z2.5400 
G00 X55.0279 Y29.8566 
G01 Z-0.1778 F254.00 
G01 X55.1389 Y29.6904 F508.00 
G01 X55.2153 Y29.5059 
X55.2543 Y29.3099 
Y29.1101 
X55.2153 Y28.9141 
X55.1389 Y28.7295 
X55.0279 Y28.5634 
X54.8866 Y28.4221 
X54.7204 Y28.3111 
X54.5359 Y28.2347 
X54.3399 Y28.1957 
X52.3401 
X52.1441 Y28.2347 
X51.9595 Y28.3111 
X51.7934 Y28.4221 
X51.6521 Y28.5634 
X51.5411 Y28.7295 
X51.4647 Y28.9141 
X51.4257 Y29.1101 
Y29.3099 
X51.4647 Y29.5059 
X51.5411 Y29.6904 
X51.6521 Y29.8566 
X51.7934 Y29.9979 
X51.9595 Y30.1089 
X52.1441 Y30.1853 
X52.3401 Y30.2243 
X54.3399 
X54.5359 Y30.1853 
X54.7204 Y30.1089 
X54.8866 Y29.9979 
X55.0279 Y29.8566 
G00 Z2.5400 
G00 X55.3121 Y27.2701 
G01 Z-0.1778 F254.00 
G01 X55.3541 Y27.2875 F508.00 
G01 X56.4059 Y27.2875 
X56.4479 Y27.2701 
X56.4801 Y27.2379 
X56.4975 Y27.1959 
Y26.1441 
X56.4801 Y26.1021 
X56.4479 Y26.0699 
X56.4059 Y26.0525 
X55.3541 
X55.3121 Y26.0699 
X55.2799 Y26.1021 
X55.2625 Y26.1441 
Y27.1959 
X55.2799 Y27.2379 
X55.3121 Y27.2701 
G00 Z2.5400 
G00 X51.4001 Y27.2379 
G01 Z-0.1778 F254.00 
G01 X51.4175 Y27.1959 F508.00 
G01 X51.4175 Y26.1441 
X51.4001 Y26.1021 
X51.3679 Y26.0699 
X51.3259 Y26.0525 
X50.2741 
X50.2321 Y26.0699 
X50.1999 Y26.1021 
X50.1825 Y26.1441 
Y27.1959 
X50.1999 Y27.2379 
X50.2321 Y27.2701 
X50.2741 Y27.2875 
X51.3259 
X51.3679 Y27.2701 
X51.4001 Y27.2379 
G00 Z2.5400 
G00 X48.3199 Y33.4359 
G01 Z-0.1778 F254.00 
G01 X48.2779 Y33.4185 F508.00 
G01 X47.2261 Y33.4185 
X47.1841 Y33.4359 
X47.1519 Y33.4681 
X47.1345 Y33.5101 
Y34.5619 
X47.1519 Y34.6039 
X47.1841 Y34.6361 
X47.2261 Y34.6535 
X48.2779 
X48.3199 Y34.6361 
X48.3521 Y34.6039 
X48.3695 Y34.5619 
Y33.5101 
X48.3521 Y33.4681 
X48.3199 Y33.4359 
G00 Z2.5400 
G00 X48.2421 Y34.9425 
G01 Z-0.1778 F254.00 
G01 X48.2001 Y34.9599 F508.00 
G01 X48.1679 Y34.9921 
X48.1505 Y35.0341 
Y36.0859 
X48.1679 Y36.1279 
X48.2001 Y36.1601 
X48.2421 Y36.1775 
X49.2939 
X49.3359 Y36.1601 
X49.3681 Y36.1279 
X49.3855 Y36.0859 
Y35.0341 
X49.3681 Y34.9921 
X49.3359 Y34.9599 
X49.2939 Y34.9425 
X48.2421 
G00 Z2.5400 
G00 X61.1219 Y34.9921 
G01 Z-0.1778 F254.00 
G01 X61.1045 Y35.0341 F508.00 
G01 X61.1045 Y36.0859 
X61.1219 Y36.1279 
X61.1541 Y36.1601 
X61.1961 Y36.1775 
X62.2479 
X62.2899 Y36.1601 
X62.3221 Y36.1279 
X62.3395 Y36.0859 
Y35.0341 
X62.3221 Y34.9921 
X62.2899 Y34.9599 
X62.2479 Y34.9425 
X61.1961 
X61.1541 Y34.9599 
X61.1219 Y34.9921 
G00 Z2.5400 
G00 X61.1541 Y34.6361 
G01 Z-0.1778 F254.00 
G01 X61.1961 Y34.6535 F508.00 
G01 X62.2479 Y34.6535 
X62.2899 Y34.6361 
X62.3221 Y34.6039 
X62.3395 Y34.5619 
Y33.5101 
X62.3221 Y33.4681 
X62.2899 Y33.4359 
X62.2479 Y33.4185 
X61.1961 
X61.1541 Y33.4359 
X61.1219 Y33.4681 
X61.1045 Y33.5101 
Y34.5619 
X61.1219 Y34.6039 
X61.1541 Y34.6361 
G00 Z2.5400 
G00 X66.7421 Y33.6201 
G01 Z-0.1778 F254.00 
G01 X66.7841 Y33.6375 F508.00 
G01 X67.8359 Y33.6375 
X67.8779 Y33.6201 
X67.9101 Y33.5879 
X67.9275 Y33.5459 
Y32.4941 
X67.9101 Y32.4521 
X67.8779 Y32.4199 
X67.8359 Y32.4025 
X66.7841 
X66.7421 Y32.4199 
X66.7099 Y32.4521 
X66.6925 Y32.4941 
Y33.5459 
X66.7099 Y33.5879 
X66.7421 Y33.6201 
G00 Z2.5400 
G00 X66.7421 Y29.8101 
G01 Z-0.1778 F254.00 
G01 X66.7841 Y29.8275 F508.00 
G01 X67.8359 Y29.8275 
X67.8779 Y29.8101 
X67.9101 Y29.7779 
X67.9275 Y29.7359 
Y28.6841 
X67.9101 Y28.6421 
X67.8779 Y28.6099 
X67.8359 Y28.5925 
X66.7841 
X66.7421 Y28.6099 
X66.7099 Y28.6421 
X66.6925 Y28.6841 
Y29.7359 
X66.7099 Y29.7779 
X66.7421 Y29.8101 
G00 Z2.5400 
G00 X74.4362 Y27.9321 
G01 Z-0.1778 F254.00 
G01 X74.5630 Y28.0169 F508.00 
G01 X74.7040 Y28.0753 
X74.8537 Y28.1051 
X75.0063 
X75.1560 Y28.0753 
X75.2970 Y28.0169 
X75.4238 Y27.9321 
X75.5317 Y27.8242 
X75.6165 Y27.6974 
X75.6749 Y27.5564 
X75.7047 Y27.4067 
Y25.9333 
X75.6749 Y25.7836 
X75.6165 Y25.6426 
X75.5317 Y25.5158 
X75.4238 Y25.4078 
X75.2970 Y25.3231 
X75.1560 Y25.2647 
X75.0063 Y25.2349 
X74.8537 
X74.7040 Y25.2647 
X74.5630 Y25.3231 
X74.4362 Y25.4078 
X74.3282 Y25.5158 
X74.2435 Y25.6426 
X74.1851 Y25.7836 
X74.1553 Y25.9333 
Y27.4067 
X74.1851 Y27.5564 
X74.2435 Y27.6974 
X74.3282 Y27.8242 
X74.4362 Y27.9321 
G00 Z2.5400 
G00 X78.2462 Y27.9321 
G01 Z-0.1778 F254.00 
G01 X78.3730 Y28.0169 F508.00 
G01 X78.5140 Y28.0753 
X78.6637 Y28.1051 
X78.8163 
X78.9660 Y28.0753 
X79.1070 Y28.0169 
X79.2338 Y27.9321 
X79.3417 Y27.8242 
X79.4265 Y27.6974 
X79.4849 Y27.5564 
X79.5147 Y27.4067 
Y25.9333 
X79.4849 Y25.7836 
X79.4265 Y25.6426 
X79.3417 Y25.5158 
X79.2338 Y25.4078 
X79.1070 Y25.3231 
X78.9660 Y25.2647 
X78.8163 Y25.2349 
X78.6637 
X78.5140 Y25.2647 
X78.3730 Y25.3231 
X78.2462 Y25.4078 
X78.1382 Y25.5158 
X78.0535 Y25.6426 
X77.9951 Y25.7836 
X77.9653 Y25.9333 
Y27.4067 
X77.9951 Y27.5564 
X78.0535 Y27.6974 
X78.1382 Y27.8242 
X78.2462 Y27.9321 
G00 Z2.5400 
G00 X82.0562 Y27.9321 
G01 Z-0.1778 F254.00 
G01 X82.1830 Y28.0169 F508.00 
G01 X82.3240 Y28.0753 
X82.4737 Y28.1051 
X82.6263 
X82.7760 Y28.0753 
X82.9170 Y28.0169 
X83.0438 Y27.9321 
X83.1517 Y27.8242 
X83.2365 Y27.6974 
X83.2949 Y27.5564 
X83.3247 Y27.4067 
Y25.9333 
X83.2949 Y25.7836 
X83.2365 Y25.6426 
X83.1517 Y25.5158 
X83.0438 Y25.4078 
X82.9170 Y25.3231 
X82.7760 Y25.2647 
X82.6263 Y25.2349 
X82.4737 
X82.3240 Y25.2647 
X82.1830 Y25.3231 
X82.0562 Y25.4078 
X81.9483 Y25.5158 
X81.8635 Y25.6426 
X81.8051 Y25.7836 
X81.7753 Y25.9333 
Y27.4067 
X81.8051 Y27.5564 
X81.8635 Y27.6974 
X81.9483 Y27.8242 
X82.0562 Y27.9321 
G00 Z2.5400 
G00 X85.8662 Y27.9321 
G01 Z-0.1778 F254.00 
G01 X85.9930 Y28.0169 F508.00 
G01 X86.1340 Y28.0753 
X86.2837 Y28.1051 
X86.4363 
X86.5860 Y28.0753 
X86.7270 Y28.0169 
X86.8538 Y27.9321 
X86.9617 Y27.8242 
X87.0465 Y27.6974 
X87.1049 Y27.5564 
X87.1347 Y27.4067 
Y25.9333 
X87.1049 Y25.7836 
X87.0465 Y25.6426 
X86.9617 Y25.5158 
X86.8538 Y25.4078 
X86.7270 Y25.3231 
X86.5860 Y25.2647 
X86.4363 Y25.2349 
X86.2837 
X86.1340 Y25.2647 
X85.9930 Y25.3231 
X85.8662 Y25.4078 
X85.7583 Y25.5158 
X85.6735 Y25.6426 
X85.6151 Y25.7836 
X85.5853 Y25.9333 
Y27.4067 
X85.6151 Y27.5564 
X85.6735 Y27.6974 
X85.7583 Y27.8242 
X85.8662 Y27.9321 
G00 Z2.5400 
G00 X85.8662 Y35.5678 
G01 Z-0.1778 F254.00 
G01 X85.7583 Y35.6758 F508.00 
G01 X85.6735 Y35.8026 
X85.6151 Y35.9436 
X85.5853 Y36.0933 
Y37.5667 
X85.6151 Y37.7164 
X85.6735 Y37.8574 
X85.7583 Y37.9842 
X85.8662 Y38.0921 
X85.9930 Y38.1769 
X86.1340 Y38.2353 
X86.2837 Y38.2651 
X86.4363 
X86.5860 Y38.2353 
X86.7270 Y38.1769 
X86.8538 Y38.0921 
X86.9617 Y37.9842 
X87.0465 Y37.8574 
X87.1049 Y37.7164 
X87.1347 Y37.5667 
Y36.0933 
X87.1049 Y35.9436 
X87.0465 Y35.8026 
X86.9617 Y35.6758 
X86.8538 Y35.5678 
X86.7270 Y35.4831 
X86.5860 Y35.4247 
X86.4363 Y35.3949 
X86.2837 
X86.1340 Y35.4247 
X85.9930 Y35.4831 
X85.8662 Y35.5678 
G00 Z2.5400 
G00 X83.0438 Y35.5678 
G01 Z-0.1778 F254.00 
G01 X82.9170 Y35.4831 F508.00 
G01 X82.7760 Y35.4247 
X82.6263 Y35.3949 
X82.4737 
X82.3240 Y35.4247 
X82.1830 Y35.4831 
X82.0562 Y35.5678 
X81.9483 Y35.6758 
X81.8635 Y35.8026 
X81.8051 Y35.9436 
X81.7753 Y36.0933 
Y37.5667 
X81.8051 Y37.7164 
X81.8635 Y37.8574 
X81.9483 Y37.9842 
X82.0562 Y38.0921 
X82.1830 Y38.1769 
X82.3240 Y38.2353 
X82.4737 Y38.2651 
X82.6263 
X82.7760 Y38.2353 
X82.9170 Y38.1769 
X83.0438 Y38.0921 
X83.1517 Y37.9842 
X83.2365 Y37.8574 
X83.2949 Y37.7164 
X83.3247 Y37.5667 
Y36.0933 
X83.2949 Y35.9436 
X83.2365 Y35.8026 
X83.1517 Y35.6758 
X83.0438 Y35.5678 
G00 Z2.5400 
G00 X83.0438 Y39.3779 
G01 Z-0.1778 F254.00 
G01 X82.9170 Y39.2931 F508.00 
G01 X82.7760 Y39.2347 
X82.6263 Y39.2049 
X82.4737 
X82.3240 Y39.2347 
X82.1830 Y39.2931 
X82.0562 Y39.3779 
X81.9483 Y39.4858 
X81.8635 Y39.6126 
X81.8051 Y39.7536 
X81.7753 Y39.9033 
Y41.3767 
X81.8051 Y41.5264 
X81.8635 Y41.6674 
X81.9483 Y41.7942 
X82.0562 Y41.9021 
X82.1830 Y41.9869 
X82.3240 Y42.0453 
X82.4737 Y42.0751 
X82.6263 
X82.7760 Y42.0453 
X82.9170 Y41.9869 
X83.0438 Y41.9021 
X83.1517 Y41.7942 
X83.2365 Y41.6674 
X83.2949 Y41.5264 
X83.3247 Y41.3767 
Y39.9033 
X83.2949 Y39.7536 
X83.2365 Y39.6126 
X83.1517 Y39.4858 
X83.0438 Y39.3779 
G00 Z2.5400 
G00 X85.7583 Y39.4858 
G01 Z-0.1778 F254.00 
G01 X85.6735 Y39.6126 F508.00 
G01 X85.6151 Y39.7536 
X85.5853 Y39.9033 
Y41.3767 
X85.6151 Y41.5264 
X85.6735 Y41.6674 
X85.7583 Y41.7942 
X85.8662 Y41.9021 
X85.9930 Y41.9869 
X86.1340 Y42.0453 
X86.2837 Y42.0751 
X86.4363 
X86.5860 Y42.0453 
X86.7270 Y41.9869 
X86.8538 Y41.9021 
X86.9617 Y41.7942 
X87.0465 Y41.6674 
X87.1049 Y41.5264 
X87.1347 Y41.3767 
Y39.9033 
X87.1049 Y39.7536 
X87.0465 Y39.6126 
X86.9617 Y39.4858 
X86.8538 Y39.3779 
X86.7270 Y39.2931 
X86.5860 Y39.2347 
X86.4363 Y39.2049 
X86.2837 
X86.1340 Y39.2347 
X85.9930 Y39.2931 
X85.8662 Y39.3779 
X85.7583 Y39.4858 
G00 Z2.5400 
G00 X79.3417 Y39.4858 
G01 Z-0.1778 F254.00 
G01 X79.2338 Y39.3779 F508.00 
G01 X79.1070 Y39.2931 
X78.9660 Y39.2347 
X78.8163 Y39.2049 
X78.6637 
X78.5140 Y39.2347 
X78.3730 Y39.2931 
X78.2462 Y39.3779 
X78.1382 Y39.4858 
X78.0535 Y39.6126 
X77.9951 Y39.7536 
X77.9653 Y39.9033 
Y40.0225 
X76.9441 
X76.9021 Y40.0399 
X76.8699 Y40.0721 
X76.8525 Y40.1141 
Y41.1659 
X76.8699 Y41.2079 
X76.9021 Y41.2401 
X76.9441 Y41.2575 
X77.9653 
Y41.3767 
X77.9951 Y41.5264 
X78.0535 Y41.6674 
X78.1382 Y41.7942 
X78.2462 Y41.9021 
X78.3730 Y41.9869 
X78.5140 Y42.0453 
X78.6637 Y42.0751 
X78.8163 
X78.9660 Y42.0453 
X79.1070 Y41.9869 
X79.2338 Y41.9021 
X79.3417 Y41.7942 
X79.4265 Y41.6674 
X79.4849 Y41.5264 
X79.5147 Y41.3767 
Y39.9033 
X79.4849 Y39.7536 
X79.4265 Y39.6126 
X79.3417 Y39.4858 
G00 Z2.5400 
G00 X79.3417 Y37.9842 
G01 Z-0.1778 F254.00 
G01 X79.4265 Y37.8574 F508.00 
G01 X79.4849 Y37.7164 
X79.5147 Y37.5667 
Y36.0933 
X79.4849 Y35.9436 
X79.4265 Y35.8026 
X79.3417 Y35.6758 
X79.2338 Y35.5678 
X79.1070 Y35.4831 
X78.9660 Y35.4247 
X78.8163 Y35.3949 
X78.6637 
X78.5140 Y35.4247 
X78.3730 Y35.4831 
X78.2462 Y35.5678 
X78.1382 Y35.6758 
X78.0535 Y35.8026 
X77.9951 Y35.9436 
X77.9653 Y36.0933 
Y37.5667 
X77.9951 Y37.7164 
X78.0535 Y37.8574 
X78.1382 Y37.9842 
X78.2462 Y38.0921 
X78.3730 Y38.1769 
X78.5140 Y38.2353 
X78.6637 Y38.2651 
X78.8163 
X78.9660 Y38.2353 
X79.1070 Y38.1769 
X79.2338 Y38.0921 
X79.3417 Y37.9842 
G00 Z2.5400 
G00 X75.5317 Y37.9842 
G01 Z-0.1778 F254.00 
G01 X75.6165 Y37.8574 F508.00 
G01 X75.6749 Y37.7164 
X75.7047 Y37.5667 
Y36.0933 
X75.6749 Y35.9436 
X75.6165 Y35.8026 
X75.5317 Y35.6758 
X75.4238 Y35.5678 
X75.2970 Y35.4831 
X75.1560 Y35.4247 
X75.0063 Y35.3949 
X74.8537 
X74.7040 Y35.4247 
X74.5630 Y35.4831 
X74.4362 Y35.5678 
X74.3282 Y35.6758 
X74.2435 Y35.8026 
X74.1851 Y35.9436 
X74.1553 Y36.0933 
Y37.5667 
X74.1851 Y37.7164 
X74.2435 Y37.8574 
X74.3282 Y37.9842 
X74.4362 Y38.0921 
X74.5630 Y38.1769 
X74.7040 Y38.2353 
X74.8537 Y38.2651 
X75.0063 
X75.1560 Y38.2353 
X75.2970 Y38.1769 
X75.4238 Y38.0921 
X75.5317 Y37.9842 
G00 Z2.5400 
G00 X75.4238 Y39.3779 
G01 Z-0.1778 F254.00 
G01 X75.2970 Y39.2931 F508.00 
G01 X75.1560 Y39.2347 
X75.0063 Y39.2049 
X74.8537 
X74.7040 Y39.2347 
X74.5630 Y39.2931 
X74.4362 Y39.3779 
X74.3282 Y39.4858 
X74.2435 Y39.6126 
X74.1851 Y39.7536 
X74.1553 Y39.9033 
Y41.3767 
X74.1851 Y41.5264 
X74.2435 Y41.6674 
X74.3282 Y41.7942 
X74.4362 Y41.9021 
X74.5630 Y41.9869 
X74.7040 Y42.0453 
X74.8537 Y42.0751 
X75.0063 
X75.1560 Y42.0453 
X75.2970 Y41.9869 
X75.4238 Y41.9021 
X75.5317 Y41.7942 
X75.6165 Y41.6674 
X75.6749 Y41.5264 
X75.7047 Y41.3767 
Y39.9033 
X75.6749 Y39.7536 
X75.6165 Y39.6126 
X75.5317 Y39.4858 
X75.4238 Y39.3779 
G00 Z2.5400 
G00 X71.6879 Y40.0399 
G01 Z-0.1778 F254.00 
G01 X71.6459 Y40.0225 F508.00 
G01 X70.5941 Y40.0225 
X70.5521 Y40.0399 
X70.5199 Y40.0721 
X70.5025 Y40.1141 
Y41.1659 
X70.5199 Y41.2079 
X70.5521 Y41.2401 
X70.5941 Y41.2575 
X71.6459 
X71.6879 Y41.2401 
X71.7201 Y41.2079 
X71.7375 Y41.1659 
Y40.1141 
X71.7201 Y40.0721 
X71.6879 Y40.0399 
G00 Z2.5400 
G00 X71.6879 Y43.8499 
G01 Z-0.1778 F254.00 
G01 X71.6459 Y43.8325 F508.00 
G01 X70.5941 Y43.8325 
X70.5521 Y43.8499 
X70.5199 Y43.8821 
X70.5025 Y43.9241 
Y44.9759 
X70.5199 Y45.0179 
X70.5521 Y45.0501 
X70.5941 Y45.0675 
X71.6459 
X71.6879 Y45.0501 
X71.7201 Y45.0179 
X71.7375 Y44.9759 
Y43.9241 
X71.7201 Y43.8821 
X71.6879 Y43.8499 
G00 Z2.5400 
G00 X74.3282 Y49.6458 
G01 Z-0.1778 F254.00 
G01 X74.2435 Y49.7726 F508.00 
G01 X74.1851 Y49.9136 
X74.1553 Y50.0633 
Y51.5367 
X74.1851 Y51.6864 
X74.2435 Y51.8274 
X74.3282 Y51.9542 
X74.4362 Y52.0621 
X74.5630 Y52.1469 
X74.7040 Y52.2053 
X74.8537 Y52.2351 
X75.0063 
X75.1560 Y52.2053 
X75.2970 Y52.1469 
X75.4238 Y52.0621 
X75.5317 Y51.9542 
X75.6165 Y51.8274 
X75.6749 Y51.6864 
X75.7047 Y51.5367 
Y50.0633 
X75.6749 Y49.9136 
X75.6165 Y49.7726 
X75.5317 Y49.6458 
X75.4238 Y49.5378 
X75.2970 Y49.4531 
X75.1560 Y49.3947 
X75.0063 Y49.3649 
X74.8537 
X74.7040 Y49.3947 
X74.5630 Y49.4531 
X74.4362 Y49.5378 
X74.3282 Y49.6458 
G00 Z2.5400 
G00 X78.1382 Y49.6458 
G01 Z-0.1778 F254.00 
G01 X78.0535 Y49.7726 F508.00 
G01 X77.9951 Y49.9136 
X77.9653 Y50.0633 
Y51.5367 
X77.9951 Y51.6864 
X78.0535 Y51.8274 
X78.1382 Y51.9542 
X78.2462 Y52.0621 
X78.3730 Y52.1469 
X78.5140 Y52.2053 
X78.6637 Y52.2351 
X78.8163 
X78.9660 Y52.2053 
X79.1070 Y52.1469 
X79.2338 Y52.0621 
X79.3417 Y51.9542 
X79.4265 Y51.8274 
X79.4849 Y51.6864 
X79.5147 Y51.5367 
Y50.0633 
X79.4849 Y49.9136 
X79.4265 Y49.7726 
X79.3417 Y49.6458 
X79.2338 Y49.5378 
X79.1070 Y49.4531 
X78.9660 Y49.3947 
X78.8163 Y49.3649 
X78.6637 
X78.5140 Y49.3947 
X78.3730 Y49.4531 
X78.2462 Y49.5378 
X78.1382 Y49.6458 
G00 Z2.5400 
G00 X81.9483 Y49.6458 
G01 Z-0.1778 F254.00 
G01 X81.8635 Y49.7726 F508.00 
G01 X81.8051 Y49.9136 
X81.7753 Y50.0633 
Y51.5367 
X81.8051 Y51.6864 
X81.8635 Y51.8274 
X81.9483 Y51.9542 
X82.0562 Y52.0621 
X82.1830 Y52.1469 
X82.3240 Y52.2053 
X82.4737 Y52.2351 
X82.6263 
X82.7760 Y52.2053 
X82.9170 Y52.1469 
X83.0438 Y52.0621 
X83.1517 Y51.9542 
X83.2365 Y51.8274 
X83.2949 Y51.6864 
X83.3247 Y51.5367 
Y50.0633 
X83.2949 Y49.9136 
X83.2365 Y49.7726 
X83.1517 Y49.6458 
X83.0438 Y49.5378 
X82.9170 Y49.4531 
X82.7760 Y49.3947 
X82.6263 Y49.3649 
X82.4737 
X82.3240 Y49.3947 
X82.1830 Y49.4531 
X82.0562 Y49.5378 
X81.9483 Y49.6458 
G00 Z2.5400 
G00 X85.7583 Y49.6458 
G01 Z-0.1778 F254.00 
G01 X85.6735 Y49.7726 F508.00 
G01 X85.6151 Y49.9136 
X85.5853 Y50.0633 
Y51.5367 
X85.6151 Y51.6864 
X85.6735 Y51.8274 
X85.7583 Y51.9542 
X85.8662 Y52.0621 
X85.9930 Y52.1469 
X86.1340 Y52.2053 
X86.2837 Y52.2351 
X86.4363 
X86.5860 Y52.2053 
X86.7270 Y52.1469 
X86.8538 Y52.0621 
X86.9617 Y51.9542 
X87.0465 Y51.8274 
X87.1049 Y51.6864 
X87.1347 Y51.5367 
Y50.0633 
X87.1049 Y49.9136 
X87.0465 Y49.7726 
X86.9617 Y49.6458 
X86.8538 Y49.5378 
X86.7270 Y49.4531 
X86.5860 Y49.3947 
X86.4363 Y49.3649 
X86.2837 
X86.1340 Y49.3947 
X85.9930 Y49.4531 
X85.8662 Y49.5378 
X85.7583 Y49.6458 
G00 Z2.5400 
G00 X93.9294 Y43.8607 
G01 Z-0.1778 F254.00 
G01 X94.0729 Y43.9566 F508.00 
G01 X94.2324 Y44.0226 
X94.4017 Y44.0563 
X96.0983 
X96.2676 Y44.0226 
X96.4271 Y43.9566 
X96.5706 Y43.8607 
X96.6927 Y43.7386 
X96.7886 Y43.5951 
X96.8546 Y43.4356 
X96.8883 Y43.2663 
Y43.0937 
X96.8546 Y42.9244 
X96.7886 Y42.7649 
X96.6927 Y42.6214 
X96.5706 Y42.4993 
X96.4271 Y42.4034 
X96.2676 Y42.3374 
X96.0983 Y42.3037 
X94.4017 
X94.2324 Y42.3374 
X94.0729 Y42.4034 
X93.9294 Y42.4993 
X93.8073 Y42.6214 
X93.7114 Y42.7649 
X93.6454 Y42.9244 
X93.6117 Y43.0937 
Y43.2663 
X93.6454 Y43.4356 
X93.7114 Y43.5951 
X93.8073 Y43.7386 
X93.9294 Y43.8607 
G00 Z2.5400 
G00 X93.9294 Y41.3207 
G01 Z-0.1778 F254.00 
G01 X94.0729 Y41.4166 F508.00 
G01 X94.2324 Y41.4826 
X94.4017 Y41.5163 
X96.0983 
X96.2676 Y41.4826 
X96.4271 Y41.4166 
X96.5706 Y41.3207 
X96.6927 Y41.1986 
X96.7886 Y41.0551 
X96.8546 Y40.8956 
X96.8883 Y40.7263 
Y40.5537 
X96.8546 Y40.3844 
X96.7886 Y40.2249 
X96.6927 Y40.0814 
X96.5706 Y39.9593 
X96.4271 Y39.8634 
X96.2676 Y39.7974 
X96.0983 Y39.7637 
X94.4017 
X94.2324 Y39.7974 
X94.0729 Y39.8634 
X93.9294 Y39.9593 
X93.8073 Y40.0814 
X93.7114 Y40.2249 
X93.6454 Y40.3844 
X93.6117 Y40.5537 
Y40.7263 
X93.6454 Y40.8956 
X93.7114 Y41.0551 
X93.8073 Y41.1986 
X93.9294 Y41.3207 
G00 Z2.5400 
G00 X93.9294 Y38.7807 
G01 Z-0.1778 F254.00 
G01 X94.0729 Y38.8766 F508.00 
G01 X94.2324 Y38.9426 
X94.4017 Y38.9763 
X96.0983 
X96.2676 Y38.9426 
X96.4271 Y38.8766 
X96.5706 Y38.7807 
X96.6927 Y38.6586 
X96.7886 Y38.5151 
X96.8546 Y38.3556 
X96.8883 Y38.1863 
Y38.0137 
X96.8546 Y37.8444 
X96.7886 Y37.6849 
X96.6927 Y37.5414 
X96.5706 Y37.4193 
X96.4271 Y37.3234 
X96.2676 Y37.2574 
X96.0983 Y37.2237 
X94.4017 
X94.2324 Y37.2574 
X94.0729 Y37.3234 
X93.9294 Y37.4193 
X93.8073 Y37.5414 
X93.7114 Y37.6849 
X93.6454 Y37.8444 
X93.6117 Y38.0137 
Y38.1863 
X93.6454 Y38.3556 
X93.7114 Y38.5151 
X93.8073 Y38.6586 
X93.9294 Y38.7807 
G00 Z2.5400 
G00 X93.9294 Y36.2407 
G01 Z-0.1778 F254.00 
G01 X94.0729 Y36.3366 F508.00 
G01 X94.2324 Y36.4026 
X94.4017 Y36.4363 
X96.0983 
X96.2676 Y36.4026 
X96.4271 Y36.3366 
X96.5706 Y36.2407 
X96.6927 Y36.1186 
X96.7886 Y35.9751 
X96.8546 Y35.8156 
X96.8883 Y35.6463 
Y35.4737 
X96.8546 Y35.3044 
X96.7886 Y35.1449 
X96.6927 Y35.0014 
X96.5706 Y34.8793 
X96.4271 Y34.7834 
X96.2676 Y34.7174 
X96.0983 Y34.6837 
X94.4017 
X94.2324 Y34.7174 
X94.0729 Y34.7834 
X93.9294 Y34.8793 
X93.8073 Y35.0014 
X93.7114 Y35.1449 
X93.6454 Y35.3044 
X93.6117 Y35.4737 
Y35.6463 
X93.6454 Y35.8156 
X93.7114 Y35.9751 
X93.8073 Y36.1186 
X93.9294 Y36.2407 
G00 Z2.5400 
G00 X93.3536 Y74.3666 
G01 Z-0.1778 F254.00 
G01 X93.2129 Y74.2644 F508.00 
G01 X93.0579 Y74.1855 
X92.8925 Y74.1317 
X92.7208 Y74.1045 
X92.5468 
X92.3751 Y74.1317 
X92.2097 Y74.1855 
X92.0547 Y74.2644 
X91.9140 Y74.3666 
X91.7910 Y74.4896 
X91.6888 Y74.6303 
X91.6098 Y74.7853 
X91.5561 Y74.9507 
X91.5289 Y75.1224 
Y77.2776 
X91.5561 Y77.4493 
X91.6098 Y77.6147 
X91.6888 Y77.7697 
X91.7910 Y77.9104 
X91.9140 Y78.0334 
X92.0547 Y78.1356 
X92.2097 Y78.2145 
X92.3751 Y78.2683 
X92.5468 Y78.2955 
X92.7208 
X92.8925 Y78.2683 
X93.0579 Y78.2145 
X93.2129 Y78.1356 
X93.3536 Y78.0334 
X93.4766 Y77.9104 
X93.5788 Y77.7697 
X93.6577 Y77.6147 
X93.7115 Y77.4493 
X93.7387 Y77.2776 
Y75.1224 
X93.7115 Y74.9507 
X93.6577 Y74.7853 
X93.5788 Y74.6303 
X93.4766 Y74.4896 
X93.3536 Y74.3666 
G00 Z2.5400 
G00 X88.3498 Y74.3666 
G01 Z-0.1778 F254.00 
G01 X88.2091 Y74.2644 F508.00 
G01 X88.0541 Y74.1855 
X87.8887 Y74.1317 
X87.7170 Y74.1045 
X87.5430 
X87.3713 Y74.1317 
X87.2059 Y74.1855 
X87.0509 Y74.2644 
X86.9102 Y74.3666 
X86.7872 Y74.4896 
X86.6850 Y74.6303 
X86.6060 Y74.7853 
X86.5523 Y74.9507 
X86.5251 Y75.1224 
Y77.2776 
X86.5523 Y77.4493 
X86.6060 Y77.6147 
X86.6850 Y77.7697 
X86.7872 Y77.9104 
X86.9102 Y78.0334 
X87.0509 Y78.1356 
X87.2059 Y78.2145 
X87.3713 Y78.2683 
X87.5430 Y78.2955 
X87.7170 
X87.8887 Y78.2683 
X88.0541 Y78.2145 
X88.2091 Y78.1356 
X88.3498 Y78.0334 
X88.4728 Y77.9104 
X88.5750 Y77.7697 
X88.6539 Y77.6147 
X88.7077 Y77.4493 
X88.7349 Y77.2776 
Y75.1224 
X88.7077 Y74.9507 
X88.6539 Y74.7853 
X88.5750 Y74.6303 
X88.4728 Y74.4896 
X88.3498 Y74.3666 
G00 Z2.5400 
G00 X83.3460 Y74.3666 
G01 Z-0.1778 F254.00 
G01 X83.2053 Y74.2644 F508.00 
G01 X83.0503 Y74.1855 
X82.8849 Y74.1317 
X82.7132 Y74.1045 
X82.5392 
X82.3675 Y74.1317 
X82.2021 Y74.1855 
X82.0471 Y74.2644 
X81.9064 Y74.3666 
X81.7834 Y74.4896 
X81.6812 Y74.6303 
X81.6022 Y74.7853 
X81.5485 Y74.9507 
X81.5213 Y75.1224 
Y77.2776 
X81.5485 Y77.4493 
X81.6022 Y77.6147 
X81.6812 Y77.7697 
X81.7834 Y77.9104 
X81.9064 Y78.0334 
X82.0471 Y78.1356 
X82.2021 Y78.2145 
X82.3675 Y78.2683 
X82.5392 Y78.2955 
X82.7132 
X82.8849 Y78.2683 
X83.0503 Y78.2145 
X83.2053 Y78.1356 
X83.3460 Y78.0334 
X83.4690 Y77.9104 
X83.5712 Y77.7697 
X83.6501 Y77.6147 
X83.7039 Y77.4493 
X83.7311 Y77.2776 
Y75.1224 
X83.7039 Y74.9507 
X83.6501 Y74.7853 
X83.5712 Y74.6303 
X83.4690 Y74.4896 
X83.3460 Y74.3666 
G00 Z2.5400 
G00 X78.9127 Y71.6786 
G01 Z-0.1778 F254.00 
G01 X79.0086 Y71.5351 F508.00 
G01 X79.0746 Y71.3756 
X79.1083 Y71.2063 
Y71.0337 
X79.0746 Y70.8644 
X79.0086 Y70.7049 
X78.9127 Y70.5614 
X78.7906 Y70.4393 
X78.6471 Y70.3434 
X78.4876 Y70.2774 
X78.3183 Y70.2437 
X76.6217 
X76.4524 Y70.2774 
X76.2929 Y70.3434 
X76.1494 Y70.4393 
X76.0273 Y70.5614 
X75.9314 Y70.7049 
X75.8654 Y70.8644 
X75.8317 Y71.0337 
Y71.2063 
X75.8654 Y71.3756 
X75.9314 Y71.5351 
X76.0273 Y71.6786 
X76.1494 Y71.8007 
X76.2929 Y71.8966 
X76.4524 Y71.9626 
X76.6217 Y71.9963 
X78.3183 
X78.4876 Y71.9626 
X78.6471 Y71.8966 
X78.7906 Y71.8007 
X78.9127 Y71.6786 
G00 Z2.5400 
G00 X78.9127 Y69.1386 
G01 Z-0.1778 F254.00 
G01 X79.0086 Y68.9951 F508.00 
G01 X79.0746 Y68.8356 
X79.1083 Y68.6663 
Y68.4937 
X79.0746 Y68.3244 
X79.0086 Y68.1649 
X78.9127 Y68.0214 
X78.7906 Y67.8993 
X78.6471 Y67.8034 
X78.4876 Y67.7374 
X78.3183 Y67.7037 
X76.6217 
X76.4524 Y67.7374 
X76.2929 Y67.8034 
X76.1494 Y67.8993 
X76.0273 Y68.0214 
X75.9314 Y68.1649 
X75.8654 Y68.3244 
X75.8317 Y68.4937 
Y68.6663 
X75.8654 Y68.8356 
X75.9314 Y68.9951 
X76.0273 Y69.1386 
X76.1494 Y69.2607 
X76.2929 Y69.3566 
X76.4524 Y69.4226 
X76.6217 Y69.4563 
X78.3183 
X78.4876 Y69.4226 
X78.6471 Y69.3566 
X78.7906 Y69.2607 
X78.9127 Y69.1386 
G00 Z2.5400 
G00 X78.9127 Y66.5986 
G01 Z-0.1778 F254.00 
G01 X79.0086 Y66.4551 F508.00 
G01 X79.0746 Y66.2956 
X79.1083 Y66.1263 
Y65.9537 
X79.0746 Y65.7844 
X79.0086 Y65.6249 
X78.9127 Y65.4814 
X78.7906 Y65.3593 
X78.6471 Y65.2634 
X78.4876 Y65.1974 
X78.3183 Y65.1637 
X76.6217 
X76.4524 Y65.1974 
X76.2929 Y65.2634 
X76.1494 Y65.3593 
X76.0273 Y65.4814 
X75.9314 Y65.6249 
X75.8654 Y65.7844 
X75.8317 Y65.9537 
Y66.1263 
X75.8654 Y66.2956 
X75.9314 Y66.4551 
X76.0273 Y66.5986 
X76.1494 Y66.7207 
X76.2929 Y66.8166 
X76.4524 Y66.8826 
X76.6217 Y66.9163 
X78.3183 
X78.4876 Y66.8826 
X78.6471 Y66.8166 
X78.7906 Y66.7207 
X78.9127 Y66.5986 
G00 Z2.5400 
G00 X78.9127 Y64.0586 
G01 Z-0.1778 F254.00 
G01 X79.0086 Y63.9151 F508.00 
G01 X79.0746 Y63.7556 
X79.1083 Y63.5863 
Y63.4137 
X79.0746 Y63.2444 
X79.0086 Y63.0849 
X78.9127 Y62.9414 
X78.7906 Y62.8193 
X78.6471 Y62.7234 
X78.4876 Y62.6574 
X78.3183 Y62.6237 
X76.6217 
X76.4524 Y62.6574 
X76.2929 Y62.7234 
X76.1494 Y62.8193 
X76.0273 Y62.9414 
X75.9314 Y63.0849 
X75.8654 Y63.2444 
X75.8317 Y63.4137 
Y63.5863 
X75.8654 Y63.7556 
X75.9314 Y63.9151 
X76.0273 Y64.0586 
X76.1494 Y64.1807 
X76.2929 Y64.2766 
X76.4524 Y64.3426 
X76.6217 Y64.3763 
X78.3183 
