(.../pcb-gcode-3.6.2.4/pcb-gcode.ulp)
(Copyright 2005 - 2012 by John Johnson)
(See readme.txt for licensing terms.)
(This file generated from the board:)
(.../klafyvel/eagle/CNC/CommandeMoteurs.brd)
(Current profile is .../pcb-gcode-3.6.2.4/profiles/emc.pp  )
(This file generated 23/06/14 14:28)
(Settings from pcb-machine.h)
(spindle on time = 3.0000)
(spindle speed = 20000.0000)
(tool change at 0.0000 0.0000 25.4000 )
(feed rate xy = F0.00  )
(feed rate z  = F508.00 )
(Z Axis Settings)
(  High     Up        Down     Drill)
(12.7000 	2.5400 	-0.1778 	-0.8128 )
(Settings from pcb-defaults.h)
(isolate min = 0.0254)
(isolate max = 0.5080)
(isolate step = 0.1270)
(Generated top outlines, top drill, bottom outlines, bottom drill, )
(Unit of measure: mm)
( Tool|       Size       |  Min Sub |  Max Sub |   Count )
( T01 | 0.600mm 0.0236in | 0.0000in | 0.0000in |       0 )
( T02 | 0.813mm 0.0320in | 0.0000in | 0.0000in |       0 )
( T03 | 1.016mm 0.0400in | 0.0000in | 0.0000in |       0 )
( T04 | 1.200mm 0.0472in | 0.0000in | 0.0000in |       0 )
( T05 | 1.321mm 0.0520in | 0.0000in | 0.0000in |       0 )
( T06 | 3.200mm 0.1260in | 0.0000in | 0.0000in |       0 )
(Metric Mode)
G21
(Absolute Coordinates)
G90
S20000
G00 Z12.7000 
G00 X0.0000 Y0.0000 
M03
G04 P3.000000
M05
G00 Z25.4000 
M06 T01 (0.6000 )
G00 Z2.5400 
M03
G04 P3.000000
G82 X-11.4300 Y12.7000 Z-0.8128 F508.00 R2.5400 P1.000000
G82 X-11.4300 Y22.8600 
G82 X-11.4300 Y25.4000 
G82 X-23.3680 Y27.4320 
G82 X-25.4000 Y26.4160 
G82 X-27.9400 Y25.4000 
G82 X-27.9400 Y27.9400 
G82 X-25.4000 Y10.9220 
G82 X-23.3680 Y8.8900 
G82 X-38.1000 Y12.7000 
G82 X-50.8000 Y26.6700 
G82 X-55.8800 Y26.6700 
G82 X-61.7220 Y34.0360 
G82 X-61.7220 Y35.5600 
G82 X-67.3100 Y33.0200 
G82 X-67.3100 Y29.2100 
G82 X-71.1200 Y40.6400 
G82 X-71.1200 Y44.4500 
G82 X-77.4700 Y40.6400 
G82 X-68.0720 Y60.1980 
G82 X-68.0720 Y63.5000 
G82 X-64.5160 Y65.0240 
G82 X-57.1500 Y59.6900 
G82 X-50.5460 Y57.4040 
G82 X-50.0380 Y55.6260 
G82 X-49.2760 Y54.3560 
G82 X-48.5140 Y53.0860 
G82 X-47.7520 Y51.8160 
G82 X-47.7520 Y56.3880 
G82 X-44.4500 Y56.3880 
G82 X-41.9100 Y57.4040 
G82 X-49.5300 Y59.6900 
G82 X-50.5460 Y65.0240 
G82 X-51.0540 Y44.4500 
G82 X-48.7680 Y35.5600 
G82 X-47.7520 Y34.0360 
G82 X-28.4480 Y59.9440 
G82 X-22.6060 Y55.6260 
G82 X-21.8440 Y54.3560 
G82 X-21.0820 Y53.0860 
G82 X-20.3200 Y51.8160 
G82 X-28.4480 Y71.1200 
M05
G00 Z25.4000 
G00 X0.0000 Y0.0000 
M06 T02 (0.8128 )
G00 Z2.5400 
M03
G04 P3.000000
G82 X-17.7800 Y30.4800 Z-0.8128 F508.00 R2.5400 P1.000000
G82 X-17.7800 Y33.0200 
G82 X-17.7800 Y35.5600 
G82 X-17.7800 Y38.1000 
G82 X-17.7800 Y40.6400 
G82 X-17.7800 Y43.1800 
G82 X-17.7800 Y45.7200 
G82 X-17.7800 Y48.2600 
G82 X-25.4000 Y48.2600 
G82 X-25.4000 Y45.7200 
G82 X-25.4000 Y43.1800 
G82 X-25.4000 Y40.6400 
G82 X-25.4000 Y38.1000 
G82 X-25.4000 Y35.5600 
G82 X-25.4000 Y33.0200 
G82 X-25.4000 Y30.4800 
G82 X-31.7500 Y26.6700 
G82 X-35.5600 Y26.6700 
G82 X-39.3700 Y26.6700 
G82 X-43.1800 Y26.6700 
G82 X-43.1800 Y16.5100 
G82 X-43.1800 Y12.7000 
G82 X-39.3700 Y12.7000 
G82 X-35.5600 Y12.7000 
G82 X-31.7500 Y12.7000 
G82 X-31.7500 Y16.5100 
G82 X-35.5600 Y16.5100 
G82 X-39.3700 Y16.5100 
G82 X-39.3700 Y2.5400 
G82 X-35.5600 Y2.5400 
G82 X-31.7500 Y2.5400 
G82 X-43.1800 Y2.5400 
G82 X-74.9300 Y26.6700 
G82 X-78.7400 Y26.6700 
G82 X-82.5500 Y26.6700 
G82 X-86.3600 Y26.6700 
G82 X-86.3600 Y36.8300 
G82 X-82.5500 Y36.8300 
G82 X-78.7400 Y36.8300 
G82 X-74.9300 Y36.8300 
G82 X-74.9300 Y40.6400 
G82 X-78.7400 Y40.6400 
G82 X-82.5500 Y40.6400 
G82 X-86.3600 Y40.6400 
G82 X-86.3600 Y50.8000 
G82 X-82.5500 Y50.8000 
G82 X-78.7400 Y50.8000 
G82 X-74.9300 Y50.8000 
G82 X-69.8500 Y53.3400 
G82 X-66.0400 Y53.3400 
G82 X-62.2300 Y53.3400 
G82 X-58.4200 Y53.3400 
G82 X-58.4200 Y63.5000 
G82 X-62.2300 Y63.5000 
G82 X-62.2300 Y67.3100 
G82 X-58.4200 Y67.3100 
G82 X-66.0400 Y67.3100 
G82 X-69.8500 Y67.3100 
G82 X-69.8500 Y63.5000 
G82 X-66.0400 Y63.5000 
G82 X-66.0400 Y77.4700 
G82 X-69.8500 Y77.4700 
G82 X-62.2300 Y77.4700 
G82 X-58.4200 Y77.4700 
G82 X-25.4000 Y76.2000 
G82 X-25.4000 Y73.6600 
G82 X-25.4000 Y71.1200 
G82 X-25.4000 Y68.5800 
G82 X-25.4000 Y66.0400 
G82 X-25.4000 Y63.5000 
G82 X-25.4000 Y60.9600 
G82 X-25.4000 Y58.4200 
G82 X-17.7800 Y58.4200 
G82 X-17.7800 Y60.9600 
G82 X-17.7800 Y63.5000 
G82 X-17.7800 Y66.0400 
G82 X-17.7800 Y68.5800 
G82 X-17.7800 Y71.1200 
G82 X-17.7800 Y73.6600 
G82 X-17.7800 Y76.2000 
M05
G00 Z25.4000 
G00 X0.0000 Y0.0000 
M06 T03 (1.0160 )
G00 Z2.5400 
M03
G04 P3.000000
G82 X-2.5400 Y67.3100 Z-0.8128 F508.00 R2.5400 P1.000000
G82 X-2.5400 Y69.8500 
G82 X-2.5400 Y72.3900 
G82 X-2.5400 Y74.9300 
G82 X-2.5400 Y77.4700 
G82 X-77.4700 Y71.1200 
G82 X-77.4700 Y68.5800 
G82 X-77.4700 Y66.0400 
G82 X-77.4700 Y63.5000 
G82 X-95.2500 Y43.1800 
G82 X-95.2500 Y40.6400 
G82 X-95.2500 Y38.1000 
G82 X-95.2500 Y35.5600 
G82 X-58.4200 Y16.5100 
G82 X-58.4200 Y13.9700 
G82 X-58.4200 Y11.4300 
G82 X-58.4200 Y8.8900 
M05
G00 Z25.4000 
G00 X0.0000 Y0.0000 
M06 T04 (1.2000 )
G00 Z2.5400 
M03
G04 P3.000000
G82 X-15.2400 Y5.0800 Z-0.8128 F508.00 R2.5400 P1.000000
G82 X-15.2400 Y7.6200 
G82 X-15.2400 Y10.1600 
G82 X-15.2400 Y12.7000 
G82 X-15.2400 Y15.2400 
G82 X-15.2400 Y17.7800 
G82 X-15.2400 Y20.3200 
G82 X-15.2400 Y22.8600 
G82 X-20.3200 Y21.5900 
G82 X-20.3200 Y19.0500 
G82 X-20.3200 Y16.5100 
G82 X-20.3200 Y13.9700 
G82 X-20.3200 Y11.4300 
G82 X-20.3200 Y8.8900 
G82 X-20.3200 Y6.3500 
G82 X-53.3400 Y29.2100 
G82 X-53.3400 Y31.7500 
G82 X-53.3400 Y34.2900 
G82 X-53.3400 Y36.8300 
G82 X-53.3400 Y39.3700 
G82 X-53.3400 Y41.9100 
G82 X-53.3400 Y44.4500 
G82 X-53.3400 Y46.9900 
G82 X-58.4200 Y45.7200 
G82 X-58.4200 Y43.1800 
G82 X-58.4200 Y40.6400 
G82 X-58.4200 Y38.1000 
G82 X-58.4200 Y35.5600 
G82 X-58.4200 Y33.0200 
G82 X-58.4200 Y30.4800 
G82 X-44.4500 Y59.6900 
G82 X-44.4500 Y62.2300 
G82 X-44.4500 Y64.7700 
G82 X-44.4500 Y67.3100 
G82 X-44.4500 Y69.8500 
G82 X-44.4500 Y72.3900 
G82 X-44.4500 Y74.9300 
G82 X-39.3700 Y76.2000 
G82 X-39.3700 Y73.6600 
G82 X-39.3700 Y71.1200 
G82 X-39.3700 Y68.5800 
G82 X-39.3700 Y66.0400 
G82 X-39.3700 Y63.5000 
G82 X-39.3700 Y60.9600 
G82 X-39.3700 Y58.4200 
M05
G00 Z25.4000 
G00 X0.0000 Y0.0000 
M06 T05 (1.3208 )
G00 Z2.5400 
M03
G04 P3.000000
G82 X-82.6262 Y76.2000 Z-0.8128 F508.00 R2.5400 P1.000000
G82 X-87.6300 Y76.2000 
G82 X-92.6338 Y76.2000 
M05
G00 Z25.4000 
G00 X0.0000 Y0.0000 
M06 T06 (3.2000 )
G00 Z2.5400 
M03
G04 P3.000000
G82 X-2.5400 Y2.5400 Z-0.8128 F508.00 R2.5400 P1.000000
G82 X-2.5400 Y60.1980 
G82 X-97.5360 Y77.4700 
T01 
G00 Z12.7000 
M05
M02
