(.../pcb-gcode-3.6.2.4/pcb-gcode.ulp)
(Copyright 2005 - 2012 by John Johnson)
(See readme.txt for licensing terms.)
(This file generated from the board:)
(.../klafyvel/eagle/CNC/CommandeMoteurs.brd)
(Current profile is .../pcb-gcode-3.6.2.4/profiles/emc.pp  )
(This file generated 23/06/14 14:28)
(Settings from pcb-machine.h)
(spindle on time = 3.0000)
(  Tool Size)
(0.1778 )
(spindle speed = 30000.0000)
(tool change at 0.0000 0.0000 25.4000 )
(feed rate xy = F508.00 )
(feed rate z  = F254.00 )
(Z Axis Settings)
(  High     Up        Down     Drill)
(12.7000 	2.5400 	-0.1778 	-0.8128 )
(Settings from pcb-defaults.h)
(isolate min = 0.0254)
(isolate max = 0.5080)
(isolate step = 0.1270)
(Generated top outlines, top drill, bottom outlines, bottom drill, )
(Unit of measure: mm)
(Metric Mode)
G21
(Absolute Coordinates)
G90
S30000
G00 Z12.7000 
G00 X0.0000 Y0.0000 
M03
G04 P3.000000
G00 Z2.5400 
G00 X-8.6854 Y8.4993 
G01 Z-0.1778 F254.00 
G01 X-8.7533 Y8.4314 F508.00 
G01 X-13.5793 Y3.6054 
X-13.6680 Y3.5687 
X-21.3840 
X-21.4727 Y3.6054 
X-27.1286 Y9.2613 
X-27.1653 Y9.3500 
Y11.4780 
X-27.1286 Y11.5667 
X-27.0607 Y11.6346 
X-25.7907 Y12.9046 
X-25.7020 Y12.9413 
X-21.6899 
X-21.6012 Y13.0300 
X-21.7005 Y13.0711 
X-21.8666 Y13.1821 
X-22.0079 Y13.3234 
X-22.1189 Y13.4895 
X-22.1953 Y13.6741 
X-22.2343 Y13.8701 
Y14.0699 
X-22.1953 Y14.2659 
X-22.1189 Y14.4505 
X-22.0079 Y14.6166 
X-21.8666 Y14.7579 
X-21.7005 Y14.8689 
X-21.5159 Y14.9453 
X-21.3199 Y14.9843 
X-19.3201 
X-19.1241 Y14.9453 
X-18.9395 Y14.8689 
X-18.7734 Y14.7579 
X-18.6321 Y14.6166 
X-18.5211 Y14.4505 
X-18.4447 Y14.2659 
X-18.4057 Y14.0699 
Y13.8701 
X-18.4447 Y13.6741 
X-18.5211 Y13.4895 
X-18.6321 Y13.3234 
X-18.7734 Y13.1821 
X-18.9395 Y13.0711 
X-19.1241 Y12.9947 
X-19.3201 Y12.9557 
X-20.9930 
X-21.3854 Y12.5633 
X-21.4533 Y12.4954 
X-21.5420 Y12.4587 
X-25.5540 
X-26.6827 Y11.3300 
Y9.4979 
X-21.2360 Y4.0513 
X-13.8160 
X-9.1313 Y8.7360 
Y60.6401 
X-16.3605 Y58.5746 
X-16.3449 Y58.4963 
Y58.3437 
X-16.3747 Y58.1940 
X-16.4331 Y58.0530 
X-16.5178 Y57.9262 
X-16.6258 Y57.8182 
X-16.7526 Y57.7335 
X-16.8936 Y57.6751 
X-17.0433 Y57.6453 
X-18.2134 
X-19.0627 Y56.7960 
Y49.9900 
X-19.0994 Y49.9013 
X-19.1673 Y49.8334 
X-19.2560 Y49.7967 
X-19.3167 
Y30.7213 
X-19.1790 
X-19.1269 Y30.8470 
X-19.0421 Y30.9738 
X-18.9342 Y31.0817 
X-18.8074 Y31.1665 
X-18.6664 Y31.2249 
X-18.5167 Y31.2547 
X-17.0433 
X-16.8936 Y31.2249 
X-16.7526 Y31.1665 
X-16.6258 Y31.0817 
X-16.5178 Y30.9738 
X-16.4331 Y30.8470 
X-16.3747 Y30.7060 
X-16.3449 Y30.5563 
Y30.4037 
X-16.3747 Y30.2540 
X-16.4331 Y30.1130 
X-16.5178 Y29.9862 
X-16.6258 Y29.8783 
X-16.7526 Y29.7935 
X-16.8936 Y29.7351 
X-17.0433 Y29.7053 
X-18.5167 
X-18.6664 Y29.7351 
X-18.8074 Y29.7935 
X-18.9342 Y29.8783 
X-19.0421 Y29.9862 
X-19.1269 Y30.1130 
X-19.1790 Y30.2387 
X-23.0140 
X-26.7194 Y26.5333 
X-26.7873 Y26.4654 
X-26.8760 Y26.4287 
X-30.9753 
Y25.9333 
X-31.0051 Y25.7836 
X-31.0635 Y25.6426 
X-31.1483 Y25.5158 
X-31.2562 Y25.4078 
X-31.3830 Y25.3231 
X-31.5240 Y25.2647 
X-31.6737 Y25.2349 
X-31.8263 
X-31.9760 Y25.2647 
X-32.1170 Y25.3231 
X-32.2438 Y25.4078 
X-32.3517 Y25.5158 
X-32.4365 Y25.6426 
X-32.4949 Y25.7836 
X-32.5247 Y25.9333 
Y26.4287 
X-34.7853 
Y25.9333 
X-34.8151 Y25.7836 
X-34.8735 Y25.6426 
X-34.9582 Y25.5158 
X-35.0662 Y25.4078 
X-35.1930 Y25.3231 
X-35.3340 Y25.2647 
X-35.4837 Y25.2349 
X-35.6363 
X-35.7860 Y25.2647 
X-35.9270 Y25.3231 
X-36.0538 Y25.4078 
X-36.1617 Y25.5158 
X-36.2465 Y25.6426 
X-36.3049 Y25.7836 
X-36.3347 Y25.9333 
Y26.4287 
X-38.5953 
Y25.9333 
X-38.6251 Y25.7836 
X-38.6835 Y25.6426 
X-38.7683 Y25.5158 
X-38.8762 Y25.4078 
X-39.0030 Y25.3231 
X-39.1440 Y25.2647 
X-39.2937 Y25.2349 
X-39.4463 
X-39.5960 Y25.2647 
X-39.7370 Y25.3231 
X-39.8638 Y25.4078 
X-39.9717 Y25.5158 
X-40.0565 Y25.6426 
X-40.1149 Y25.7836 
X-40.1447 Y25.9333 
Y26.4287 
X-42.4053 
Y25.9333 
X-42.4351 Y25.7836 
X-42.4935 Y25.6426 
X-42.5782 Y25.5158 
X-42.6862 Y25.4078 
X-42.8130 Y25.3231 
X-42.9540 Y25.2647 
X-43.1037 Y25.2349 
X-43.2563 
X-43.4060 Y25.2647 
X-43.5470 Y25.3231 
X-43.6738 Y25.4078 
X-43.7817 Y25.5158 
X-43.8665 Y25.6426 
X-43.9249 Y25.7836 
X-43.9547 Y25.9333 
Y26.4287 
X-50.1825 
Y26.1441 
X-50.1999 Y26.1021 
X-50.2321 Y26.0699 
X-50.2741 Y26.0525 
X-51.3259 
X-51.3679 Y26.0699 
X-51.4001 Y26.1021 
X-51.4175 Y26.1441 
Y27.1959 
X-51.4001 Y27.2379 
X-51.3679 Y27.2701 
X-51.3259 Y27.2875 
X-50.2741 
X-50.2321 Y27.2701 
X-50.1999 Y27.2379 
X-50.1825 Y27.1959 
Y26.9113 
X-43.9547 
Y27.4067 
X-43.9249 Y27.5564 
X-43.8665 Y27.6974 
X-43.7817 Y27.8242 
X-43.6738 Y27.9321 
X-43.5470 Y28.0169 
X-43.4060 Y28.0753 
X-43.2563 Y28.1051 
X-43.1037 
X-42.9540 Y28.0753 
X-42.8130 Y28.0169 
X-42.6862 Y27.9321 
X-42.5782 Y27.8242 
X-42.4935 Y27.6974 
X-42.4351 Y27.5564 
X-42.4053 Y27.4067 
Y26.9113 
X-40.1447 
Y27.4067 
X-40.1149 Y27.5564 
X-40.0565 Y27.6974 
X-39.9717 Y27.8242 
X-39.8638 Y27.9321 
X-39.7370 Y28.0169 
X-39.5960 Y28.0753 
X-39.4463 Y28.1051 
X-39.2937 
X-39.1440 Y28.0753 
X-39.0030 Y28.0169 
X-38.8762 Y27.9321 
X-38.7683 Y27.8242 
X-38.6835 Y27.6974 
X-38.6251 Y27.5564 
X-38.5953 Y27.4067 
Y26.9113 
X-36.3347 
Y27.4067 
X-36.3049 Y27.5564 
X-36.2465 Y27.6974 
X-36.1617 Y27.8242 
X-36.0538 Y27.9321 
X-35.9270 Y28.0169 
X-35.7860 Y28.0753 
X-35.6363 Y28.1051 
X-35.4837 
X-35.3340 Y28.0753 
X-35.1930 Y28.0169 
X-35.0662 Y27.9321 
X-34.9582 Y27.8242 
X-34.8735 Y27.6974 
X-34.8151 Y27.5564 
X-34.7853 Y27.4067 
Y26.9113 
X-32.5247 
Y27.4067 
X-32.4949 Y27.5564 
X-32.4365 Y27.6974 
X-32.3517 Y27.8242 
X-32.2438 Y27.9321 
X-32.1170 Y28.0169 
X-31.9760 Y28.0753 
X-31.8263 Y28.1051 
X-31.6737 
X-31.5240 Y28.0753 
X-31.3830 Y28.0169 
X-31.2562 Y27.9321 
X-31.1483 Y27.8242 
X-31.0635 Y27.6974 
X-31.0051 Y27.5564 
X-30.9753 Y27.4067 
Y26.9113 
X-27.0239 
X-23.2507 Y30.6846 
X-23.1620 Y30.7213 
X-19.7993 
Y50.0860 
X-19.7626 Y50.1747 
X-19.6947 Y50.2426 
X-19.6060 Y50.2793 
X-19.5453 
Y56.9440 
X-19.5086 Y57.0327 
X-18.8076 Y57.7336 
X-18.9342 Y57.8182 
X-19.0421 Y57.9262 
X-19.1269 Y58.0530 
X-19.1853 Y58.1940 
X-19.2151 Y58.3437 
Y58.4963 
X-19.1853 Y58.6460 
X-19.1269 Y58.7870 
X-19.0421 Y58.9138 
X-18.9342 Y59.0217 
X-18.8074 Y59.1065 
X-18.6664 Y59.1649 
X-18.5167 Y59.1947 
X-17.0433 
X-16.8936 Y59.1649 
X-16.7526 Y59.1065 
X-16.6258 Y59.0217 
X-16.6094 Y59.0054 
X-9.0164 Y61.1748 
X-3.6752 Y66.5161 
X-3.7171 Y66.5334 
X-3.8606 Y66.6293 
X-3.9827 Y66.7514 
X-4.0786 Y66.8949 
X-4.1446 Y67.0544 
X-4.1783 Y67.2237 
Y67.3963 
X-4.1446 Y67.5656 
X-4.0786 Y67.7251 
X-3.9827 Y67.8686 
X-3.8606 Y67.9907 
X-3.7171 Y68.0866 
X-3.5576 Y68.1526 
X-3.3883 Y68.1863 
X-1.6917 
X-1.5224 Y68.1526 
X-1.3629 Y68.0866 
X-1.2194 Y67.9907 
X-1.0973 Y67.8686 
X-1.0014 Y67.7251 
X-0.9354 Y67.5656 
X-0.9017 Y67.3963 
Y67.2237 
X-0.9354 Y67.0544 
X-1.0014 Y66.8949 
X-1.0973 Y66.7514 
X-1.2194 Y66.6293 
X-1.3629 Y66.5334 
X-1.5224 Y66.4674 
X-1.6917 Y66.4337 
X-3.0750 
X-8.6487 Y60.8600 
Y8.5880 
X-8.6854 Y8.4993 
G00 Z2.5400 
G00 X-9.1934 Y10.5313 
G01 Z-0.1778 F254.00 
G01 X-13.5114 Y6.2133 F508.00 
G01 X-13.5793 Y6.1454 
X-13.6680 Y6.1087 
X-17.4260 
X-18.5914 Y4.9433 
X-18.6593 Y4.8754 
X-18.7480 Y4.8387 
X-21.8920 
X-21.9807 Y4.8754 
X-24.5886 Y7.4833 
X-24.6253 Y7.5720 
Y10.2080 
X-24.5886 Y10.2967 
X-24.5207 Y10.3646 
X-24.4320 Y10.4013 
X-18.8959 
X-17.7673 Y11.5299 
Y13.2560 
X-17.7306 Y13.3447 
X-16.6886 Y14.3867 
X-16.7866 Y14.4521 
X-16.9279 Y14.5934 
X-17.0389 Y14.7595 
X-17.1153 Y14.9441 
X-17.1543 Y15.1401 
Y15.3399 
X-17.1153 Y15.5359 
X-17.0389 Y15.7204 
X-16.9279 Y15.8866 
X-16.7866 Y16.0279 
X-16.6205 Y16.1389 
X-16.4359 Y16.2153 
X-16.2399 Y16.2543 
X-14.2401 
X-14.0441 Y16.2153 
X-13.8595 Y16.1389 
X-13.6934 Y16.0279 
X-13.5521 Y15.8866 
X-13.4411 Y15.7204 
X-13.3647 Y15.5359 
X-13.3257 Y15.3399 
Y15.1401 
X-13.3647 Y14.9441 
X-13.4411 Y14.7595 
X-13.5521 Y14.5934 
X-13.6934 Y14.4521 
X-13.8595 Y14.3411 
X-14.0441 Y14.2647 
X-14.2401 Y14.2257 
X-16.1670 
X-17.2847 Y13.1080 
Y11.3820 
X-17.3214 Y11.2933 
X-17.3893 Y11.2254 
X-18.6593 Y9.9554 
X-18.7480 Y9.9187 
X-24.1427 
Y7.7199 
X-21.7440 Y5.3213 
X-18.8959 
X-17.6627 Y6.5546 
X-17.5740 Y6.5913 
X-13.8160 
X-9.6393 Y10.7680 
Y39.7780 
X-17.3466 Y47.4853 
X-18.5167 
X-18.6664 Y47.5151 
X-18.8074 Y47.5735 
X-18.9342 Y47.6583 
X-19.0421 Y47.7662 
X-19.1269 Y47.8930 
X-19.1853 Y48.0340 
X-19.2151 Y48.1837 
Y48.3363 
X-19.1853 Y48.4860 
X-19.1269 Y48.6270 
X-19.0421 Y48.7538 
X-18.9342 Y48.8617 
X-18.8074 Y48.9465 
X-18.6664 Y49.0049 
X-18.5167 Y49.0347 
X-17.0433 
X-16.8936 Y49.0049 
X-16.7526 Y48.9465 
X-16.6258 Y48.8617 
X-16.5178 Y48.7538 
X-16.4331 Y48.6270 
X-16.3747 Y48.4860 
X-16.3449 Y48.3363 
Y48.1837 
X-16.3747 Y48.0340 
X-16.4331 Y47.8930 
X-16.5178 Y47.7662 
X-16.6258 Y47.6583 
X-16.7524 Y47.5736 
X-9.2613 Y40.0826 
X-9.1934 Y40.0147 
X-9.1567 Y39.9260 
Y10.6200 
X-9.1934 Y10.5313 
G00 Z2.5400 
G00 X-11.1887 Y10.1120 
G01 Z-0.1778 F254.00 
G01 X-11.2254 Y10.0233 F508.00 
G01 X-11.2933 Y9.9554 
X-13.3594 Y7.8893 
X-13.3257 Y7.7199 
Y7.5201 
X-13.3647 Y7.3241 
X-13.4411 Y7.1395 
X-13.5521 Y6.9734 
X-13.6934 Y6.8321 
X-13.8595 Y6.7211 
X-14.0441 Y6.6447 
X-14.2401 Y6.6057 
X-16.2399 
X-16.4359 Y6.6447 
X-16.6205 Y6.7211 
X-16.7866 Y6.8321 
X-16.9279 Y6.9734 
X-17.0389 Y7.1395 
X-17.1153 Y7.3241 
X-17.1543 Y7.5201 
Y7.7199 
X-17.1153 Y7.9159 
X-17.0389 Y8.1005 
X-16.9279 Y8.2666 
X-16.7866 Y8.4079 
X-16.6205 Y8.5189 
X-16.4359 Y8.5953 
X-16.2399 Y8.6343 
X-14.2401 
X-14.0441 Y8.5953 
X-13.8595 Y8.5189 
X-13.6934 Y8.4079 
X-13.6084 Y8.3228 
X-11.6713 Y10.2599 
Y12.0825 
X-11.9559 
X-11.9979 Y12.0999 
X-12.0301 Y12.1321 
X-12.0475 Y12.1741 
Y13.2259 
X-12.0301 Y13.2679 
X-11.9979 Y13.3001 
X-11.9559 Y13.3175 
X-10.9041 
X-10.8621 Y13.3001 
X-10.8299 Y13.2679 
X-10.8125 Y13.2259 
Y12.1741 
X-10.8299 Y12.1321 
X-10.8621 Y12.0999 
X-10.9041 Y12.0825 
X-11.1887 
Y10.1120 
G00 Z2.5400 
G00 X-12.2047 Y10.1120 
G01 Z-0.1778 F254.00 
G01 X-12.2414 Y10.0233 F508.00 
G01 X-12.3093 Y9.9554 
X-13.5793 Y8.6854 
X-13.6680 Y8.6487 
X-16.6640 
X-18.5098 Y6.8030 
X-18.4447 Y6.6459 
X-18.4057 Y6.4499 
Y6.2501 
X-18.4447 Y6.0541 
X-18.5211 Y5.8695 
X-18.6321 Y5.7034 
X-18.7734 Y5.5621 
X-18.9395 Y5.4511 
X-19.1241 Y5.3747 
X-19.3201 Y5.3357 
X-21.3199 
X-21.5159 Y5.3747 
X-21.7005 Y5.4511 
X-21.8666 Y5.5621 
X-22.0079 Y5.7034 
X-22.1189 Y5.8695 
X-22.1953 Y6.0541 
X-22.2343 Y6.2501 
Y6.4499 
X-22.1953 Y6.6459 
X-22.1189 Y6.8304 
X-22.0079 Y6.9966 
X-21.8666 Y7.1379 
X-21.7005 Y7.2489 
X-21.5159 Y7.3253 
X-21.3199 Y7.3643 
X-19.3201 
X-19.1241 Y7.3253 
X-18.9395 Y7.2489 
X-18.8238 Y7.1715 
X-16.9686 Y9.0267 
X-16.9007 Y9.0946 
X-16.8120 Y9.1313 
X-13.8160 
X-12.6873 Y10.2599 
Y13.7640 
X-12.6506 Y13.8527 
X-12.5827 Y13.9206 
X-12.4940 Y13.9573 
X-10.1473 
Y23.8887 
X-53.2400 
X-60.2107 Y16.9180 
Y16.1019 
X-59.5900 Y15.4813 
X-57.1020 
X-57.0133 Y15.4446 
X-54.5100 Y12.9413 
X-43.9547 
Y13.4367 
X-43.9249 Y13.5864 
X-43.8665 Y13.7274 
X-43.7817 Y13.8542 
X-43.6738 Y13.9621 
X-43.5470 Y14.0469 
X-43.4213 Y14.0990 
Y15.1110 
X-43.5470 Y15.1631 
X-43.6738 Y15.2478 
X-43.7817 Y15.3558 
X-43.8665 Y15.4826 
X-43.9249 Y15.6236 
X-43.9547 Y15.7733 
Y17.2467 
X-43.9249 Y17.3964 
X-43.8665 Y17.5374 
X-43.7817 Y17.6642 
X-43.6738 Y17.7721 
X-43.5470 Y17.8569 
X-43.4060 Y17.9153 
X-43.2563 Y17.9451 
X-43.1037 
X-42.9540 Y17.9153 
X-42.8130 Y17.8569 
X-42.6862 Y17.7721 
X-42.5782 Y17.6642 
X-42.4935 Y17.5374 
X-42.4351 Y17.3964 
X-42.4053 Y17.2467 
Y15.7733 
X-42.4351 Y15.6236 
X-42.4935 Y15.4826 
X-42.5782 Y15.3558 
X-42.6862 Y15.2478 
X-42.8130 Y15.1631 
X-42.9387 Y15.1110 
Y14.0990 
X-42.8130 Y14.0469 
X-42.6862 Y13.9621 
X-42.5782 Y13.8542 
X-42.4935 Y13.7274 
X-42.4351 Y13.5864 
X-42.4053 Y13.4367 
Y11.9633 
X-42.4351 Y11.8136 
X-42.4935 Y11.6726 
X-42.5782 Y11.5458 
X-42.6862 Y11.4378 
X-42.8130 Y11.3531 
X-42.9540 Y11.2947 
X-43.1037 Y11.2649 
X-43.2563 
X-43.4060 Y11.2947 
X-43.5470 Y11.3531 
X-43.6738 Y11.4378 
X-43.7817 Y11.5458 
X-43.8665 Y11.6726 
X-43.9249 Y11.8136 
X-43.9547 Y11.9633 
Y12.4587 
X-59.5900 
X-60.2107 Y11.8380 
Y11.0220 
X-58.9550 Y9.7663 
X-57.5717 
X-57.4024 Y9.7326 
X-57.2429 Y9.6666 
X-57.0994 Y9.5707 
X-56.9773 Y9.4486 
X-56.8814 Y9.3051 
X-56.8154 Y9.1456 
X-56.7817 Y8.9763 
Y8.8037 
X-56.8154 Y8.6344 
X-56.8814 Y8.4749 
X-56.9773 Y8.3314 
X-57.0994 Y8.2093 
X-57.2429 Y8.1134 
X-57.4024 Y8.0474 
X-57.5717 Y8.0137 
X-59.2683 
X-59.4376 Y8.0474 
X-59.5971 Y8.1134 
X-59.7406 Y8.2093 
X-59.8627 Y8.3314 
X-59.9586 Y8.4749 
X-60.0246 Y8.6344 
X-60.0583 Y8.8037 
Y8.9763 
X-60.0246 Y9.1456 
X-59.9586 Y9.3051 
X-59.8627 Y9.4486 
X-59.7406 Y9.5707 
X-59.5971 Y9.6666 
X-59.5552 Y9.6839 
X-60.5887 Y10.7174 
X-60.6566 Y10.7853 
X-60.6933 Y10.8740 
Y11.9860 
X-60.6566 Y12.0747 
X-59.8946 Y12.8367 
X-59.8267 Y12.9046 
X-59.7380 Y12.9413 
X-55.1925 
X-57.2499 Y14.9987 
X-59.7380 
X-59.8267 Y15.0354 
X-59.8946 Y15.1033 
X-60.6566 Y15.8653 
X-60.6933 Y15.9540 
Y17.0660 
X-60.6566 Y17.1547 
X-60.5887 Y17.2226 
X-53.4767 Y24.3346 
X-53.3880 Y24.3713 
X-9.8580 
X-9.7693 Y24.3346 
X-9.7014 Y24.2667 
X-9.6647 Y24.1780 
Y13.6680 
X-9.7014 Y13.5793 
X-9.7693 Y13.5114 
X-9.8580 Y13.4747 
X-12.2047 
Y10.1120 
G00 Z2.5400 
G00 X-13.3257 Y10.0601 
G01 Z-0.1778 F254.00 
G01 X-13.3647 Y9.8641 F508.00 
G01 X-13.4411 Y9.6795 
X-13.5521 Y9.5134 
X-13.6934 Y9.3721 
X-13.8595 Y9.2611 
X-14.0441 Y9.1847 
X-14.2401 Y9.1457 
X-16.2399 
X-16.4359 Y9.1847 
X-16.6205 Y9.2611 
X-16.7866 Y9.3721 
X-16.9279 Y9.5134 
X-17.0389 Y9.6795 
X-17.1153 Y9.8641 
X-17.1543 Y10.0601 
Y10.2599 
X-17.1153 Y10.4559 
X-17.0389 Y10.6404 
X-16.9279 Y10.8066 
X-16.7866 Y10.9479 
X-16.6205 Y11.0589 
X-16.4359 Y11.1353 
X-16.2399 Y11.1743 
X-15.4813 
Y11.6857 
X-16.2399 
X-16.4359 Y11.7247 
X-16.6205 Y11.8011 
X-16.7866 Y11.9121 
X-16.9279 Y12.0534 
X-17.0389 Y12.2195 
X-17.1153 Y12.4041 
X-17.1543 Y12.6001 
Y12.7999 
X-17.1153 Y12.9959 
X-17.0389 Y13.1805 
X-16.9279 Y13.3466 
X-16.7866 Y13.4879 
X-16.6205 Y13.5989 
X-16.4359 Y13.6753 
X-16.2399 Y13.7143 
X-14.3130 
X-13.1953 Y14.8320 
Y15.6480 
X-13.8160 Y16.2687 
X-18.4338 
X-18.4447 Y16.2141 
X-18.5211 Y16.0295 
X-18.6321 Y15.8634 
X-18.7734 Y15.7221 
X-18.9395 Y15.6111 
X-19.1241 Y15.5347 
X-19.3201 Y15.4957 
X-21.3199 
X-21.5159 Y15.5347 
X-21.7005 Y15.6111 
X-21.8666 Y15.7221 
X-22.0079 Y15.8634 
X-22.1189 Y16.0295 
X-22.1953 Y16.2141 
X-22.2343 Y16.4101 
Y16.6099 
X-22.1953 Y16.8059 
X-22.1189 Y16.9904 
X-22.0079 Y17.1566 
X-21.8666 Y17.2979 
X-21.7005 Y17.4089 
X-21.5159 Y17.4853 
X-21.3199 Y17.5243 
X-19.3201 
X-19.1241 Y17.4853 
X-18.9395 Y17.4089 
X-18.7734 Y17.2979 
X-18.6321 Y17.1566 
X-18.5211 Y16.9904 
X-18.4447 Y16.8059 
X-18.4338 Y16.7513 
X-18.2753 
Y19.4580 
X-18.8959 Y20.0787 
X-21.7440 
X-29.9847 Y11.8380 
Y11.1280 
X-30.0214 Y11.0393 
X-34.0854 Y6.9753 
X-34.1533 Y6.9074 
X-34.2420 Y6.8707 
X-59.9920 
X-60.0807 Y6.9074 
X-61.6047 Y8.4314 
X-61.6726 Y8.4993 
X-61.7093 Y8.5880 
Y18.3360 
X-61.6726 Y18.4247 
X-47.3185 Y32.7787 
X-52.1180 
X-52.2067 Y32.8154 
X-52.6669 Y33.2757 
X-54.3399 
X-54.5359 Y33.3147 
X-54.7204 Y33.3911 
X-54.8866 Y33.5021 
X-55.0279 Y33.6434 
X-55.1389 Y33.8095 
X-55.2153 Y33.9941 
X-55.2543 Y34.1901 
Y34.3899 
X-55.2153 Y34.5859 
X-55.1389 Y34.7704 
X-55.0279 Y34.9366 
X-54.8866 Y35.0779 
X-54.7204 Y35.1889 
X-54.5359 Y35.2653 
X-54.3399 Y35.3043 
X-53.5813 
Y35.8157 
X-54.3399 
X-54.5359 Y35.8547 
X-54.7204 Y35.9311 
X-54.8866 Y36.0421 
X-55.0279 Y36.1834 
X-55.1389 Y36.3495 
X-55.2153 Y36.5341 
X-55.2543 Y36.7301 
Y36.9299 
X-55.2153 Y37.1259 
X-55.1389 Y37.3105 
X-55.0279 Y37.4766 
X-54.8866 Y37.6179 
X-54.7886 Y37.6833 
X-56.9238 Y39.8185 
X-57.0395 Y39.7411 
X-57.2241 Y39.6647 
X-57.4201 Y39.6257 
X-59.4199 
X-59.6159 Y39.6647 
X-59.8004 Y39.7411 
X-59.9666 Y39.8521 
X-60.1079 Y39.9934 
X-60.2189 Y40.1595 
X-60.2953 Y40.3441 
X-60.3343 Y40.5401 
Y40.7399 
X-60.2953 Y40.9359 
X-60.2189 Y41.1204 
X-60.1079 Y41.2866 
X-59.9666 Y41.4279 
X-59.8004 Y41.5389 
X-59.6159 Y41.6153 
X-59.4199 Y41.6543 
X-57.4201 
X-57.2241 Y41.6153 
X-57.0395 Y41.5389 
X-56.8734 Y41.4279 
X-56.7321 Y41.2866 
X-56.6211 Y41.1204 
X-56.5447 Y40.9359 
X-56.5057 Y40.7399 
Y40.5401 
X-56.5447 Y40.3441 
X-56.6098 Y40.1870 
X-54.2670 Y37.8443 
X-52.3401 
X-52.1441 Y37.8053 
X-51.9595 Y37.7289 
X-51.7934 Y37.6179 
X-51.6521 Y37.4766 
X-51.5411 Y37.3105 
X-51.4647 Y37.1259 
X-51.4257 Y36.9299 
Y36.7301 
X-51.4647 Y36.5341 
X-51.5411 Y36.3495 
X-51.6521 Y36.1834 
X-51.7934 Y36.0421 
X-51.9595 Y35.9311 
X-52.1441 Y35.8547 
X-52.3401 Y35.8157 
X-53.0987 
Y35.3043 
X-52.3401 
X-52.1441 Y35.2653 
X-51.9595 Y35.1889 
X-51.7934 Y35.0779 
X-51.6521 Y34.9366 
X-51.5411 Y34.7704 
X-51.4647 Y34.5859 
X-51.4257 Y34.3899 
Y34.1901 
X-51.4647 Y33.9941 
X-51.5411 Y33.8095 
X-51.6521 Y33.6434 
X-51.7934 Y33.5021 
X-51.9595 Y33.3911 
X-52.0588 Y33.3500 
X-51.9700 Y33.2613 
X-46.9773 
Y62.7860 
X-46.9406 Y62.8747 
X-46.8727 Y62.9426 
X-46.3152 Y63.5000 
X-46.9406 Y64.1253 
X-46.9773 Y64.2140 
Y65.3260 
X-46.9406 Y65.4147 
X-46.1786 Y66.1767 
X-46.1107 Y66.2446 
X-46.0220 Y66.2813 
X-41.2562 
X-41.2453 Y66.3359 
X-41.1689 Y66.5204 
X-41.0827 Y66.6494 
X-43.2990 Y68.8658 
X-43.4501 Y68.8357 
X-45.4499 
X-45.6459 Y68.8747 
X-45.8304 Y68.9511 
X-45.9966 Y69.0621 
X-46.1379 Y69.2034 
X-46.2489 Y69.3695 
X-46.3253 Y69.5541 
X-46.3643 Y69.7501 
Y69.9499 
X-46.3253 Y70.1459 
X-46.2489 Y70.3304 
X-46.1379 Y70.4966 
X-45.9966 Y70.6379 
X-45.8304 Y70.7489 
X-45.6459 Y70.8253 
X-45.4499 Y70.8643 
X-43.4501 
X-43.2541 Y70.8253 
X-43.0695 Y70.7489 
X-42.9034 Y70.6379 
X-42.7621 Y70.4966 
X-42.6511 Y70.3304 
X-42.5747 Y70.1459 
X-42.5638 Y70.0913 
X-37.9460 
X-35.6967 Y72.3406 
X-35.6080 Y72.3773 
X-24.7379 
X-23.8633 Y73.2519 
Y75.9587 
X-24.0010 
X-24.0531 Y75.8330 
X-24.1379 Y75.7062 
X-24.2458 Y75.5982 
X-24.3726 Y75.5135 
X-24.5136 Y75.4551 
X-24.6633 Y75.4253 
X-26.1367 
X-26.2864 Y75.4551 
X-26.4274 Y75.5135 
X-26.5542 Y75.5982 
X-26.6621 Y75.7062 
X-26.7469 Y75.8330 
X-26.8053 Y75.9740 
X-26.8351 Y76.1237 
Y76.2763 
X-26.8053 Y76.4260 
X-26.7469 Y76.5670 
X-26.6621 Y76.6938 
X-26.5542 Y76.8017 
X-26.4274 Y76.8865 
X-26.2864 Y76.9449 
X-26.1367 Y76.9747 
X-24.6633 
X-24.5136 Y76.9449 
X-24.3726 Y76.8865 
X-24.2458 Y76.8017 
X-24.1379 Y76.6938 
X-24.0531 Y76.5670 
X-24.0010 Y76.4413 
X-20.9279 
X-19.5086 Y77.8607 
X-19.4407 Y77.9286 
X-19.3520 Y77.9653 
X-4.0250 
X-3.9827 Y78.0286 
X-3.8606 Y78.1507 
X-3.7171 Y78.2466 
X-3.5576 Y78.3126 
X-3.3883 Y78.3463 
X-1.6917 
X-1.5224 Y78.3126 
X-1.3629 Y78.2466 
X-1.2194 Y78.1507 
X-1.0973 Y78.0286 
X-1.0014 Y77.8851 
X-0.9354 Y77.7256 
X-0.9017 Y77.5563 
Y77.3837 
X-0.9354 Y77.2144 
X-1.0014 Y77.0549 
X-1.0973 Y76.9114 
X-1.2194 Y76.7893 
X-1.3629 Y76.6934 
X-1.5224 Y76.6274 
X-1.6917 Y76.5937 
X-3.3883 
X-3.5576 Y76.6274 
X-3.7171 Y76.6934 
X-3.8606 Y76.7893 
X-3.9827 Y76.9114 
X-4.0786 Y77.0549 
X-4.1446 Y77.2144 
X-4.1783 Y77.3837 
Y77.4827 
X-19.2040 
X-20.6913 Y75.9954 
X-20.7800 Y75.9587 
X-23.3807 
Y73.1040 
X-23.4174 Y73.0153 
X-23.4853 Y72.9474 
X-24.4334 Y71.9993 
X-24.5013 Y71.9314 
X-24.5900 Y71.8947 
X-26.5700 
X-27.5493 Y70.9154 
X-27.6380 Y70.8787 
X-27.8305 
Y70.5941 
X-27.8479 Y70.5521 
X-27.8801 Y70.5199 
X-27.9221 Y70.5025 
X-28.9739 
X-29.0159 Y70.5199 
X-29.0481 Y70.5521 
X-29.0655 Y70.5941 
Y71.6459 
X-29.0481 Y71.6879 
X-29.0159 Y71.7201 
X-28.9739 Y71.7375 
X-27.9221 
X-27.8801 Y71.7201 
X-27.8479 Y71.6879 
X-27.8305 Y71.6459 
Y71.3613 
X-27.7859 
X-27.2525 Y71.8947 
X-35.4600 
X-37.6414 Y69.7133 
X-37.7093 Y69.6454 
X-37.7980 Y69.6087 
X-42.5638 
X-42.5747 Y69.5541 
X-42.6511 Y69.3695 
X-42.7621 Y69.2034 
X-42.8582 Y69.1074 
X-40.7074 Y66.9567 
X-40.5659 Y67.0153 
X-40.3699 Y67.0543 
X-38.3701 
X-38.1741 Y67.0153 
X-37.9895 Y66.9389 
X-37.8234 Y66.8279 
X-37.6821 Y66.6866 
X-37.5711 Y66.5204 
X-37.4947 Y66.3359 
X-37.4557 Y66.1399 
Y65.9401 
X-37.4947 Y65.7441 
X-37.5711 Y65.5595 
X-37.6821 Y65.3934 
X-37.8234 Y65.2521 
X-37.9895 Y65.1411 
X-38.1741 Y65.0647 
X-38.3701 Y65.0257 
X-40.3699 
X-40.5659 Y65.0647 
X-40.7505 Y65.1411 
X-40.9166 Y65.2521 
X-41.0579 Y65.3934 
X-41.1689 Y65.5595 
X-41.2453 Y65.7441 
X-41.2562 Y65.7987 
X-45.8740 
X-46.4947 Y65.1780 
Y64.3619 
X-45.8740 Y63.7413 
X-41.2562 
X-41.2453 Y63.7959 
X-41.1689 Y63.9804 
X-41.0579 Y64.1466 
X-40.9166 Y64.2879 
X-40.7505 Y64.3989 
X-40.5659 Y64.4753 
X-40.3699 Y64.5143 
X-38.3701 
X-38.1741 Y64.4753 
X-37.9895 Y64.3989 
X-37.8234 Y64.2879 
X-37.6821 Y64.1466 
X-37.5711 Y63.9804 
X-37.4947 Y63.7959 
X-37.4557 Y63.5999 
Y63.4001 
X-37.4947 Y63.2041 
X-37.5711 Y63.0195 
X-37.6821 Y62.8534 
X-37.8234 Y62.7121 
X-37.9895 Y62.6011 
X-38.1741 Y62.5247 
X-38.3701 Y62.4857 
X-40.3699 
X-40.5659 Y62.5247 
X-40.7505 Y62.6011 
X-40.9166 Y62.7121 
X-41.0579 Y62.8534 
X-41.1689 Y63.0195 
X-41.2453 Y63.2041 
X-41.2562 Y63.2587 
X-45.8740 
X-46.4947 Y62.6380 
Y33.2613 
X-26.7990 
X-26.7469 Y33.3870 
X-26.6621 Y33.5138 
X-26.5542 Y33.6217 
X-26.4274 Y33.7065 
X-26.2864 Y33.7649 
X-26.1367 Y33.7947 
X-24.6633 
X-24.5136 Y33.7649 
X-24.3726 Y33.7065 
X-24.2458 Y33.6217 
X-24.1379 Y33.5138 
X-24.0531 Y33.3870 
X-23.9947 Y33.2460 
X-23.9649 Y33.0963 
Y32.9437 
X-23.9947 Y32.7940 
X-24.0531 Y32.6530 
X-24.1379 Y32.5262 
X-24.2458 Y32.4183 
X-24.3726 Y32.3335 
X-24.5136 Y32.2751 
X-24.6633 Y32.2453 
X-26.1367 
X-26.2864 Y32.2751 
X-26.4274 Y32.3335 
X-26.5542 Y32.4183 
X-26.6621 Y32.5262 
X-26.7469 Y32.6530 
X-26.7990 Y32.7787 
X-46.6360 
X-61.2267 Y18.1880 
Y8.7360 
X-59.8440 Y7.3533 
X-34.3899 
X-30.4673 Y11.2759 
Y11.9860 
X-30.4306 Y12.0747 
X-30.3627 Y12.1426 
X-21.9807 Y20.5246 
X-21.8920 Y20.5613 
X-18.7480 
X-18.6593 Y20.5246 
X-18.5914 Y20.4567 
X-17.8294 Y19.6947 
X-17.7927 Y19.6060 
Y16.7513 
X-13.6680 
X-13.5793 Y16.7146 
X-12.8173 Y15.9526 
X-12.7494 Y15.8847 
X-12.7127 Y15.7960 
Y14.6840 
X-12.7494 Y14.5953 
X-13.7914 Y13.5533 
X-13.6934 Y13.4879 
X-13.5521 Y13.3466 
X-13.4411 Y13.1805 
X-13.3647 Y12.9959 
X-13.3257 Y12.7999 
Y12.6001 
X-13.3647 Y12.4041 
X-13.4411 Y12.2195 
X-13.5521 Y12.0534 
X-13.6934 Y11.9121 
X-13.8595 Y11.8011 
X-14.0441 Y11.7247 
X-14.2401 Y11.6857 
X-14.9987 
Y11.1743 
X-14.2401 
X-14.0441 Y11.1353 
X-13.8595 Y11.0589 
X-13.6934 Y10.9479 
X-13.5521 Y10.8066 
X-13.4411 Y10.6404 
X-13.3647 Y10.4559 
X-13.3257 Y10.2599 
Y10.0601 
G00 Z2.5400 
G00 X-13.6934 Y5.8679 
G01 Z-0.1778 F254.00 
G01 X-13.5521 Y5.7266 F508.00 
G01 X-13.4411 Y5.5605 
X-13.3647 Y5.3759 
X-13.3257 Y5.1799 
Y4.9801 
X-13.3647 Y4.7841 
X-13.4411 Y4.5995 
X-13.5521 Y4.4334 
X-13.6934 Y4.2921 
X-13.8595 Y4.1811 
X-14.0441 Y4.1047 
X-14.2401 Y4.0657 
X-16.2399 
X-16.4359 Y4.1047 
X-16.6205 Y4.1811 
X-16.7866 Y4.2921 
X-16.9279 Y4.4334 
X-17.0389 Y4.5995 
X-17.1153 Y4.7841 
X-17.1543 Y4.9801 
Y5.1799 
X-17.1153 Y5.3759 
X-17.0389 Y5.5605 
X-16.9279 Y5.7266 
X-16.7866 Y5.8679 
X-16.6205 Y5.9789 
X-16.4359 Y6.0553 
X-16.2399 Y6.0943 
X-14.2401 
X-14.0441 Y6.0553 
X-13.8595 Y5.9789 
X-13.6934 Y5.8679 
G00 Z2.5400 
G00 X-18.6321 Y8.2434 
G01 Z-0.1778 F254.00 
G01 X-18.7734 Y8.1021 F508.00 
G01 X-18.9395 Y7.9911 
X-19.1241 Y7.9147 
X-19.3201 Y7.8757 
X-21.3199 
X-21.5159 Y7.9147 
X-21.7005 Y7.9911 
X-21.8666 Y8.1021 
X-22.0079 Y8.2434 
X-22.1189 Y8.4095 
X-22.1953 Y8.5941 
X-22.2062 Y8.6487 
X-22.7505 
Y8.3641 
X-22.7679 Y8.3221 
X-22.8001 Y8.2899 
X-22.8421 Y8.2725 
X-23.8939 
X-23.9359 Y8.2899 
X-23.9681 Y8.3221 
X-23.9855 Y8.3641 
Y9.4159 
X-23.9681 Y9.4579 
X-23.9359 Y9.4901 
X-23.8939 Y9.5075 
X-22.8421 
X-22.8001 Y9.4901 
X-22.7679 Y9.4579 
X-22.7505 Y9.4159 
Y9.1313 
X-22.2062 
X-22.1953 Y9.1859 
X-22.1189 Y9.3704 
X-22.0079 Y9.5366 
X-21.8666 Y9.6779 
X-21.7005 Y9.7889 
X-21.5159 Y9.8653 
X-21.3199 Y9.9043 
X-19.3201 
X-19.1241 Y9.8653 
X-18.9395 Y9.7889 
X-18.7734 Y9.6779 
X-18.6321 Y9.5366 
X-18.5211 Y9.3704 
X-18.4447 Y9.1859 
X-18.4057 Y8.9899 
Y8.7901 
X-18.4447 Y8.5941 
X-18.5211 Y8.4095 
X-18.6321 Y8.2434 
G00 Z2.5400 
G00 X-18.6321 Y10.7834 
G01 Z-0.1778 F254.00 
G01 X-18.7734 Y10.6421 F508.00 
G01 X-18.9395 Y10.5311 
X-19.1241 Y10.4547 
X-19.3201 Y10.4157 
X-21.3199 
X-21.5159 Y10.4547 
X-21.7005 Y10.5311 
X-21.8666 Y10.6421 
X-22.0079 Y10.7834 
X-22.1189 Y10.9495 
X-22.1953 Y11.1341 
X-22.2062 Y11.1887 
X-24.7825 
Y10.3961 
X-24.7999 Y10.3541 
X-24.8321 Y10.3219 
X-24.8741 Y10.3045 
X-25.9259 
X-25.9679 Y10.3219 
X-26.0001 Y10.3541 
X-26.0175 Y10.3961 
Y11.4479 
X-26.0001 Y11.4899 
X-25.9679 Y11.5221 
X-25.9259 Y11.5395 
X-25.1237 
X-25.0287 Y11.6346 
X-24.9400 Y11.6713 
X-22.2062 
X-22.1953 Y11.7259 
X-22.1189 Y11.9105 
X-22.0079 Y12.0766 
X-21.8666 Y12.2179 
X-21.7005 Y12.3289 
X-21.5159 Y12.4053 
X-21.3199 Y12.4443 
X-19.3201 
X-19.1241 Y12.4053 
X-18.9395 Y12.3289 
X-18.7734 Y12.2179 
X-18.6321 Y12.0766 
X-18.5211 Y11.9105 
X-18.4447 Y11.7259 
X-18.4057 Y11.5299 
Y11.3301 
X-18.4447 Y11.1341 
X-18.5211 Y10.9495 
X-18.6321 Y10.7834 
G00 Z2.5400 
G00 X-18.6321 Y18.4034 
G01 Z-0.1778 F254.00 
G01 X-18.7734 Y18.2621 F508.00 
G01 X-18.9395 Y18.1511 
X-19.1241 Y18.0747 
X-19.3201 Y18.0357 
X-21.3199 
X-21.4710 Y18.0658 
X-35.5617 Y3.9751 
X-35.4837 
X-35.3340 Y3.9453 
X-35.1930 Y3.8869 
X-35.0662 Y3.8021 
X-34.9582 Y3.6942 
X-34.8735 Y3.5674 
X-34.8151 Y3.4264 
X-34.7853 Y3.2767 
Y2.7813 
X-32.5247 
Y3.2767 
X-32.4949 Y3.4264 
X-32.4365 Y3.5674 
X-32.3517 Y3.6942 
X-32.2438 Y3.8021 
X-32.1170 Y3.8869 
X-31.9760 Y3.9453 
X-31.8263 Y3.9751 
X-31.6737 
X-31.5240 Y3.9453 
X-31.3830 Y3.8869 
X-31.2562 Y3.8021 
X-31.1483 Y3.6942 
X-31.0635 Y3.5674 
X-31.0051 Y3.4264 
X-30.9753 Y3.2767 
Y1.8033 
X-31.0051 Y1.6536 
X-31.0635 Y1.5126 
X-31.1483 Y1.3858 
X-31.2562 Y1.2778 
X-31.3830 Y1.1931 
X-31.5240 Y1.1347 
X-31.6737 Y1.1049 
X-31.8263 
X-31.9760 Y1.1347 
X-32.1170 Y1.1931 
X-32.2438 Y1.2778 
X-32.3517 Y1.3858 
X-32.4365 Y1.5126 
X-32.4949 Y1.6536 
X-32.5247 Y1.8033 
Y2.2987 
X-34.7853 
Y1.8033 
X-34.8151 Y1.6536 
X-34.8735 Y1.5126 
X-34.9582 Y1.3858 
X-35.0662 Y1.2778 
X-35.1930 Y1.1931 
X-35.3340 Y1.1347 
X-35.4837 Y1.1049 
X-35.6363 
X-35.7860 Y1.1347 
X-35.9270 Y1.1931 
X-36.0538 Y1.2778 
X-36.1617 Y1.3858 
X-36.2465 Y1.5126 
X-36.3049 Y1.6536 
X-36.3347 Y1.8033 
Y2.2987 
X-38.5953 
Y1.8033 
X-38.6251 Y1.6536 
X-38.6835 Y1.5126 
X-38.7683 Y1.3858 
X-38.8762 Y1.2778 
X-39.0030 Y1.1931 
X-39.1440 Y1.1347 
X-39.2937 Y1.1049 
X-39.4463 
X-39.5960 Y1.1347 
X-39.7370 Y1.1931 
X-39.8638 Y1.2778 
X-39.9717 Y1.3858 
X-40.0565 Y1.5126 
X-40.1149 Y1.6536 
X-40.1447 Y1.8033 
Y2.2987 
X-42.4053 
Y1.8033 
X-42.4351 Y1.6536 
X-42.4935 Y1.5126 
X-42.5782 Y1.3858 
X-42.6862 Y1.2778 
X-42.8130 Y1.1931 
X-42.9540 Y1.1347 
X-43.1037 Y1.1049 
X-43.2563 
X-43.4060 Y1.1347 
X-43.5470 Y1.1931 
X-43.6738 Y1.2778 
X-43.7817 Y1.3858 
X-43.8665 Y1.5126 
X-43.9249 Y1.6536 
X-43.9547 Y1.8033 
Y2.2987 
X-56.1820 
X-56.2707 Y2.3354 
X-56.3386 Y2.4033 
X-75.1346 Y21.1993 
X-75.1713 Y21.2880 
Y25.2710 
X-75.2970 Y25.3231 
X-75.4238 Y25.4078 
X-75.5317 Y25.5158 
X-75.6165 Y25.6426 
X-75.6749 Y25.7836 
X-75.7047 Y25.9333 
Y26.4287 
X-77.9653 
Y25.9333 
X-77.9951 Y25.7836 
X-78.0535 Y25.6426 
X-78.1382 Y25.5158 
X-78.2462 Y25.4078 
X-78.3730 Y25.3231 
X-78.5140 Y25.2647 
X-78.6637 Y25.2349 
X-78.8163 
X-78.9660 Y25.2647 
X-79.1070 Y25.3231 
X-79.2338 Y25.4078 
X-79.3417 Y25.5158 
X-79.4265 Y25.6426 
X-79.4849 Y25.7836 
X-79.5147 Y25.9333 
Y26.4287 
X-81.7753 
Y25.9333 
X-81.8051 Y25.7836 
X-81.8635 Y25.6426 
X-81.9483 Y25.5158 
X-82.0562 Y25.4078 
X-82.1830 Y25.3231 
X-82.3240 Y25.2647 
X-82.4737 Y25.2349 
X-82.6263 
X-82.7760 Y25.2647 
X-82.9170 Y25.3231 
X-83.0438 Y25.4078 
X-83.1517 Y25.5158 
X-83.2365 Y25.6426 
X-83.2949 Y25.7836 
X-83.3247 Y25.9333 
Y26.4287 
X-85.5853 
Y25.9333 
X-85.6151 Y25.7836 
X-85.6735 Y25.6426 
X-85.7583 Y25.5158 
X-85.8662 Y25.4078 
X-85.9930 Y25.3231 
X-86.1340 Y25.2647 
X-86.2837 Y25.2349 
X-86.4363 
X-86.5860 Y25.2647 
X-86.7270 Y25.3231 
X-86.8538 Y25.4078 
X-86.9617 Y25.5158 
X-87.0465 Y25.6426 
X-87.1049 Y25.7836 
X-87.1347 Y25.9333 
Y26.4287 
X-88.9480 
X-89.0367 Y26.4654 
X-89.1046 Y26.5333 
X-97.4866 Y34.9153 
X-97.5233 Y35.0040 
Y43.7360 
X-97.4866 Y43.8247 
X-97.4187 Y43.8926 
X-79.0812 Y62.2300 
X-79.7066 Y62.8553 
X-79.7433 Y62.9440 
Y63.1460 
X-91.5550 Y74.9577 
Y74.9507 
X-91.6098 Y74.7853 
X-91.6888 Y74.6303 
X-91.7910 Y74.4896 
X-91.9140 Y74.3666 
X-92.0547 Y74.2644 
X-92.2097 Y74.1855 
X-92.3751 Y74.1317 
X-92.5468 Y74.1045 
X-92.7208 
X-92.8925 Y74.1317 
X-93.0579 Y74.1855 
X-93.2129 Y74.2644 
X-93.3536 Y74.3666 
X-93.4766 Y74.4896 
X-93.5788 Y74.6303 
X-93.6577 Y74.7853 
X-93.7115 Y74.9507 
X-93.7387 Y75.1224 
Y77.2776 
X-93.7115 Y77.4493 
X-93.6577 Y77.6147 
X-93.5788 Y77.7697 
X-93.4766 Y77.9104 
X-93.3536 Y78.0334 
X-93.2129 Y78.1356 
X-93.0579 Y78.2145 
X-92.8925 Y78.2683 
X-92.7208 Y78.2955 
X-92.5468 
X-92.3751 Y78.2683 
X-92.2097 Y78.2145 
X-92.0547 Y78.1356 
X-91.9140 Y78.0334 
X-91.7910 Y77.9104 
X-91.6888 Y77.7697 
X-91.6098 Y77.6147 
X-91.5561 Y77.4493 
X-91.5289 Y77.2776 
Y75.6141 
X-79.3653 Y63.4506 
X-79.2974 Y63.3827 
X-79.2607 Y63.2940 
Y63.0919 
X-78.5354 Y62.3667 
X-77.6240 Y61.4553 
X-56.3753 
Y61.7700 
X-56.3386 Y61.8587 
X-56.2707 Y61.9266 
X-46.2602 Y71.9370 
X-46.3253 Y72.0941 
X-46.3643 Y72.2901 
Y72.4899 
X-46.3253 Y72.6859 
X-46.2489 Y72.8705 
X-46.1379 Y73.0366 
X-45.9966 Y73.1779 
X-45.8304 Y73.2889 
X-45.6459 Y73.3653 
X-45.4499 Y73.4043 
X-43.4501 
X-43.2541 Y73.3653 
X-43.0695 Y73.2889 
X-42.9034 Y73.1779 
X-42.7621 Y73.0366 
X-42.6511 Y72.8705 
X-42.5747 Y72.6859 
X-42.5357 Y72.4899 
Y72.2901 
X-42.5747 Y72.0941 
X-42.6511 Y71.9095 
X-42.7621 Y71.7434 
X-42.9034 Y71.6021 
X-43.0695 Y71.4911 
X-43.2541 Y71.4147 
X-43.4501 Y71.3757 
X-45.4499 
X-45.6459 Y71.4147 
X-45.8304 Y71.4911 
X-45.9462 Y71.5685 
X-55.8927 Y61.6220 
Y45.1640 
X-55.9294 Y45.0753 
X-56.9714 Y44.0333 
X-56.8734 Y43.9679 
X-56.7321 Y43.8266 
X-56.6211 Y43.6604 
X-56.5447 Y43.4759 
X-56.5057 Y43.2799 
Y43.0801 
X-56.5447 Y42.8841 
X-56.6211 Y42.6995 
X-56.7321 Y42.5334 
X-56.8734 Y42.3921 
X-57.0395 Y42.2811 
X-57.2241 Y42.2047 
X-57.4201 Y42.1657 
X-59.4199 
X-59.6159 Y42.2047 
X-59.8004 Y42.2811 
X-59.9666 Y42.3921 
X-60.1079 Y42.5334 
X-60.2189 Y42.6995 
X-60.2953 Y42.8841 
X-60.3343 Y43.0801 
Y43.2799 
X-60.2953 Y43.4759 
X-60.2189 Y43.6604 
X-60.1079 Y43.8266 
X-60.0118 Y43.9226 
X-69.0753 Y52.9861 
Y52.6033 
X-69.1051 Y52.4536 
X-69.1635 Y52.3126 
X-69.2482 Y52.1858 
X-69.3562 Y52.0778 
X-69.4830 Y51.9931 
X-69.6240 Y51.9347 
X-69.7737 Y51.9049 
X-69.9263 
X-70.0760 Y51.9347 
X-70.2170 Y51.9931 
X-70.3438 Y52.0778 
X-70.4517 Y52.1858 
X-70.5365 Y52.3126 
X-70.5949 Y52.4536 
X-70.6247 Y52.6033 
Y54.0767 
X-70.5949 Y54.2264 
X-70.5365 Y54.3674 
X-70.4517 Y54.4942 
X-70.3438 Y54.6021 
X-70.2170 Y54.6869 
X-70.0760 Y54.7453 
X-69.9263 Y54.7751 
X-69.7737 
X-69.6240 Y54.7453 
X-69.4830 Y54.6869 
X-69.3562 Y54.6021 
X-69.2482 Y54.4942 
X-69.1635 Y54.3674 
X-69.1051 Y54.2264 
X-69.0753 Y54.0767 
Y53.5813 
X-66.8147 
Y54.0767 
X-66.7849 Y54.2264 
X-66.7265 Y54.3674 
X-66.6417 Y54.4942 
X-66.5338 Y54.6021 
X-66.4070 Y54.6869 
X-66.2660 Y54.7453 
X-66.1163 Y54.7751 
X-65.9637 
X-65.8140 Y54.7453 
X-65.6730 Y54.6869 
X-65.5462 Y54.6021 
X-65.4382 Y54.4942 
X-65.3535 Y54.3674 
X-65.2951 Y54.2264 
X-65.2653 Y54.0767 
Y53.5813 
X-63.0047 
Y54.0767 
X-62.9749 Y54.2264 
X-62.9165 Y54.3674 
X-62.8317 Y54.4942 
X-62.7238 Y54.6021 
X-62.5970 Y54.6869 
X-62.4560 Y54.7453 
X-62.3063 Y54.7751 
X-62.1537 
X-62.0040 Y54.7453 
X-61.8630 Y54.6869 
X-61.7362 Y54.6021 
X-61.6283 Y54.4942 
X-61.5435 Y54.3674 
X-61.4851 Y54.2264 
X-61.4553 Y54.0767 
Y53.5813 
X-59.1947 
Y54.0767 
X-59.1649 Y54.2264 
X-59.1065 Y54.3674 
X-59.0217 Y54.4942 
X-58.9138 Y54.6021 
X-58.7870 Y54.6869 
X-58.6460 Y54.7453 
X-58.4963 Y54.7751 
X-58.3437 
X-58.1940 Y54.7453 
X-58.0530 Y54.6869 
X-57.9262 Y54.6021 
X-57.8182 Y54.4942 
X-57.7335 Y54.3674 
X-57.6751 Y54.2264 
X-57.6453 Y54.0767 
Y52.6033 
X-57.6751 Y52.4536 
X-57.7335 Y52.3126 
X-57.8182 Y52.1858 
X-57.9262 Y52.0778 
X-58.0530 Y51.9931 
X-58.1940 Y51.9347 
X-58.3437 Y51.9049 
X-58.4963 
X-58.6460 Y51.9347 
X-58.7870 Y51.9931 
X-58.9138 Y52.0778 
X-59.0217 Y52.1858 
X-59.1065 Y52.3126 
X-59.1649 Y52.4536 
X-59.1947 Y52.6033 
Y53.0987 
X-61.4553 
Y52.6033 
X-61.4851 Y52.4536 
X-61.5435 Y52.3126 
X-61.6283 Y52.1858 
X-61.7362 Y52.0778 
X-61.8630 Y51.9931 
X-62.0040 Y51.9347 
X-62.1537 Y51.9049 
X-62.3063 
X-62.4560 Y51.9347 
X-62.5970 Y51.9931 
X-62.7238 Y52.0778 
X-62.8317 Y52.1858 
X-62.9165 Y52.3126 
X-62.9749 Y52.4536 
X-63.0047 Y52.6033 
Y53.0987 
X-65.2653 
Y52.6033 
X-65.2951 Y52.4536 
X-65.3535 Y52.3126 
X-65.4382 Y52.1858 
X-65.5462 Y52.0778 
X-65.6730 Y51.9931 
X-65.8140 Y51.9347 
X-65.9637 Y51.9049 
X-66.1163 
X-66.2660 Y51.9347 
X-66.4070 Y51.9931 
X-66.5338 Y52.0778 
X-66.6417 Y52.1858 
X-66.7265 Y52.3126 
X-66.7849 Y52.4536 
X-66.8147 Y52.6033 
Y53.0987 
X-68.5055 
X-59.5710 Y44.1642 
X-59.4199 Y44.1943 
X-57.4930 
X-56.3753 Y45.3120 
Y60.9727 
X-77.7720 
X-77.8607 Y61.0094 
X-77.9286 Y61.0773 
X-78.7400 Y61.8888 
X-97.0407 Y43.5880 
Y35.1519 
X-88.8000 Y26.9113 
X-87.1347 
Y27.4067 
X-87.1049 Y27.5564 
X-87.0465 Y27.6974 
X-86.9617 Y27.8242 
X-86.8538 Y27.9321 
X-86.7270 Y28.0169 
X-86.5860 Y28.0753 
X-86.4363 Y28.1051 
X-86.2837 
X-86.1340 Y28.0753 
X-85.9930 Y28.0169 
X-85.8662 Y27.9321 
X-85.7583 Y27.8242 
X-85.6735 Y27.6974 
X-85.6151 Y27.5564 
X-85.5853 Y27.4067 
Y26.9113 
X-83.3247 
Y27.4067 
X-83.2949 Y27.5564 
X-83.2365 Y27.6974 
X-83.1517 Y27.8242 
X-83.0438 Y27.9321 
X-82.9170 Y28.0169 
X-82.7760 Y28.0753 
X-82.6263 Y28.1051 
X-82.4737 
X-82.3240 Y28.0753 
X-82.1830 Y28.0169 
X-82.0562 Y27.9321 
X-81.9483 Y27.8242 
X-81.8635 Y27.6974 
X-81.8051 Y27.5564 
X-81.7753 Y27.4067 
Y26.9113 
X-79.5147 
Y27.4067 
X-79.4849 Y27.5564 
X-79.4265 Y27.6974 
X-79.3417 Y27.8242 
X-79.2338 Y27.9321 
X-79.1070 Y28.0169 
X-78.9660 Y28.0753 
X-78.8163 Y28.1051 
X-78.6637 
X-78.5140 Y28.0753 
X-78.3730 Y28.0169 
X-78.2462 Y27.9321 
X-78.1382 Y27.8242 
X-78.0535 Y27.6974 
X-77.9951 Y27.5564 
X-77.9653 Y27.4067 
Y26.9113 
X-75.7047 
Y27.4067 
X-75.6749 Y27.5564 
X-75.6165 Y27.6974 
X-75.5317 Y27.8242 
X-75.4238 Y27.9321 
X-75.2970 Y28.0169 
X-75.1560 Y28.0753 
X-75.0063 Y28.1051 
X-74.8537 
X-74.7040 Y28.0753 
X-74.5630 Y28.0169 
X-74.4362 Y27.9321 
X-74.3282 Y27.8242 
X-74.2435 Y27.6974 
X-74.1851 Y27.5564 
X-74.1553 Y27.4067 
Y25.9333 
X-74.1851 Y25.7836 
X-74.2435 Y25.6426 
X-74.3282 Y25.5158 
X-74.4362 Y25.4078 
X-74.5630 Y25.3231 
X-74.6887 Y25.2710 
Y21.4359 
X-56.0340 Y2.7813 
X-43.9547 
Y3.2767 
X-43.9249 Y3.4264 
X-43.8665 Y3.5674 
X-43.7817 Y3.6942 
X-43.6738 Y3.8021 
X-43.5470 Y3.8869 
X-43.4060 Y3.9453 
X-43.2563 Y3.9751 
X-43.1037 
X-42.9540 Y3.9453 
X-42.8130 Y3.8869 
X-42.6862 Y3.8021 
X-42.5782 Y3.6942 
X-42.4935 Y3.5674 
X-42.4351 Y3.4264 
X-42.4053 Y3.2767 
Y2.7813 
X-40.1447 
Y3.2767 
X-40.1149 Y3.4264 
X-40.0565 Y3.5674 
X-39.9717 Y3.6942 
X-39.8638 Y3.8021 
X-39.7370 Y3.8869 
X-39.5960 Y3.9453 
X-39.4463 Y3.9751 
X-39.2937 
X-39.1440 Y3.9453 
X-39.0030 Y3.8869 
X-38.8762 Y3.8021 
X-38.7683 Y3.6942 
X-38.6835 Y3.5674 
X-38.6251 Y3.4264 
X-38.5953 Y3.2767 
Y2.7813 
X-37.4380 
X-21.9118 Y18.3074 
X-22.0079 Y18.4034 
X-22.1189 Y18.5695 
X-22.1953 Y18.7541 
X-22.2343 Y18.9501 
Y19.1499 
X-22.1953 Y19.3459 
X-22.1189 Y19.5304 
X-22.0079 Y19.6966 
X-21.8666 Y19.8379 
X-21.7005 Y19.9489 
X-21.5159 Y20.0253 
X-21.3199 Y20.0643 
X-19.3201 
X-19.1241 Y20.0253 
X-18.9395 Y19.9489 
X-18.7734 Y19.8379 
X-18.6321 Y19.6966 
X-18.5211 Y19.5304 
X-18.4447 Y19.3459 
X-18.4057 Y19.1499 
Y18.9501 
X-18.4447 Y18.7541 
X-18.5211 Y18.5695 
X-18.6321 Y18.4034 
G00 Z2.5400 
G00 X-16.9279 Y18.4266 
G01 Z-0.1778 F254.00 
G01 X-16.7866 Y18.5679 F508.00 
G01 X-16.6205 Y18.6789 
X-16.4359 Y18.7553 
X-16.2399 Y18.7943 
X-14.2401 
X-14.0441 Y18.7553 
X-13.8595 Y18.6789 
X-13.6934 Y18.5679 
X-13.5521 Y18.4266 
X-13.4411 Y18.2604 
X-13.4065 Y18.1768 
X-11.6713 Y19.9120 
Y22.2425 
X-11.9559 
X-11.9979 Y22.2599 
X-12.0301 Y22.2921 
X-12.0475 Y22.3341 
Y23.3859 
X-12.0301 Y23.4279 
X-11.9979 Y23.4601 
X-11.9559 Y23.4775 
X-10.9041 
X-10.8621 Y23.4601 
X-10.8299 Y23.4279 
X-10.8125 Y23.3859 
Y22.3341 
X-10.8299 Y22.2921 
X-10.8621 Y22.2599 
X-10.9041 Y22.2425 
X-11.1887 
Y19.7640 
X-11.2254 Y19.6753 
X-11.2933 Y19.6074 
X-13.3253 Y17.5754 
X-13.3484 Y17.5659 
X-13.3647 Y17.4841 
X-13.4411 Y17.2995 
X-13.5521 Y17.1334 
X-13.6934 Y16.9921 
X-13.8595 Y16.8811 
X-14.0441 Y16.8047 
X-14.2401 Y16.7657 
X-16.2399 
X-16.4359 Y16.8047 
X-16.6205 Y16.8811 
X-16.7866 Y16.9921 
X-16.9279 Y17.1334 
X-17.0389 Y17.2995 
X-17.1153 Y17.4841 
X-17.1543 Y17.6801 
Y17.8799 
X-17.1153 Y18.0759 
X-17.0389 Y18.2604 
X-16.9279 Y18.4266 
G00 Z2.5400 
G00 X-16.9007 Y18.8454 
G01 Z-0.1778 F254.00 
G01 X-16.9686 Y18.9133 F508.00 
G01 X-18.8238 Y20.7685 
X-18.9395 Y20.6911 
X-19.1241 Y20.6147 
X-19.3201 Y20.5757 
X-21.3199 
X-21.5159 Y20.6147 
X-21.7005 Y20.6911 
X-21.8666 Y20.8021 
X-22.0079 Y20.9434 
X-22.1189 Y21.1095 
X-22.1953 Y21.2941 
X-22.2343 Y21.4901 
Y21.6899 
X-22.1953 Y21.8859 
X-22.1189 Y22.0705 
X-22.0079 Y22.2366 
X-21.8666 Y22.3779 
X-21.7005 Y22.4889 
X-21.5159 Y22.5653 
X-21.3199 Y22.6043 
X-19.3201 
X-19.1241 Y22.5653 
X-18.9395 Y22.4889 
X-18.7734 Y22.3779 
X-18.6321 Y22.2366 
X-18.5211 Y22.0705 
X-18.4447 Y21.8859 
X-18.4057 Y21.6899 
Y21.4901 
X-18.4447 Y21.2941 
X-18.5098 Y21.1370 
X-16.6640 Y19.2913 
X-13.8160 
X-13.1953 Y19.9120 
Y20.7280 
X-13.8160 Y21.3487 
X-16.8120 
X-16.9007 Y21.3854 
X-18.6420 Y23.1267 
X-24.7920 
X-30.9753 Y16.9434 
Y15.7733 
X-31.0051 Y15.6236 
X-31.0635 Y15.4826 
X-31.1483 Y15.3558 
X-31.2562 Y15.2478 
X-31.3830 Y15.1631 
X-31.5087 Y15.1110 
Y14.0990 
X-31.3830 Y14.0469 
X-31.2562 Y13.9621 
X-31.1483 Y13.8542 
X-31.0635 Y13.7274 
X-31.0051 Y13.5864 
X-30.9753 Y13.4367 
Y11.9633 
X-31.0051 Y11.8136 
X-31.0635 Y11.6726 
X-31.1483 Y11.5458 
X-31.2562 Y11.4378 
X-31.3830 Y11.3531 
X-31.5240 Y11.2947 
X-31.6737 Y11.2649 
X-31.8263 
X-31.9760 Y11.2947 
X-32.1170 Y11.3531 
X-32.2438 Y11.4378 
X-32.3517 Y11.5458 
X-32.4365 Y11.6726 
X-32.4949 Y11.8136 
X-32.5247 Y11.9633 
Y13.4367 
X-32.4949 Y13.5864 
X-32.4365 Y13.7274 
X-32.3517 Y13.8542 
X-32.2438 Y13.9621 
X-32.1170 Y14.0469 
X-31.9913 Y14.0990 
Y15.1110 
X-32.1170 Y15.1631 
X-32.2438 Y15.2478 
X-32.3517 Y15.3558 
X-32.4365 Y15.4826 
X-32.4949 Y15.6236 
X-32.5247 Y15.7733 
Y16.9434 
X-33.6279 Y18.0467 
X-43.5880 
X-45.3293 Y16.3054 
X-45.4180 Y16.2687 
X-56.8125 
X-56.8154 Y16.2544 
X-56.8814 Y16.0949 
X-56.9773 Y15.9514 
X-57.0994 Y15.8293 
X-57.2429 Y15.7334 
X-57.4024 Y15.6674 
X-57.5717 Y15.6337 
X-59.2683 
X-59.4376 Y15.6674 
X-59.5971 Y15.7334 
X-59.7406 Y15.8293 
X-59.8627 Y15.9514 
X-59.9586 Y16.0949 
X-60.0246 Y16.2544 
X-60.0583 Y16.4237 
Y16.5963 
X-60.0246 Y16.7656 
X-59.9586 Y16.9251 
X-59.8627 Y17.0686 
X-59.7406 Y17.1907 
X-59.5971 Y17.2866 
X-59.4376 Y17.3526 
X-59.2683 Y17.3863 
X-57.5717 
X-57.4024 Y17.3526 
X-57.2429 Y17.2866 
X-57.0994 Y17.1907 
X-56.9773 Y17.0686 
X-56.8814 Y16.9251 
X-56.8154 Y16.7656 
X-56.8125 Y16.7513 
X-45.5660 
X-43.8926 Y18.4247 
X-43.8247 Y18.4926 
X-43.7360 Y18.5293 
X-33.4800 
X-33.3913 Y18.4926 
X-32.4364 Y17.5376 
X-32.3517 Y17.6642 
X-32.2438 Y17.7721 
X-32.1170 Y17.8569 
X-31.9760 Y17.9153 
X-31.8263 Y17.9451 
X-31.6737 
X-31.5240 Y17.9153 
X-31.3830 Y17.8569 
X-31.2562 Y17.7721 
X-31.1483 Y17.6642 
X-31.0636 Y17.5376 
X-25.0287 Y23.5726 
X-24.9400 Y23.6093 
X-18.4940 
X-18.4053 Y23.5726 
X-18.3374 Y23.5047 
X-16.6640 Y21.8313 
X-13.6680 
X-13.5793 Y21.7946 
X-13.5114 Y21.7267 
X-12.7494 Y20.9647 
X-12.7127 Y20.8760 
Y19.7640 
X-12.7494 Y19.6753 
X-12.8173 Y19.6074 
X-13.5793 Y18.8454 
X-13.6680 Y18.8087 
X-16.8120 
X-16.9007 Y18.8454 
G00 Z2.5400 
G00 X-16.7866 Y19.5321 
G01 Z-0.1778 F254.00 
G01 X-16.9279 Y19.6734 F508.00 
G01 X-17.0389 Y19.8395 
X-17.1153 Y20.0241 
X-17.1543 Y20.2201 
Y20.4199 
X-17.1153 Y20.6159 
X-17.0502 Y20.7730 
X-18.8959 Y22.6187 
X-21.7440 
X-30.4927 Y13.8700 
Y11.3820 
X-30.5294 Y11.2933 
X-31.1053 Y10.7174 
X-31.1940 Y10.6807 
X-37.2380 
X-40.5033 Y7.4154 
X-40.5920 Y7.3787 
X-59.7380 
X-59.8267 Y7.4154 
X-59.8946 Y7.4833 
X-61.1646 Y8.7533 
X-61.2013 Y8.8420 
Y12.2400 
X-61.1646 Y12.3287 
X-61.0967 Y12.3966 
X-59.9505 Y13.5428 
X-59.9586 Y13.5549 
X-60.0246 Y13.7144 
X-60.0583 Y13.8837 
Y14.0563 
X-60.0246 Y14.2256 
X-59.9586 Y14.3851 
X-59.8627 Y14.5286 
X-59.7406 Y14.6507 
X-59.5971 Y14.7466 
X-59.4376 Y14.8126 
X-59.2683 Y14.8463 
X-57.5717 
X-57.4024 Y14.8126 
X-57.2429 Y14.7466 
X-57.0994 Y14.6507 
X-56.9773 Y14.5286 
X-56.8814 Y14.3851 
X-56.8154 Y14.2256 
X-56.7817 Y14.0563 
Y13.8837 
X-56.8154 Y13.7144 
X-56.8814 Y13.5549 
X-56.9773 Y13.4114 
X-57.0994 Y13.2893 
X-57.2429 Y13.1934 
X-57.4024 Y13.1274 
X-57.5717 Y13.0937 
X-59.2683 
X-59.4376 Y13.1274 
X-59.5971 Y13.1934 
X-59.6092 Y13.2015 
X-60.7187 Y12.0920 
Y8.9900 
X-59.5900 Y7.8613 
X-40.7400 
X-37.4747 Y11.1266 
X-36.3347 Y12.2666 
Y13.4367 
X-36.3049 Y13.5864 
X-36.2465 Y13.7274 
X-36.1617 Y13.8542 
X-36.0538 Y13.9621 
X-35.9270 Y14.0469 
X-35.8013 Y14.0990 
Y15.1110 
X-35.9270 Y15.1631 
X-36.0538 Y15.2478 
X-36.1617 Y15.3558 
X-36.2465 Y15.4826 
X-36.3049 Y15.6236 
X-36.3347 Y15.7733 
Y17.2467 
X-36.3049 Y17.3964 
X-36.2465 Y17.5374 
X-36.1617 Y17.6642 
X-36.0538 Y17.7721 
X-35.9270 Y17.8569 
X-35.7860 Y17.9153 
X-35.6363 Y17.9451 
X-35.4837 
X-35.3340 Y17.9153 
X-35.1930 Y17.8569 
X-35.0662 Y17.7721 
X-34.9582 Y17.6642 
X-34.8735 Y17.5374 
X-34.8151 Y17.3964 
X-34.7853 Y17.2467 
Y15.7733 
X-34.8151 Y15.6236 
X-34.8735 Y15.4826 
X-34.9582 Y15.3558 
X-35.0662 Y15.2478 
X-35.1930 Y15.1631 
X-35.3187 Y15.1110 
Y14.0990 
X-35.1930 Y14.0469 
X-35.0662 Y13.9621 
X-34.9582 Y13.8542 
X-34.8735 Y13.7274 
X-34.8151 Y13.5864 
X-34.7853 Y13.4367 
Y11.9633 
X-34.8151 Y11.8136 
X-34.8735 Y11.6726 
X-34.9582 Y11.5458 
X-35.0662 Y11.4378 
X-35.1930 Y11.3531 
X-35.3340 Y11.2947 
X-35.4837 Y11.2649 
X-35.6363 
X-35.7860 Y11.2947 
X-35.9270 Y11.3531 
X-36.0538 Y11.4378 
X-36.1617 Y11.5458 
X-36.2464 Y11.6724 
X-36.7555 Y11.1633 
X-31.3420 
X-30.9753 Y11.5299 
Y14.0180 
X-30.9386 Y14.1067 
X-30.8707 Y14.1746 
X-21.9807 Y23.0646 
X-21.8920 Y23.1013 
X-18.7480 
X-18.6593 Y23.0646 
X-18.5914 Y22.9967 
X-16.7362 Y21.1415 
X-16.6205 Y21.2189 
X-16.4359 Y21.2953 
X-16.2399 Y21.3343 
X-14.2401 
X-14.0441 Y21.2953 
X-13.8595 Y21.2189 
X-13.6934 Y21.1079 
X-13.5521 Y20.9666 
X-13.4411 Y20.8005 
X-13.3647 Y20.6159 
X-13.3257 Y20.4199 
Y20.2201 
X-13.3647 Y20.0241 
X-13.4411 Y19.8395 
X-13.5521 Y19.6734 
X-13.6934 Y19.5321 
X-13.8595 Y19.4211 
X-14.0441 Y19.3447 
X-14.2401 Y19.3057 
X-16.2399 
X-16.4359 Y19.3447 
X-16.6205 Y19.4211 
X-16.7866 Y19.5321 
G00 Z2.5400 
G00 X-16.7866 Y22.0721 
G01 Z-0.1778 F254.00 
G01 X-16.9279 Y22.2134 F508.00 
G01 X-17.0389 Y22.3795 
X-17.1153 Y22.5641 
X-17.1543 Y22.7601 
Y22.9599 
X-17.1153 Y23.1559 
X-17.0389 Y23.3405 
X-16.9279 Y23.5066 
X-16.7866 Y23.6479 
X-16.6205 Y23.7589 
X-16.4359 Y23.8353 
X-16.2399 Y23.8743 
X-14.2401 
X-14.0441 Y23.8353 
X-13.8595 Y23.7589 
X-13.6934 Y23.6479 
X-13.5521 Y23.5066 
X-13.4411 Y23.3405 
X-13.3647 Y23.1559 
X-13.3257 Y22.9599 
Y22.7601 
X-13.3647 Y22.5641 
X-13.4411 Y22.3795 
X-13.5521 Y22.2134 
X-13.6934 Y22.0721 
X-13.8595 Y21.9611 
X-14.0441 Y21.8847 
X-14.2401 Y21.8457 
X-16.2399 
X-16.4359 Y21.8847 
X-16.6205 Y21.9611 
X-16.7866 Y22.0721 
G00 Z2.5400 
G00 X-16.7774 Y27.1907 
G01 Z-0.1778 F254.00 
G01 X-22.7505 Y27.1907 F508.00 
G01 X-22.7505 Y26.9061 
X-22.7679 Y26.8641 
X-22.8001 Y26.8319 
X-22.8421 Y26.8145 
X-23.8939 
X-23.9359 Y26.8319 
X-23.9681 Y26.8641 
X-23.9855 Y26.9061 
Y27.9579 
X-23.9681 Y27.9999 
X-23.9359 Y28.0321 
X-23.8939 Y28.0495 
X-22.8421 
X-22.8001 Y28.0321 
X-22.7679 Y27.9999 
X-22.7505 Y27.9579 
Y27.6733 
X-16.8486 
X-15.7353 Y28.5640 
Y41.5560 
X-16.7047 Y42.5255 
X-16.7526 Y42.4935 
X-16.8936 Y42.4351 
X-17.0433 Y42.4053 
X-18.5167 
X-18.6664 Y42.4351 
X-18.8074 Y42.4935 
X-18.9342 Y42.5782 
X-19.0421 Y42.6862 
X-19.1269 Y42.8130 
X-19.1853 Y42.9540 
X-19.2151 Y43.1037 
Y43.2563 
X-19.1853 Y43.4060 
X-19.1269 Y43.5470 
X-19.0421 Y43.6738 
X-18.9342 Y43.7817 
X-18.8074 Y43.8665 
X-18.6664 Y43.9249 
X-18.5167 Y43.9547 
X-17.0433 
X-16.8936 Y43.9249 
X-16.7526 Y43.8665 
X-16.6258 Y43.7817 
X-16.5178 Y43.6738 
X-16.4331 Y43.5470 
X-16.3747 Y43.4060 
X-16.3449 Y43.2563 
Y43.1037 
X-16.3747 Y42.9540 
X-16.3970 Y42.9002 
X-15.3573 Y41.8606 
X-15.2894 Y41.7927 
X-15.2527 Y41.7040 
Y28.4823 
X-15.2489 Y28.4691 
X-15.2527 Y28.4346 
Y28.4000 
X-15.2580 Y28.3873 
Y28.3736 
X-15.2762 Y28.3433 
X-15.2894 Y28.3113 
X-15.2992 Y28.3016 
X-15.3058 Y28.2896 
X-15.3328 Y28.2679 
X-15.3573 Y28.2434 
X-15.3700 Y28.2382 
X-16.6028 Y27.2519 
X-16.6273 Y27.2274 
X-16.6400 Y27.2222 
X-16.6507 Y27.2136 
X-16.6840 Y27.2040 
X-16.7160 Y27.1907 
X-16.7297 
X-16.7429 Y27.1869 
X-16.7774 Y27.1907 
G00 Z2.5400 
G00 X-15.8479 Y26.6573 
G01 Z-0.1778 F254.00 
G01 X-15.2273 Y27.2780 F508.00 
G01 X-15.2273 Y44.0960 
X-16.4536 Y45.3223 
X-16.5178 Y45.2262 
X-16.6258 Y45.1183 
X-16.7526 Y45.0335 
X-16.8936 Y44.9751 
X-17.0433 Y44.9453 
X-18.5167 
X-18.6664 Y44.9751 
X-18.8074 Y45.0335 
X-18.9342 Y45.1183 
X-19.0421 Y45.2262 
X-19.1269 Y45.3530 
X-19.1853 Y45.4940 
X-19.2151 Y45.6437 
Y45.7963 
X-19.1853 Y45.9460 
X-19.1269 Y46.0870 
X-19.0421 Y46.2138 
X-18.9342 Y46.3217 
X-18.8074 Y46.4065 
X-18.6664 Y46.4649 
X-18.5167 Y46.4947 
X-17.0433 
X-16.8936 Y46.4649 
X-16.7526 Y46.4065 
X-16.6258 Y46.3217 
X-16.5178 Y46.2138 
X-16.4331 Y46.0870 
X-16.3747 Y45.9460 
X-16.3697 Y45.9209 
X-14.8493 Y44.4006 
X-14.7814 Y44.3327 
X-14.7447 Y44.2440 
Y27.1300 
X-14.7814 Y27.0413 
X-15.5434 Y26.2793 
X-15.6113 Y26.2114 
X-15.7000 Y26.1747 
X-24.7825 
Y25.8901 
X-24.7999 Y25.8481 
X-24.8321 Y25.8159 
X-24.8741 Y25.7985 
X-25.9259 
X-25.9679 Y25.8159 
X-26.0001 Y25.8481 
X-26.0175 Y25.8901 
Y26.9419 
X-26.0001 Y26.9839 
X-25.9679 Y27.0161 
X-25.9259 Y27.0335 
X-24.8741 
X-24.8321 Y27.0161 
X-24.7999 Y26.9839 
X-24.7825 Y26.9419 
Y26.6573 
X-15.8479 
G00 Z2.5400 
G00 X-12.0301 Y25.9679 
G01 Z-0.1778 F254.00 
G01 X-11.9979 Y26.0001 F508.00 
G01 X-11.9559 Y26.0175 
X-10.9041 
X-10.8621 Y26.0001 
X-10.8299 Y25.9679 
X-10.8125 Y25.9259 
Y24.8741 
X-10.8299 Y24.8321 
X-10.8621 Y24.7999 
X-10.9041 Y24.7825 
X-11.9559 
X-11.9979 Y24.7999 
X-12.0301 Y24.8321 
X-12.0475 Y24.8741 
Y25.1587 
X-27.3225 
Y24.8741 
X-27.3399 Y24.8321 
X-27.3721 Y24.7999 
X-27.4141 Y24.7825 
X-28.4659 
X-28.5079 Y24.7999 
X-28.5401 Y24.8321 
X-28.5575 Y24.8741 
Y25.9259 
X-28.5401 Y25.9679 
X-28.5079 Y26.0001 
X-28.4659 Y26.0175 
X-27.4141 
X-27.3721 Y26.0001 
X-27.3399 Y25.9679 
X-27.3225 Y25.9259 
Y25.6413 
X-12.0475 
Y25.9259 
X-12.0301 Y25.9679 
G00 Z2.5400 
G00 X-16.5178 Y32.5262 
G01 Z-0.1778 F254.00 
G01 X-16.6258 Y32.4183 F508.00 
G01 X-16.7526 Y32.3335 
X-16.8936 Y32.2751 
X-17.0433 Y32.2453 
X-18.5167 
X-18.6664 Y32.2751 
X-18.8074 Y32.3335 
X-18.9342 Y32.4183 
X-19.0421 Y32.5262 
X-19.1269 Y32.6530 
X-19.1853 Y32.7940 
X-19.2151 Y32.9437 
Y33.0963 
X-19.1853 Y33.2460 
X-19.1269 Y33.3870 
X-19.0421 Y33.5138 
X-18.9342 Y33.6217 
X-18.8074 Y33.7065 
X-18.6664 Y33.7649 
X-18.5167 Y33.7947 
X-17.0433 
X-16.8936 Y33.7649 
X-16.7526 Y33.7065 
X-16.6258 Y33.6217 
X-16.5178 Y33.5138 
X-16.4331 Y33.3870 
X-16.3747 Y33.2460 
X-16.3449 Y33.0963 
Y32.9437 
X-16.3747 Y32.7940 
X-16.4331 Y32.6530 
X-16.5178 Y32.5262 
G00 Z2.5400 
G00 X-16.5178 Y35.0662 
G01 Z-0.1778 F254.00 
G01 X-16.6258 Y34.9582 F508.00 
G01 X-16.7526 Y34.8735 
X-16.8936 Y34.8151 
X-17.0433 Y34.7853 
X-18.5167 
X-18.6664 Y34.8151 
X-18.8074 Y34.8735 
X-18.9342 Y34.9582 
X-19.0421 Y35.0662 
X-19.1269 Y35.1930 
X-19.1853 Y35.3340 
X-19.2151 Y35.4837 
Y35.6363 
X-19.1853 Y35.7860 
X-19.1269 Y35.9270 
X-19.0421 Y36.0538 
X-18.9342 Y36.1617 
X-18.8074 Y36.2465 
X-18.6664 Y36.3049 
X-18.5167 Y36.3347 
X-17.0433 
X-16.8936 Y36.3049 
X-16.7526 Y36.2465 
X-16.6258 Y36.1617 
X-16.5178 Y36.0538 
X-16.4331 Y35.9270 
X-16.3747 Y35.7860 
X-16.3449 Y35.6363 
Y35.4837 
X-16.3747 Y35.3340 
X-16.4331 Y35.1930 
X-16.5178 Y35.0662 
G00 Z2.5400 
G00 X-16.5178 Y37.6062 
G01 Z-0.1778 F254.00 
G01 X-16.6258 Y37.4982 F508.00 
G01 X-16.7526 Y37.4135 
X-16.8936 Y37.3551 
X-17.0433 Y37.3253 
X-18.5167 
X-18.6664 Y37.3551 
X-18.8074 Y37.4135 
X-18.9342 Y37.4982 
X-19.0421 Y37.6062 
X-19.1269 Y37.7330 
X-19.1853 Y37.8740 
X-19.2151 Y38.0237 
Y38.1763 
X-19.1853 Y38.3260 
X-19.1269 Y38.4670 
X-19.0421 Y38.5938 
X-18.9342 Y38.7017 
X-18.8074 Y38.7865 
X-18.6664 Y38.8449 
X-18.5167 Y38.8747 
X-17.0433 
X-16.8936 Y38.8449 
X-16.7526 Y38.7865 
X-16.6258 Y38.7017 
X-16.5178 Y38.5938 
X-16.4331 Y38.4670 
X-16.3747 Y38.3260 
X-16.3449 Y38.1763 
Y38.0237 
X-16.3747 Y37.8740 
X-16.4331 Y37.7330 
X-16.5178 Y37.6062 
G00 Z2.5400 
G00 X-16.5178 Y40.1462 
G01 Z-0.1778 F254.00 
G01 X-16.6258 Y40.0382 F508.00 
G01 X-16.7526 Y39.9535 
X-16.8936 Y39.8951 
X-17.0433 Y39.8653 
X-18.5167 
X-18.6664 Y39.8951 
X-18.8074 Y39.9535 
X-18.9342 Y40.0382 
X-19.0421 Y40.1462 
X-19.1269 Y40.2730 
X-19.1853 Y40.4140 
X-19.2151 Y40.5637 
Y40.7163 
X-19.1853 Y40.8660 
X-19.1269 Y41.0070 
X-19.0421 Y41.1338 
X-18.9342 Y41.2417 
X-18.8074 Y41.3265 
X-18.6664 Y41.3849 
X-18.5167 Y41.4147 
X-17.0433 
X-16.8936 Y41.3849 
X-16.7526 Y41.3265 
X-16.6258 Y41.2417 
X-16.5178 Y41.1338 
X-16.4331 Y41.0070 
X-16.3747 Y40.8660 
X-16.3449 Y40.7163 
Y40.5637 
X-16.3747 Y40.4140 
X-16.4331 Y40.2730 
X-16.5178 Y40.1462 
G00 Z2.5400 
G00 X-22.8727 Y40.6880 
G01 Z-0.1778 F254.00 
G01 X-22.8727 Y32.4640 F508.00 
G01 X-22.9094 Y32.3753 
X-23.9254 Y31.3593 
X-23.9933 Y31.2914 
X-24.0820 Y31.2547 
X-26.8240 
X-27.6987 Y30.3800 
Y28.5575 
X-27.4141 
X-27.3721 Y28.5401 
X-27.3399 Y28.5079 
X-27.3225 Y28.4659 
Y27.4141 
X-27.3399 Y27.3721 
X-27.3721 Y27.3399 
X-27.4141 Y27.3225 
X-28.4659 
X-28.5079 Y27.3399 
X-28.5401 Y27.3721 
X-28.5575 Y27.4141 
Y28.4659 
X-28.5401 Y28.5079 
X-28.5079 Y28.5401 
X-28.4659 Y28.5575 
X-28.1813 
Y30.5280 
X-28.1446 Y30.6167 
X-28.0767 Y30.6846 
X-27.0607 Y31.7006 
X-26.9720 Y31.7373 
X-24.2299 
X-23.3553 Y32.6120 
Y40.5400 
X-24.4840 Y41.6687 
X-26.4640 
X-26.5527 Y41.7054 
X-26.6206 Y41.7733 
X-27.8906 Y43.0433 
X-27.9273 Y43.1320 
Y43.7360 
X-27.8906 Y43.8247 
X-27.8227 Y43.8926 
X-26.5756 Y45.1396 
X-26.6621 Y45.2262 
X-26.7469 Y45.3530 
X-26.8053 Y45.4940 
X-26.8351 Y45.6437 
Y45.7963 
X-26.8053 Y45.9460 
X-26.7469 Y46.0870 
X-26.6621 Y46.2138 
X-26.5542 Y46.3217 
X-26.4274 Y46.4065 
X-26.2864 Y46.4649 
X-26.1367 Y46.4947 
X-24.6633 
X-24.5136 Y46.4649 
X-24.3726 Y46.4065 
X-24.2458 Y46.3217 
X-24.1379 Y46.2138 
X-24.0531 Y46.0870 
X-23.9947 Y45.9460 
X-23.9649 Y45.7963 
Y45.6437 
X-23.9947 Y45.4940 
X-24.0531 Y45.3530 
X-24.1379 Y45.2262 
X-24.2458 Y45.1183 
X-24.3726 Y45.0335 
X-24.5136 Y44.9751 
X-24.6633 Y44.9453 
X-26.0874 
X-27.4447 Y43.5880 
Y43.2799 
X-26.3160 Y42.1513 
X-24.3360 
X-24.2473 Y42.1146 
X-22.9773 Y40.8446 
X-22.9094 Y40.7767 
X-22.8727 Y40.6880 
G00 Z2.5400 
G00 X-23.9649 Y40.7163 
G01 Z-0.1778 F254.00 
G01 X-23.9649 Y40.5637 F508.00 
G01 X-23.9947 Y40.4140 
X-24.0531 Y40.2730 
X-24.1379 Y40.1462 
X-24.2458 Y40.0382 
X-24.3726 Y39.9535 
X-24.5136 Y39.8951 
X-24.6633 Y39.8653 
X-26.1367 
X-26.2864 Y39.8951 
X-26.4274 Y39.9535 
X-26.5542 Y40.0382 
X-26.6621 Y40.1462 
X-26.7469 Y40.2730 
X-26.8053 Y40.4140 
X-26.8351 Y40.5637 
Y40.7163 
X-26.8053 Y40.8660 
X-26.7469 Y41.0070 
X-26.6621 Y41.1338 
X-26.5542 Y41.2417 
X-26.4274 Y41.3265 
X-26.2864 Y41.3849 
X-26.1367 Y41.4147 
X-24.6633 
X-24.5136 Y41.3849 
X-24.3726 Y41.3265 
X-24.2458 Y41.2417 
X-24.1379 Y41.1338 
X-24.0531 Y41.0070 
X-23.9947 Y40.8660 
X-23.9649 Y40.7163 
G00 Z2.5400 
G00 X-24.1379 Y42.6862 
G01 Z-0.1778 F254.00 
G01 X-24.2458 Y42.5782 F508.00 
G01 X-24.3726 Y42.4935 
X-24.5136 Y42.4351 
X-24.6633 Y42.4053 
X-26.1367 
X-26.2864 Y42.4351 
X-26.4274 Y42.4935 
X-26.5542 Y42.5782 
X-26.6621 Y42.6862 
X-26.7469 Y42.8130 
X-26.8053 Y42.9540 
X-26.8351 Y43.1037 
Y43.2563 
X-26.8053 Y43.4060 
X-26.7469 Y43.5470 
X-26.6621 Y43.6738 
X-26.5542 Y43.7817 
X-26.4274 Y43.8665 
X-26.2864 Y43.9249 
X-26.1367 Y43.9547 
X-24.9666 
X-23.8633 Y45.0579 
Y56.5420 
X-24.9665 Y57.6453 
X-26.1367 
X-26.2864 Y57.6751 
X-26.4274 Y57.7335 
X-26.5542 Y57.8182 
X-26.6621 Y57.9262 
X-26.7469 Y58.0530 
X-26.8053 Y58.1940 
X-26.8351 Y58.3437 
Y58.4963 
X-26.8053 Y58.6460 
X-26.7469 Y58.7870 
X-26.6621 Y58.9138 
X-26.5542 Y59.0217 
X-26.4274 Y59.1065 
X-26.2864 Y59.1649 
X-26.1367 Y59.1947 
X-24.6633 
X-24.5136 Y59.1649 
X-24.3726 Y59.1065 
X-24.2458 Y59.0217 
X-24.1379 Y58.9138 
X-24.0531 Y58.7870 
X-23.9947 Y58.6460 
X-23.9649 Y58.4963 
Y58.3437 
X-23.9947 Y58.1940 
X-24.0531 Y58.0530 
X-24.1379 Y57.9262 
X-24.2458 Y57.8182 
X-24.3724 Y57.7336 
X-23.4174 Y56.7787 
X-23.3807 Y56.6900 
Y44.9100 
X-23.4174 Y44.8213 
X-23.4853 Y44.7534 
X-24.3724 Y43.8664 
X-24.2458 Y43.7817 
X-24.1379 Y43.6738 
X-24.0531 Y43.5470 
X-23.9947 Y43.4060 
X-23.9649 Y43.2563 
Y43.1037 
X-23.9947 Y42.9540 
X-24.0531 Y42.8130 
X-24.1379 Y42.6862 
G00 Z2.5400 
G00 X-24.2458 Y38.7017 
G01 Z-0.1778 F254.00 
G01 X-24.1379 Y38.5938 F508.00 
G01 X-24.0531 Y38.4670 
X-23.9947 Y38.3260 
X-23.9649 Y38.1763 
Y38.0237 
X-23.9947 Y37.8740 
X-24.0531 Y37.7330 
X-24.1379 Y37.6062 
X-24.2458 Y37.4982 
X-24.3726 Y37.4135 
X-24.5136 Y37.3551 
X-24.6633 Y37.3253 
X-26.1367 
X-26.2864 Y37.3551 
X-26.4274 Y37.4135 
X-26.5542 Y37.4982 
X-26.6621 Y37.6062 
X-26.7469 Y37.7330 
X-26.8053 Y37.8740 
X-26.8351 Y38.0237 
Y38.1763 
X-26.8053 Y38.3260 
X-26.7469 Y38.4670 
X-26.6621 Y38.5938 
X-26.5542 Y38.7017 
X-26.4276 Y38.7864 
X-29.9226 Y42.2813 
X-29.9593 Y42.3700 
Y60.2460 
X-29.9226 Y60.3347 
X-29.8547 Y60.4026 
X-27.6366 Y62.6207 
X-27.5687 Y62.6886 
X-27.4800 Y62.7253 
X-24.2299 
X-23.8633 Y63.0919 
Y65.9655 
X-23.9254 Y65.9033 
X-23.9897 Y65.8391 
X-23.9947 Y65.8140 
X-24.0531 Y65.6730 
X-24.1379 Y65.5462 
X-24.2458 Y65.4382 
X-24.3726 Y65.3535 
X-24.5136 Y65.2951 
X-24.6633 Y65.2653 
X-26.1367 
X-26.2864 Y65.2951 
X-26.4274 Y65.3535 
X-26.5542 Y65.4382 
X-26.6621 Y65.5462 
X-26.7469 Y65.6730 
X-26.8053 Y65.8140 
X-26.8351 Y65.9637 
Y66.1163 
X-26.8053 Y66.2660 
X-26.7469 Y66.4070 
X-26.6621 Y66.5338 
X-26.5542 Y66.6417 
X-26.4274 Y66.7265 
X-26.2864 Y66.7849 
X-26.1367 Y66.8147 
X-24.6633 
X-24.5136 Y66.7849 
X-24.3726 Y66.7265 
X-24.2458 Y66.6417 
X-24.1379 Y66.5338 
X-24.0736 Y66.4377 
X-23.7587 Y66.7526 
X-23.6700 Y66.7893 
X-22.4519 
X-19.5086 Y69.7327 
X-19.4407 Y69.8006 
X-19.3520 Y69.8373 
X-12.0380 
X-11.8207 Y70.0546 
X-11.7320 Y70.0913 
X-4.1475 
X-4.1446 Y70.1056 
X-4.0786 Y70.2651 
X-3.9827 Y70.4086 
X-3.8606 Y70.5307 
X-3.7171 Y70.6266 
X-3.5576 Y70.6926 
X-3.3883 Y70.7263 
X-1.6917 
X-1.5224 Y70.6926 
X-1.3629 Y70.6266 
X-1.2194 Y70.5307 
X-1.0973 Y70.4086 
X-1.0014 Y70.2651 
X-0.9354 Y70.1056 
X-0.9017 Y69.9363 
Y69.7637 
X-0.9354 Y69.5944 
X-1.0014 Y69.4349 
X-1.0973 Y69.2914 
X-1.2194 Y69.1693 
X-1.3629 Y69.0734 
X-1.5224 Y69.0074 
X-1.6917 Y68.9737 
X-3.3883 
X-3.5576 Y69.0074 
X-3.7171 Y69.0734 
X-3.8606 Y69.1693 
X-3.9827 Y69.2914 
X-4.0786 Y69.4349 
X-4.1446 Y69.5944 
X-4.1475 Y69.6087 
X-11.5840 
X-11.8013 Y69.3914 
X-11.8900 Y69.3547 
X-19.2040 
X-22.1474 Y66.4113 
X-22.2153 Y66.3434 
X-22.3040 Y66.3067 
X-23.3807 
Y62.9440 
X-23.4174 Y62.8553 
X-23.9933 Y62.2794 
X-24.0820 Y62.2427 
X-27.3320 
X-29.4767 Y60.0980 
Y42.5179 
X-25.8334 Y38.8747 
X-24.6633 
X-24.5136 Y38.8449 
X-24.3726 Y38.7865 
X-24.2458 Y38.7017 
G00 Z2.5400 
G00 X-24.2458 Y36.1617 
G01 Z-0.1778 F254.00 
G01 X-24.1379 Y36.0538 F508.00 
G01 X-24.0531 Y35.9270 
X-23.9947 Y35.7860 
X-23.9649 Y35.6363 
Y35.4837 
X-23.9947 Y35.3340 
X-24.0531 Y35.1930 
X-24.1379 Y35.0662 
X-24.2458 Y34.9582 
X-24.3726 Y34.8735 
X-24.5136 Y34.8151 
X-24.6633 Y34.7853 
X-26.1367 
X-26.2864 Y34.8151 
X-26.4274 Y34.8735 
X-26.5542 Y34.9582 
X-26.6621 Y35.0662 
X-26.7469 Y35.1930 
X-26.8053 Y35.3340 
X-26.8351 Y35.4837 
Y35.6363 
X-26.8053 Y35.7860 
X-26.7469 Y35.9270 
X-26.6621 Y36.0538 
X-26.5542 Y36.1617 
X-26.4276 Y36.2464 
X-30.6846 Y40.5033 
X-30.7213 Y40.5920 
Y60.2460 
X-30.6846 Y60.3347 
X-30.6167 Y60.4026 
X-27.4193 Y63.5999 
Y67.1040 
X-27.3826 Y67.1927 
X-27.3147 Y67.2606 
X-27.2260 Y67.2973 
X-23.4679 
X-20.4567 Y70.3086 
X-20.3680 Y70.3453 
X-13.8160 
X-12.8367 Y71.3246 
X-12.7480 Y71.3613 
X-3.9099 
X-3.6752 Y71.5961 
X-3.7171 Y71.6134 
X-3.8606 Y71.7093 
X-3.9827 Y71.8314 
X-4.0786 Y71.9749 
X-4.1446 Y72.1344 
X-4.1783 Y72.3037 
Y72.4763 
X-4.1446 Y72.6456 
X-4.0786 Y72.8051 
X-3.9827 Y72.9486 
X-3.8606 Y73.0707 
X-3.7171 Y73.1666 
X-3.5576 Y73.2326 
X-3.3883 Y73.2663 
X-1.6917 
X-1.5224 Y73.2326 
X-1.3629 Y73.1666 
X-1.2194 Y73.0707 
X-1.0973 Y72.9486 
X-1.0014 Y72.8051 
X-0.9354 Y72.6456 
X-0.9017 Y72.4763 
Y72.3037 
X-0.9354 Y72.1344 
X-1.0014 Y71.9749 
X-1.0973 Y71.8314 
X-1.2194 Y71.7093 
X-1.3629 Y71.6134 
X-1.5224 Y71.5474 
X-1.6917 Y71.5137 
X-3.0751 
X-3.6054 Y70.9833 
X-3.6733 Y70.9154 
X-3.7620 Y70.8787 
X-12.6000 
X-13.5114 Y69.9673 
X-13.5793 Y69.8994 
X-13.6680 Y69.8627 
X-20.2200 
X-23.1634 Y66.9193 
X-23.2313 Y66.8514 
X-23.3200 Y66.8147 
X-26.9367 
Y63.7413 
X-26.7990 
X-26.7469 Y63.8670 
X-26.6621 Y63.9938 
X-26.5542 Y64.1017 
X-26.4274 Y64.1865 
X-26.2864 Y64.2449 
X-26.1367 Y64.2747 
X-24.6633 
X-24.5136 Y64.2449 
X-24.3726 Y64.1865 
X-24.2458 Y64.1017 
X-24.1379 Y63.9938 
X-24.0531 Y63.8670 
X-23.9947 Y63.7260 
X-23.9649 Y63.5763 
Y63.4237 
X-23.9947 Y63.2740 
X-24.0531 Y63.1330 
X-24.1379 Y63.0062 
X-24.2458 Y62.8982 
X-24.3726 Y62.8135 
X-24.5136 Y62.7551 
X-24.6633 Y62.7253 
X-26.1367 
X-26.2864 Y62.7551 
X-26.4274 Y62.8135 
X-26.5542 Y62.8982 
X-26.6621 Y63.0062 
X-26.7469 Y63.1330 
X-26.7990 Y63.2587 
X-27.0780 
X-30.2387 Y60.0980 
Y40.7400 
X-25.8334 Y36.3347 
X-24.6633 
X-24.5136 Y36.3049 
X-24.3726 Y36.2465 
X-24.2458 Y36.1617 
G00 Z2.5400 
G00 X-24.2458 Y31.0817 
G01 Z-0.1778 F254.00 
G01 X-24.1379 Y30.9738 F508.00 
G01 X-24.0531 Y30.8470 
X-23.9947 Y30.7060 
X-23.9649 Y30.5563 
Y30.4037 
X-23.9947 Y30.2540 
X-24.0531 Y30.1130 
X-24.1379 Y29.9862 
X-24.2458 Y29.8783 
X-24.3726 Y29.7935 
X-24.5136 Y29.7351 
X-24.6633 Y29.7053 
X-26.1367 
X-26.2864 Y29.7351 
X-26.4274 Y29.7935 
X-26.5542 Y29.8783 
X-26.6621 Y29.9862 
X-26.7469 Y30.1130 
X-26.8053 Y30.2540 
X-26.8351 Y30.4037 
Y30.5563 
X-26.8053 Y30.7060 
X-26.7469 Y30.8470 
X-26.6621 Y30.9738 
X-26.5542 Y31.0817 
X-26.4274 Y31.1665 
X-26.2864 Y31.2249 
X-26.1367 Y31.2547 
X-24.6633 
X-24.5136 Y31.2249 
X-24.3726 Y31.1665 
X-24.2458 Y31.0817 
G00 Z2.5400 
G00 X-24.2458 Y47.6583 
G01 Z-0.1778 F254.00 
G01 X-24.3726 Y47.5735 F508.00 
G01 X-24.5136 Y47.5151 
X-24.6633 Y47.4853 
X-26.1367 
X-26.2864 Y47.5151 
X-26.4274 Y47.5735 
X-26.5542 Y47.6583 
X-26.6621 Y47.7662 
X-26.7469 Y47.8930 
X-26.8053 Y48.0340 
X-26.8351 Y48.1837 
Y48.3363 
X-26.8053 Y48.4860 
X-26.7469 Y48.6270 
X-26.6621 Y48.7538 
X-26.5542 Y48.8617 
X-26.4274 Y48.9465 
X-26.2864 Y49.0049 
X-26.1367 Y49.0347 
X-25.6413 
Y56.0340 
X-27.3147 Y57.7074 
X-27.3826 Y57.7753 
X-27.4193 Y57.8640 
Y59.2300 
X-27.3826 Y59.3187 
X-26.4276 Y60.2736 
X-26.5542 Y60.3582 
X-26.6621 Y60.4662 
X-26.7469 Y60.5930 
X-26.7990 Y60.7187 
X-27.3320 
X-27.8305 Y60.2203 
Y59.4181 
X-27.8479 Y59.3761 
X-27.8801 Y59.3439 
X-27.9221 Y59.3265 
X-28.9739 
X-29.0159 Y59.3439 
X-29.0481 Y59.3761 
X-29.0655 Y59.4181 
Y60.4699 
X-29.0481 Y60.5119 
X-29.0159 Y60.5441 
X-28.9739 Y60.5615 
X-28.1717 
X-27.5687 Y61.1646 
X-27.4800 Y61.2013 
X-26.7990 
X-26.7469 Y61.3270 
X-26.6621 Y61.4538 
X-26.5542 Y61.5617 
X-26.4274 Y61.6465 
X-26.2864 Y61.7049 
X-26.1367 Y61.7347 
X-24.6633 
X-24.5136 Y61.7049 
X-24.3726 Y61.6465 
X-24.2458 Y61.5617 
X-24.1379 Y61.4538 
X-24.0531 Y61.3270 
X-23.9947 Y61.1860 
X-23.9649 Y61.0363 
Y60.8837 
X-23.9947 Y60.7340 
X-24.0531 Y60.5930 
X-24.1379 Y60.4662 
X-24.2458 Y60.3582 
X-24.3726 Y60.2735 
X-24.5136 Y60.2151 
X-24.6633 Y60.1853 
X-25.8334 
X-26.9367 Y59.0820 
Y58.0119 
X-25.1954 Y56.2707 
X-25.1587 Y56.1820 
Y49.0347 
X-24.6633 
X-24.5136 Y49.0049 
X-24.3726 Y48.9465 
X-24.2458 Y48.8617 
X-24.1379 Y48.7538 
X-24.0531 Y48.6270 
X-23.9947 Y48.4860 
X-23.9649 Y48.3363 
Y48.1837 
X-23.9947 Y48.0340 
X-24.0531 Y47.8930 
X-24.1379 Y47.7662 
X-24.2458 Y47.6583 
G00 Z2.5400 
G00 X-20.8879 Y51.2159 
G01 Z-0.1778 F254.00 
G01 X-20.9201 Y51.2481 F508.00 
G01 X-20.9375 Y51.2901 
Y52.3419 
X-20.9201 Y52.3839 
X-20.8879 Y52.4161 
X-20.8459 Y52.4335 
X-20.3073 
Y58.7220 
X-20.2706 Y58.8107 
X-20.2027 Y58.8786 
X-18.8076 Y60.2736 
X-18.9342 Y60.3582 
X-19.0421 Y60.4662 
X-19.1269 Y60.5930 
X-19.1853 Y60.7340 
X-19.2151 Y60.8837 
Y61.0363 
X-19.1853 Y61.1860 
X-19.1269 Y61.3270 
X-19.0421 Y61.4538 
X-18.9342 Y61.5617 
X-18.8074 Y61.6465 
X-18.6664 Y61.7049 
X-18.5167 Y61.7347 
X-17.0433 
X-16.8936 Y61.7049 
X-16.7526 Y61.6465 
X-16.6258 Y61.5617 
X-16.5178 Y61.4538 
X-16.4331 Y61.3270 
X-16.3747 Y61.1860 
X-16.3449 Y61.0363 
Y60.8837 
X-16.3747 Y60.7340 
X-16.4331 Y60.5930 
X-16.5178 Y60.4662 
X-16.6258 Y60.3582 
X-16.7526 Y60.2735 
X-16.8936 Y60.2151 
X-17.0433 Y60.1853 
X-18.2135 
X-19.8247 Y58.5740 
Y52.4335 
X-19.7941 
X-19.7521 Y52.4161 
X-19.7199 Y52.3839 
X-19.7025 Y52.3419 
Y51.2901 
X-19.7199 Y51.2481 
X-19.7521 Y51.2159 
X-19.7941 Y51.1985 
X-20.8459 
X-20.8879 Y51.2159 
G00 Z2.5400 
G00 X-20.5561 Y52.4685 
G01 Z-0.1778 F254.00 
G01 X-21.6079 Y52.4685 F508.00 
G01 X-21.6499 Y52.4859 
X-21.6821 Y52.5181 
X-21.6995 Y52.5601 
Y53.6119 
X-21.6821 Y53.6539 
X-21.6499 Y53.6861 
X-21.6079 Y53.7035 
X-21.2978 
X-21.2866 Y53.7307 
X-21.2187 Y53.7986 
X-21.1300 Y53.8353 
X-21.0693 
Y54.8767 
X-21.1300 
X-21.2187 Y54.9134 
X-21.2866 Y54.9813 
X-21.3233 Y55.0700 
Y60.2460 
X-21.2866 Y60.3347 
X-21.2187 Y60.4026 
X-18.8076 Y62.8136 
X-18.9342 Y62.8982 
X-19.0421 Y63.0062 
X-19.1269 Y63.1330 
X-19.1853 Y63.2740 
X-19.2151 Y63.4237 
Y63.5763 
X-19.1853 Y63.7260 
X-19.1269 Y63.8670 
X-19.0421 Y63.9938 
X-18.9342 Y64.1017 
X-18.8074 Y64.1865 
X-18.6664 Y64.2449 
X-18.5167 Y64.2747 
X-17.0433 
X-16.8936 Y64.2449 
X-16.7526 Y64.1865 
X-16.6258 Y64.1017 
X-16.5178 Y63.9938 
X-16.4331 Y63.8670 
X-16.3747 Y63.7260 
X-16.3449 Y63.5763 
Y63.4237 
X-16.3747 Y63.2740 
X-16.4331 Y63.1330 
X-16.5178 Y63.0062 
X-16.6258 Y62.8982 
X-16.7526 Y62.8135 
X-16.8936 Y62.7551 
X-17.0433 Y62.7253 
X-18.2134 
X-20.8407 Y60.0980 
Y55.3593 
X-20.7800 
X-20.6913 Y55.3226 
X-20.6234 Y55.2547 
X-20.5867 Y55.1660 
Y53.7035 
X-20.5561 
X-20.5141 Y53.6861 
X-20.4819 Y53.6539 
X-20.4645 Y53.6119 
Y52.5601 
X-20.4819 Y52.5181 
X-20.5141 Y52.4859 
X-20.5561 Y52.4685 
G00 Z2.5400 
G00 X-21.2439 Y53.7881 
G01 Z-0.1778 F254.00 
G01 X-21.2761 Y53.7559 F508.00 
G01 X-21.3181 Y53.7385 
X-22.3699 
X-22.4119 Y53.7559 
X-22.4441 Y53.7881 
X-22.4615 Y53.8301 
Y54.8819 
X-22.4441 Y54.9239 
X-22.4119 Y54.9561 
X-22.3699 Y54.9735 
X-22.0598 
X-22.0486 Y55.0007 
X-21.9807 Y55.0686 
X-21.8920 Y55.1053 
X-21.8313 
Y56.1467 
X-21.8920 
X-21.9807 Y56.1834 
X-22.0486 Y56.2513 
X-22.0853 Y56.3400 
Y62.0240 
X-22.0486 Y62.1127 
X-21.9807 Y62.1806 
X-18.8076 Y65.3536 
X-18.9342 Y65.4382 
X-19.0421 Y65.5462 
X-19.1269 Y65.6730 
X-19.1853 Y65.8140 
X-19.2151 Y65.9637 
Y66.1163 
X-19.1853 Y66.2660 
X-19.1269 Y66.4070 
X-19.0421 Y66.5338 
X-18.9342 Y66.6417 
X-18.8074 Y66.7265 
X-18.6664 Y66.7849 
X-18.5167 Y66.8147 
X-17.0433 
X-16.8936 Y66.7849 
X-16.7526 Y66.7265 
X-16.6258 Y66.6417 
X-16.5178 Y66.5338 
X-16.4331 Y66.4070 
X-16.3747 Y66.2660 
X-16.3449 Y66.1163 
Y65.9637 
X-16.3747 Y65.8140 
X-16.4331 Y65.6730 
X-16.5178 Y65.5462 
X-16.6258 Y65.4382 
X-16.7526 Y65.3535 
X-16.8936 Y65.2951 
X-17.0433 Y65.2653 
X-18.2135 
X-21.6027 Y61.8760 
Y56.6293 
X-21.5420 
X-21.4533 Y56.5926 
X-21.3854 Y56.5247 
X-21.3487 Y56.4360 
Y54.9735 
X-21.3181 
X-21.2761 Y54.9561 
X-21.2439 Y54.9239 
X-21.2265 Y54.8819 
Y53.8301 
X-21.2439 Y53.7881 
G00 Z2.5400 
G00 X-22.0059 Y55.0581 
G01 Z-0.1778 F254.00 
G01 X-22.0381 Y55.0259 F508.00 
G01 X-22.0801 Y55.0085 
X-23.1319 
X-23.1739 Y55.0259 
X-23.2061 Y55.0581 
X-23.2235 Y55.1001 
Y56.1519 
X-23.2061 Y56.1939 
X-23.1739 Y56.2261 
X-23.1319 Y56.2435 
X-22.8473 
Y63.8020 
X-22.8106 Y63.8907 
X-22.7427 Y63.9586 
X-18.8076 Y67.8936 
X-18.9342 Y67.9783 
X-19.0421 Y68.0862 
X-19.1269 Y68.2130 
X-19.1853 Y68.3540 
X-19.2151 Y68.5037 
Y68.6563 
X-19.1853 Y68.8060 
X-19.1269 Y68.9470 
X-19.0421 Y69.0738 
X-18.9342 Y69.1817 
X-18.8074 Y69.2665 
X-18.6664 Y69.3249 
X-18.5167 Y69.3547 
X-17.0433 
X-16.8936 Y69.3249 
X-16.7526 Y69.2665 
X-16.6258 Y69.1817 
X-16.5178 Y69.0738 
X-16.4331 Y68.9470 
X-16.3747 Y68.8060 
X-16.3449 Y68.6563 
Y68.5037 
X-16.3747 Y68.3540 
X-16.4331 Y68.2130 
X-16.5178 Y68.0862 
X-16.6258 Y67.9783 
X-16.7526 Y67.8935 
X-16.8936 Y67.8351 
X-17.0433 Y67.8053 
X-18.2135 
X-22.3647 Y63.6540 
Y56.2435 
X-22.0801 
X-22.0381 Y56.2261 
X-22.0059 Y56.1939 
X-21.9885 Y56.1519 
Y55.1001 
X-22.0059 Y55.0581 
G00 Z2.5400 
G00 X-23.9254 Y67.4273 
G01 Z-0.1778 F254.00 
G01 X-23.9933 Y67.3594 F508.00 
G01 X-24.0820 Y67.3227 
X-32.4120 
X-37.6414 Y62.0933 
X-37.7093 Y62.0254 
X-37.7980 Y61.9887 
X-42.5638 
X-42.5747 Y61.9341 
X-42.6511 Y61.7495 
X-42.7621 Y61.5834 
X-42.9034 Y61.4421 
X-43.0695 Y61.3311 
X-43.2541 Y61.2547 
X-43.4501 Y61.2157 
X-45.4499 
X-45.6459 Y61.2547 
X-45.8304 Y61.3311 
X-45.9966 Y61.4421 
X-46.1379 Y61.5834 
X-46.2489 Y61.7495 
X-46.3253 Y61.9341 
X-46.3643 Y62.1301 
Y62.3299 
X-46.3253 Y62.5259 
X-46.2489 Y62.7105 
X-46.1379 Y62.8766 
X-45.9966 Y63.0179 
X-45.8304 Y63.1289 
X-45.6459 Y63.2053 
X-45.4499 Y63.2443 
X-43.4501 
X-43.2541 Y63.2053 
X-43.0695 Y63.1289 
X-42.9034 Y63.0179 
X-42.7621 Y62.8766 
X-42.6511 Y62.7105 
X-42.5747 Y62.5259 
X-42.5638 Y62.4713 
X-37.9460 
X-32.6487 Y67.7686 
X-32.5600 Y67.8053 
X-24.2299 
X-20.7107 Y71.3246 
X-20.6220 Y71.3613 
X-19.1790 
X-19.1269 Y71.4870 
X-19.0421 Y71.6138 
X-18.9342 Y71.7217 
X-18.8074 Y71.8065 
X-18.6664 Y71.8649 
X-18.5167 Y71.8947 
X-17.0433 
X-16.8936 Y71.8649 
X-16.7526 Y71.8065 
X-16.6258 Y71.7217 
X-16.5178 Y71.6138 
X-16.4331 Y71.4870 
X-16.3747 Y71.3460 
X-16.3449 Y71.1963 
Y71.0437 
X-16.3747 Y70.8940 
X-16.4331 Y70.7530 
X-16.5178 Y70.6262 
X-16.6258 Y70.5182 
X-16.7526 Y70.4335 
X-16.8936 Y70.3751 
X-17.0433 Y70.3453 
X-18.5167 
X-18.6664 Y70.3751 
X-18.8074 Y70.4335 
X-18.9342 Y70.5182 
X-19.0421 Y70.6262 
X-19.1269 Y70.7530 
X-19.1790 Y70.8787 
X-20.4740 
X-23.9254 Y67.4273 
G00 Z2.5400 
G00 X-24.1379 Y68.0862 
G01 Z-0.1778 F254.00 
G01 X-24.2458 Y67.9783 F508.00 
G01 X-24.3726 Y67.8935 
X-24.5136 Y67.8351 
X-24.6633 Y67.8053 
X-26.1367 
X-26.2864 Y67.8351 
X-26.4274 Y67.8935 
X-26.5542 Y67.9783 
X-26.6621 Y68.0862 
X-26.7469 Y68.2130 
X-26.8053 Y68.3540 
X-26.8351 Y68.5037 
Y68.6563 
X-26.8053 Y68.8060 
X-26.7469 Y68.9470 
X-26.6621 Y69.0738 
X-26.5542 Y69.1817 
X-26.4274 Y69.2665 
X-26.2864 Y69.3249 
X-26.1367 Y69.3547 
X-24.6633 
X-24.5136 Y69.3249 
X-24.3726 Y69.2665 
X-24.2458 Y69.1817 
X-24.1379 Y69.0738 
X-24.0531 Y68.9470 
X-23.9947 Y68.8060 
X-23.9649 Y68.6563 
Y68.5037 
X-23.9947 Y68.3540 
X-24.0531 Y68.2130 
X-24.1379 Y68.0862 
G00 Z2.5400 
G00 X-23.5740 Y69.3547 
G01 Z-0.1778 F254.00 
G01 X-32.9200 Y69.3547 F508.00 
G01 X-37.6414 Y64.6333 
X-37.7093 Y64.5654 
X-37.7980 Y64.5287 
X-42.5638 
X-42.5747 Y64.4741 
X-42.6511 Y64.2895 
X-42.7621 Y64.1234 
X-42.9034 Y63.9821 
X-43.0695 Y63.8711 
X-43.2541 Y63.7947 
X-43.4501 Y63.7557 
X-45.4499 
X-45.6459 Y63.7947 
X-45.8304 Y63.8711 
X-45.9966 Y63.9821 
X-46.1379 Y64.1234 
X-46.2489 Y64.2895 
X-46.3253 Y64.4741 
X-46.3643 Y64.6701 
Y64.8699 
X-46.3253 Y65.0659 
X-46.2489 Y65.2505 
X-46.1379 Y65.4166 
X-45.9966 Y65.5579 
X-45.8304 Y65.6689 
X-45.6459 Y65.7453 
X-45.4499 Y65.7843 
X-43.4501 
X-43.2541 Y65.7453 
X-43.0695 Y65.6689 
X-42.9034 Y65.5579 
X-42.7621 Y65.4166 
X-42.6511 Y65.2505 
X-42.5747 Y65.0659 
X-42.5638 Y65.0113 
X-37.9459 
X-33.1567 Y69.8006 
X-33.0680 Y69.8373 
X-23.7219 
X-19.6947 Y73.8646 
X-19.6060 Y73.9013 
X-19.1790 
X-19.1269 Y74.0270 
X-19.0421 Y74.1538 
X-18.9342 Y74.2617 
X-18.8074 Y74.3465 
X-18.6664 Y74.4049 
X-18.5167 Y74.4347 
X-17.0433 
X-16.8936 Y74.4049 
X-16.7526 Y74.3465 
X-16.6258 Y74.2617 
X-16.5178 Y74.1538 
X-16.4331 Y74.0270 
X-16.3747 Y73.8860 
X-16.3449 Y73.7363 
Y73.5837 
X-16.3747 Y73.4340 
X-16.4331 Y73.2930 
X-16.5178 Y73.1662 
X-16.6258 Y73.0583 
X-16.7526 Y72.9735 
X-16.8936 Y72.9151 
X-17.0433 Y72.8853 
X-18.5167 
X-18.6664 Y72.9151 
X-18.8074 Y72.9735 
X-18.9342 Y73.0583 
X-19.0421 Y73.1662 
X-19.1269 Y73.2930 
X-19.1790 Y73.4187 
X-19.4580 
X-23.4853 Y69.3914 
X-23.5740 Y69.3547 
G00 Z2.5400 
G00 X-23.6714 Y69.9673 
G01 Z-0.1778 F254.00 
G01 X-23.7393 Y69.8994 F508.00 
G01 X-23.8280 Y69.8627 
X-36.7300 
X-37.5598 Y69.0330 
X-37.4947 Y68.8759 
X-37.4557 Y68.6799 
Y68.4801 
X-37.4947 Y68.2841 
X-37.5711 Y68.0995 
X-37.6821 Y67.9334 
X-37.8234 Y67.7921 
X-37.9895 Y67.6811 
X-38.1741 Y67.6047 
X-38.3701 Y67.5657 
X-40.3699 
X-40.5659 Y67.6047 
X-40.7505 Y67.6811 
X-40.9166 Y67.7921 
X-41.0579 Y67.9334 
X-41.1689 Y68.0995 
X-41.2453 Y68.2841 
X-41.2843 Y68.4801 
Y68.6799 
X-41.2453 Y68.8759 
X-41.1689 Y69.0605 
X-41.0579 Y69.2266 
X-40.9166 Y69.3679 
X-40.7505 Y69.4789 
X-40.5659 Y69.5553 
X-40.3699 Y69.5943 
X-38.3701 
X-38.1741 Y69.5553 
X-37.9895 Y69.4789 
X-37.8738 Y69.4015 
X-36.9667 Y70.3086 
X-36.8780 Y70.3453 
X-23.9760 
X-18.8076 Y75.5136 
X-18.9342 Y75.5982 
X-19.0421 Y75.7062 
X-19.1269 Y75.8330 
X-19.1853 Y75.9740 
X-19.2151 Y76.1237 
Y76.2763 
X-19.1853 Y76.4260 
X-19.1269 Y76.5670 
X-19.0421 Y76.6938 
X-18.9342 Y76.8017 
X-18.8074 Y76.8865 
X-18.6664 Y76.9449 
X-18.5167 Y76.9747 
X-17.0433 
X-16.8936 Y76.9449 
X-16.7526 Y76.8865 
X-16.6258 Y76.8017 
X-16.5178 Y76.6938 
X-16.4331 Y76.5670 
X-16.3747 Y76.4260 
X-16.3449 Y76.2763 
Y76.1237 
X-16.3747 Y75.9740 
X-16.4331 Y75.8330 
X-16.5178 Y75.7062 
X-16.6258 Y75.5982 
X-16.7526 Y75.5135 
X-16.8936 Y75.4551 
X-17.0433 Y75.4253 
X-18.2134 
X-23.6714 Y69.9673 
G00 Z2.5400 
G00 X-24.1379 Y70.6262 
G01 Z-0.1778 F254.00 
G01 X-24.2458 Y70.5182 F508.00 
G01 X-24.3726 Y70.4335 
X-24.5136 Y70.3751 
X-24.6633 Y70.3453 
X-26.1367 
X-26.2864 Y70.3751 
X-26.4274 Y70.4335 
X-26.5542 Y70.5182 
X-26.6621 Y70.6262 
X-26.7469 Y70.7530 
X-26.8053 Y70.8940 
X-26.8351 Y71.0437 
Y71.1963 
X-26.8053 Y71.3460 
X-26.7469 Y71.4870 
X-26.6621 Y71.6138 
X-26.5542 Y71.7217 
X-26.4274 Y71.8065 
X-26.2864 Y71.8649 
X-26.1367 Y71.8947 
X-24.6633 
X-24.5136 Y71.8649 
X-24.4957 Y71.8575 
X-19.7993 Y76.5540 
Y76.7560 
X-19.7626 Y76.8447 
X-19.2546 Y77.3527 
X-19.1867 Y77.4206 
X-19.0980 Y77.4573 
X-4.7780 
X-4.6893 Y77.4206 
X-3.0750 Y75.8063 
X-1.6917 
X-1.5224 Y75.7726 
X-1.3629 Y75.7066 
X-1.2194 Y75.6107 
X-1.0973 Y75.4886 
X-1.0014 Y75.3451 
X-0.9354 Y75.1856 
X-0.9017 Y75.0163 
Y74.8437 
X-0.9354 Y74.6744 
X-1.0014 Y74.5149 
X-1.0973 Y74.3714 
X-1.2194 Y74.2493 
X-1.3629 Y74.1534 
X-1.5224 Y74.0874 
X-1.6917 Y74.0537 
X-3.3883 
X-3.5576 Y74.0874 
X-3.7171 Y74.1534 
X-3.8606 Y74.2493 
X-3.9827 Y74.3714 
X-4.0786 Y74.5149 
X-4.1446 Y74.6744 
X-4.1783 Y74.8437 
Y75.0163 
X-4.1446 Y75.1856 
X-4.0786 Y75.3451 
X-3.9827 Y75.4886 
X-3.8606 Y75.6107 
X-3.7171 Y75.7066 
X-3.6752 Y75.7239 
X-4.9260 Y76.9747 
X-18.9500 
X-19.3167 Y76.6080 
Y76.4060 
X-19.3534 Y76.3173 
X-19.4213 Y76.2494 
X-24.1054 Y71.5653 
X-24.0531 Y71.4870 
X-23.9947 Y71.3460 
X-23.9649 Y71.1963 
Y71.0437 
X-23.9947 Y70.8940 
X-24.0531 Y70.7530 
X-24.1379 Y70.6262 
G00 Z2.5400 
G00 X-24.1379 Y73.1662 
G01 Z-0.1778 F254.00 
G01 X-24.2458 Y73.0583 F508.00 
G01 X-24.3726 Y72.9735 
X-24.5136 Y72.9151 
X-24.6633 Y72.8853 
X-26.1367 
X-26.2864 Y72.9151 
X-26.4274 Y72.9735 
X-26.5542 Y73.0583 
X-26.6621 Y73.1662 
X-26.7469 Y73.2930 
X-26.7990 Y73.4187 
X-35.7140 
X-37.5598 Y71.5730 
X-37.4947 Y71.4159 
X-37.4557 Y71.2199 
Y71.0201 
X-37.4947 Y70.8241 
X-37.5711 Y70.6395 
X-37.6821 Y70.4734 
X-37.8234 Y70.3321 
X-37.9895 Y70.2211 
X-38.1741 Y70.1447 
X-38.3701 Y70.1057 
X-40.3699 
X-40.5659 Y70.1447 
X-40.7505 Y70.2211 
X-40.9166 Y70.3321 
X-41.0579 Y70.4734 
X-41.1689 Y70.6395 
X-41.2453 Y70.8241 
X-41.2843 Y71.0201 
Y71.2199 
X-41.2453 Y71.4159 
X-41.1689 Y71.6004 
X-41.0579 Y71.7666 
X-40.9166 Y71.9079 
X-40.7505 Y72.0189 
X-40.5659 Y72.0953 
X-40.3699 Y72.1343 
X-38.3701 
X-38.1741 Y72.0953 
X-37.9895 Y72.0189 
X-37.8738 Y71.9415 
X-35.9507 Y73.8646 
X-35.8620 Y73.9013 
X-26.7990 
X-26.7469 Y74.0270 
X-26.6621 Y74.1538 
X-26.5542 Y74.2617 
X-26.4274 Y74.3465 
X-26.2864 Y74.4049 
X-26.1367 Y74.4347 
X-24.6633 
X-24.5136 Y74.4049 
X-24.3726 Y74.3465 
X-24.2458 Y74.2617 
X-24.1379 Y74.1538 
X-24.0531 Y74.0270 
X-23.9947 Y73.8860 
X-23.9649 Y73.7363 
Y73.5837 
X-23.9947 Y73.4340 
X-24.0531 Y73.2930 
X-24.1379 Y73.1662 
G00 Z2.5400 
G00 X-36.8427 Y73.1040 
G01 Z-0.1778 F254.00 
G01 X-36.8794 Y73.0153 F508.00 
G01 X-37.6414 Y72.2533 
X-37.7093 Y72.1854 
X-37.7980 Y72.1487 
X-41.5560 
X-42.7214 Y70.9833 
X-42.7893 Y70.9154 
X-42.8780 Y70.8787 
X-45.8740 
X-46.4947 Y70.2580 
Y66.6225 
X-46.2602 Y66.8570 
X-46.3253 Y67.0141 
X-46.3643 Y67.2101 
Y67.4099 
X-46.3253 Y67.6059 
X-46.2489 Y67.7905 
X-46.1379 Y67.9566 
X-45.9966 Y68.0979 
X-45.8304 Y68.2089 
X-45.6459 Y68.2853 
X-45.4499 Y68.3243 
X-43.4501 
X-43.2541 Y68.2853 
X-43.0695 Y68.2089 
X-42.9034 Y68.0979 
X-42.7621 Y67.9566 
X-42.6511 Y67.7905 
X-42.5747 Y67.6059 
X-42.5357 Y67.4099 
Y67.2101 
X-42.5747 Y67.0141 
X-42.6511 Y66.8295 
X-42.7621 Y66.6634 
X-42.9034 Y66.5221 
X-43.0695 Y66.4111 
X-43.2541 Y66.3347 
X-43.4501 Y66.2957 
X-45.4499 
X-45.6459 Y66.3347 
X-45.8304 Y66.4111 
X-45.9462 Y66.4885 
X-46.5314 Y65.9033 
X-46.5993 Y65.8354 
X-55.3847 Y57.0500 
Y43.1320 
X-55.4214 Y43.0433 
X-56.6914 Y41.7733 
X-56.7593 Y41.7054 
X-56.8480 Y41.6687 
X-65.4575 
X-62.1300 Y38.3413 
X-60.3062 
X-60.2953 Y38.3959 
X-60.2189 Y38.5804 
X-60.1079 Y38.7466 
X-59.9666 Y38.8879 
X-59.8004 Y38.9989 
X-59.6159 Y39.0753 
X-59.4199 Y39.1143 
X-57.4201 
X-57.2241 Y39.0753 
X-57.0395 Y38.9989 
X-56.8734 Y38.8879 
X-56.7321 Y38.7466 
X-56.6211 Y38.5804 
X-56.5447 Y38.3959 
X-56.5057 Y38.1999 
Y38.0001 
X-56.5447 Y37.8041 
X-56.6211 Y37.6195 
X-56.7321 Y37.4534 
X-56.8734 Y37.3121 
X-57.0395 Y37.2011 
X-57.2241 Y37.1247 
X-57.4201 Y37.0857 
X-59.4199 
X-59.6159 Y37.1247 
X-59.8004 Y37.2011 
X-59.9666 Y37.3121 
X-60.1079 Y37.4534 
X-60.2189 Y37.6195 
X-60.2953 Y37.8041 
X-60.3062 Y37.8587 
X-62.1300 
X-66.6925 Y33.2962 
Y32.4941 
X-66.7099 Y32.4521 
X-66.7421 Y32.4199 
X-66.7841 Y32.4025 
X-67.8359 
X-67.8779 Y32.4199 
X-67.9101 Y32.4521 
X-67.9275 Y32.4941 
Y33.5459 
X-67.9101 Y33.5879 
X-67.8779 Y33.6201 
X-67.8359 Y33.6375 
X-67.0337 
X-62.5712 Y38.1000 
X-66.1767 Y41.7054 
X-66.2446 Y41.7733 
X-74.2436 Y49.7724 
X-74.3282 Y49.6458 
X-74.4362 Y49.5378 
X-74.5630 Y49.4531 
X-74.7040 Y49.3947 
X-74.8537 Y49.3649 
X-75.0063 
X-75.1560 Y49.3947 
X-75.2970 Y49.4531 
X-75.4238 Y49.5378 
X-75.5317 Y49.6458 
X-75.6165 Y49.7726 
X-75.6749 Y49.9136 
X-75.7047 Y50.0633 
Y50.5587 
X-77.9653 
Y50.0633 
X-77.9951 Y49.9136 
X-78.0535 Y49.7726 
X-78.1382 Y49.6458 
X-78.2462 Y49.5378 
X-78.3730 Y49.4531 
X-78.5140 Y49.3947 
X-78.6637 Y49.3649 
X-78.8163 
X-78.9660 Y49.3947 
X-79.1070 Y49.4531 
X-79.2338 Y49.5378 
X-79.3417 Y49.6458 
X-79.4265 Y49.7726 
X-79.4849 Y49.9136 
X-79.5147 Y50.0633 
Y50.5587 
X-81.7753 
Y50.0633 
X-81.8051 Y49.9136 
X-81.8635 Y49.7726 
X-81.9483 Y49.6458 
X-82.0562 Y49.5378 
X-82.1830 Y49.4531 
X-82.3240 Y49.3947 
X-82.4737 Y49.3649 
X-82.6263 
X-82.7760 Y49.3947 
X-82.9170 Y49.4531 
X-83.0438 Y49.5378 
X-83.1517 Y49.6458 
X-83.2365 Y49.7726 
X-83.2949 Y49.9136 
X-83.3247 Y50.0633 
Y50.5587 
X-85.5853 
Y50.0633 
X-85.6151 Y49.9136 
X-85.6735 Y49.7726 
X-85.7583 Y49.6458 
X-85.8662 Y49.5378 
X-85.9930 Y49.4531 
X-86.1340 Y49.3947 
X-86.2837 Y49.3649 
X-86.4363 
X-86.5860 Y49.3947 
X-86.7270 Y49.4531 
X-86.8538 Y49.5378 
X-86.9617 Y49.6458 
X-87.0465 Y49.7726 
X-87.1049 Y49.9136 
X-87.1347 Y50.0633 
Y51.5367 
X-87.1049 Y51.6864 
X-87.0465 Y51.8274 
X-86.9617 Y51.9542 
X-86.8538 Y52.0621 
X-86.7270 Y52.1469 
X-86.5860 Y52.2053 
X-86.4363 Y52.2351 
X-86.2837 
X-86.1340 Y52.2053 
X-85.9930 Y52.1469 
X-85.8662 Y52.0621 
X-85.7583 Y51.9542 
X-85.6735 Y51.8274 
X-85.6151 Y51.6864 
X-85.5853 Y51.5367 
Y51.0413 
X-83.3247 
Y51.5367 
X-83.2949 Y51.6864 
X-83.2365 Y51.8274 
X-83.1517 Y51.9542 
X-83.0438 Y52.0621 
X-82.9170 Y52.1469 
X-82.7760 Y52.2053 
X-82.6263 Y52.2351 
X-82.4737 
X-82.3240 Y52.2053 
X-82.1830 Y52.1469 
X-82.0562 Y52.0621 
X-81.9483 Y51.9542 
X-81.8635 Y51.8274 
X-81.8051 Y51.6864 
X-81.7753 Y51.5367 
Y51.0413 
X-79.5147 
Y51.5367 
X-79.4849 Y51.6864 
X-79.4265 Y51.8274 
X-79.3417 Y51.9542 
X-79.2338 Y52.0621 
X-79.1070 Y52.1469 
X-78.9660 Y52.2053 
X-78.8163 Y52.2351 
X-78.6637 
X-78.5140 Y52.2053 
X-78.3730 Y52.1469 
X-78.2462 Y52.0621 
X-78.1382 Y51.9542 
X-78.0535 Y51.8274 
X-77.9951 Y51.6864 
X-77.9653 Y51.5367 
Y51.0413 
X-75.7047 
Y51.5367 
X-75.6749 Y51.6864 
X-75.6165 Y51.8274 
X-75.5317 Y51.9542 
X-75.4238 Y52.0621 
X-75.2970 Y52.1469 
X-75.1560 Y52.2053 
X-75.0063 Y52.2351 
X-74.8537 
X-74.7040 Y52.2053 
X-74.5630 Y52.1469 
X-74.4362 Y52.0621 
X-74.3282 Y51.9542 
X-74.2435 Y51.8274 
X-74.1851 Y51.6864 
X-74.1553 Y51.5367 
Y50.3665 
X-65.9400 Y42.1513 
X-56.9960 
X-55.8673 Y43.2799 
Y57.1980 
X-55.8306 Y57.2867 
X-55.7627 Y57.3546 
X-46.9773 Y66.1399 
Y70.4060 
X-46.9406 Y70.4947 
X-46.8727 Y70.5626 
X-46.1107 Y71.3246 
X-46.0220 Y71.3613 
X-43.0260 
X-41.7927 Y72.5946 
X-41.7040 Y72.6313 
X-37.9460 
X-37.3253 Y73.2519 
Y74.0680 
X-37.9460 Y74.6887 
X-40.9420 
X-41.0307 Y74.7254 
X-41.0986 Y74.7933 
X-43.5339 Y77.2287 
X-57.6453 
Y76.7333 
X-57.6751 Y76.5836 
X-57.7335 Y76.4426 
X-57.8182 Y76.3158 
X-57.9262 Y76.2078 
X-58.0530 Y76.1231 
X-58.1940 Y76.0647 
X-58.3437 Y76.0349 
X-58.4963 
X-58.6460 Y76.0647 
X-58.7870 Y76.1231 
X-58.9138 Y76.2078 
X-59.0217 Y76.3158 
X-59.1065 Y76.4426 
X-59.1649 Y76.5836 
X-59.1947 Y76.7333 
Y77.2287 
X-61.4553 
Y76.7333 
X-61.4851 Y76.5836 
X-61.5435 Y76.4426 
X-61.6283 Y76.3158 
X-61.7362 Y76.2078 
X-61.8630 Y76.1231 
X-62.0040 Y76.0647 
X-62.1537 Y76.0349 
X-62.3063 
X-62.4560 Y76.0647 
X-62.5970 Y76.1231 
X-62.7238 Y76.2078 
X-62.8317 Y76.3158 
X-62.9165 Y76.4426 
X-62.9749 Y76.5836 
X-63.0047 Y76.7333 
Y77.2287 
X-65.2653 
Y76.7333 
X-65.2951 Y76.5836 
X-65.3535 Y76.4426 
X-65.4382 Y76.3158 
X-65.5462 Y76.2078 
X-65.6730 Y76.1231 
X-65.8140 Y76.0647 
X-65.9637 Y76.0349 
X-66.1163 
X-66.2660 Y76.0647 
X-66.4070 Y76.1231 
X-66.5338 Y76.2078 
X-66.6417 Y76.3158 
X-66.7265 Y76.4426 
X-66.7849 Y76.5836 
X-66.8147 Y76.7333 
Y77.2287 
X-69.0753 
Y76.7333 
X-69.1051 Y76.5836 
X-69.1635 Y76.4426 
X-69.2482 Y76.3158 
X-69.3562 Y76.2078 
X-69.4830 Y76.1231 
X-69.6240 Y76.0647 
X-69.7737 Y76.0349 
X-69.9263 
X-70.0760 Y76.0647 
X-70.2170 Y76.1231 
X-70.3438 Y76.2078 
X-70.4517 Y76.3158 
X-70.5365 Y76.4426 
X-70.5949 Y76.5836 
X-70.6247 Y76.7333 
Y77.9035 
X-71.2199 Y78.4987 
X-82.9580 
X-85.4613 Y75.9954 
X-85.5500 Y75.9587 
X-86.5251 
Y75.1224 
X-86.5523 Y74.9507 
X-86.6060 Y74.7853 
X-86.6850 Y74.6303 
X-86.7872 Y74.4896 
X-86.9102 Y74.3666 
X-87.0509 Y74.2644 
X-87.2059 Y74.1855 
X-87.3713 Y74.1317 
X-87.5430 Y74.1045 
X-87.7170 
X-87.8887 Y74.1317 
X-88.0541 Y74.1855 
X-88.2091 Y74.2644 
X-88.3498 Y74.3666 
X-88.4728 Y74.4896 
X-88.5750 Y74.6303 
X-88.6539 Y74.7853 
X-88.7077 Y74.9507 
X-88.7349 Y75.1224 
Y77.2776 
X-88.7077 Y77.4493 
X-88.6539 Y77.6147 
X-88.5750 Y77.7697 
X-88.4728 Y77.9104 
X-88.3498 Y78.0334 
X-88.2091 Y78.1356 
X-88.0541 Y78.2145 
X-87.8887 Y78.2683 
X-87.7170 Y78.2955 
X-87.5430 
X-87.3713 Y78.2683 
X-87.2059 Y78.2145 
X-87.0509 Y78.1356 
X-86.9102 Y78.0334 
X-86.7872 Y77.9104 
X-86.6850 Y77.7697 
X-86.6060 Y77.6147 
X-86.5523 Y77.4493 
X-86.5251 Y77.2776 
Y76.4413 
X-85.6980 
X-83.1947 Y78.9446 
X-83.1060 Y78.9813 
X-71.0720 
X-70.9833 Y78.9446 
X-70.5364 Y78.4976 
X-70.4517 Y78.6242 
X-70.3438 Y78.7321 
X-70.2170 Y78.8169 
X-70.0760 Y78.8753 
X-69.9263 Y78.9051 
X-69.7737 
X-69.6240 Y78.8753 
X-69.4830 Y78.8169 
X-69.3562 Y78.7321 
X-69.2482 Y78.6242 
X-69.1635 Y78.4974 
X-69.1051 Y78.3564 
X-69.0753 Y78.2067 
Y77.7113 
X-66.8147 
Y78.2067 
X-66.7849 Y78.3564 
X-66.7265 Y78.4974 
X-66.6417 Y78.6242 
X-66.5338 Y78.7321 
X-66.4070 Y78.8169 
X-66.2660 Y78.8753 
X-66.1163 Y78.9051 
X-65.9637 
X-65.8140 Y78.8753 
X-65.6730 Y78.8169 
X-65.5462 Y78.7321 
X-65.4382 Y78.6242 
X-65.3535 Y78.4974 
X-65.2951 Y78.3564 
X-65.2653 Y78.2067 
Y77.7113 
X-63.0047 
Y78.2067 
X-62.9749 Y78.3564 
X-62.9165 Y78.4974 
X-62.8317 Y78.6242 
X-62.7238 Y78.7321 
X-62.5970 Y78.8169 
X-62.4560 Y78.8753 
X-62.3063 Y78.9051 
X-62.1537 
X-62.0040 Y78.8753 
X-61.8630 Y78.8169 
X-61.7362 Y78.7321 
X-61.6283 Y78.6242 
X-61.5435 Y78.4974 
X-61.4851 Y78.3564 
X-61.4553 Y78.2067 
Y77.7113 
X-59.1947 
Y78.2067 
X-59.1649 Y78.3564 
X-59.1065 Y78.4974 
X-59.0217 Y78.6242 
X-58.9138 Y78.7321 
X-58.7870 Y78.8169 
X-58.6460 Y78.8753 
X-58.4963 Y78.9051 
X-58.3437 
X-58.1940 Y78.8753 
X-58.0530 Y78.8169 
X-57.9262 Y78.7321 
X-57.8182 Y78.6242 
X-57.7335 Y78.4974 
X-57.6751 Y78.3564 
X-57.6453 Y78.2067 
Y77.7113 
X-43.3860 
X-43.2973 Y77.6746 
X-40.7940 Y75.1713 
X-37.7980 
X-37.7093 Y75.1346 
X-36.9473 Y74.3726 
X-36.8794 Y74.3047 
X-36.8427 Y74.2160 
Y73.1040 
G00 Z2.5400 
G00 X-37.5711 Y73.1795 
G01 Z-0.1778 F254.00 
G01 X-37.6821 Y73.0134 F508.00 
G01 X-37.8234 Y72.8721 
X-37.9895 Y72.7611 
X-38.1741 Y72.6847 
X-38.3701 Y72.6457 
X-40.3699 
X-40.5659 Y72.6847 
X-40.7505 Y72.7611 
X-40.9166 Y72.8721 
X-41.0579 Y73.0134 
X-41.1689 Y73.1795 
X-41.2453 Y73.3641 
X-41.2562 Y73.4187 
X-45.8740 
X-57.7074 Y61.5853 
X-57.7753 Y61.5174 
X-57.8640 Y61.4807 
X-60.5000 
X-60.5887 Y61.5174 
X-61.5436 Y62.4724 
X-61.6283 Y62.3458 
X-61.7362 Y62.2379 
X-61.8630 Y62.1531 
X-62.0040 Y62.0947 
X-62.1537 Y62.0649 
X-62.3063 
X-62.4560 Y62.0947 
X-62.5970 Y62.1531 
X-62.7238 Y62.2379 
X-62.8317 Y62.3458 
X-62.9165 Y62.4726 
X-62.9749 Y62.6136 
X-63.0047 Y62.7633 
Y64.2367 
X-62.9749 Y64.3864 
X-62.9165 Y64.5274 
X-62.8317 Y64.6542 
X-62.7238 Y64.7621 
X-62.5970 Y64.8469 
X-62.4713 Y64.8990 
Y65.9110 
X-62.5970 Y65.9631 
X-62.7238 Y66.0478 
X-62.8317 Y66.1558 
X-62.9165 Y66.2826 
X-62.9749 Y66.4236 
X-63.0047 Y66.5733 
Y67.7434 
X-64.6159 Y69.3547 
X-70.5120 
X-71.4913 Y68.3754 
X-71.5800 Y68.3387 
X-75.8625 
X-75.8654 Y68.3244 
X-75.9314 Y68.1649 
X-76.0273 Y68.0214 
X-76.1494 Y67.8993 
X-76.2929 Y67.8034 
X-76.4524 Y67.7374 
X-76.6217 Y67.7037 
X-78.3183 
X-78.4876 Y67.7374 
X-78.6471 Y67.8034 
X-78.7906 Y67.8993 
X-78.9127 Y68.0214 
X-79.0086 Y68.1649 
X-79.0746 Y68.3244 
X-79.1083 Y68.4937 
Y68.6663 
X-79.0746 Y68.8356 
X-79.0086 Y68.9951 
X-78.9127 Y69.1386 
X-78.7906 Y69.2607 
X-78.6471 Y69.3566 
X-78.4876 Y69.4226 
X-78.3183 Y69.4563 
X-76.6217 
X-76.4524 Y69.4226 
X-76.2929 Y69.3566 
X-76.1494 Y69.2607 
X-76.0273 Y69.1386 
X-75.9314 Y68.9951 
X-75.8654 Y68.8356 
X-75.8625 Y68.8213 
X-71.7280 
X-70.8166 Y69.7327 
X-70.7487 Y69.8006 
X-70.6600 Y69.8373 
X-64.4680 
X-64.3793 Y69.8006 
X-62.9164 Y68.3376 
X-62.8317 Y68.4642 
X-62.7238 Y68.5721 
X-62.5970 Y68.6569 
X-62.4560 Y68.7153 
X-62.3063 Y68.7451 
X-62.1537 
X-62.0040 Y68.7153 
X-61.8630 Y68.6569 
X-61.7362 Y68.5721 
X-61.6283 Y68.4642 
X-61.5435 Y68.3374 
X-61.4851 Y68.1964 
X-61.4553 Y68.0467 
Y66.5733 
X-61.4851 Y66.4236 
X-61.5435 Y66.2826 
X-61.6283 Y66.1558 
X-61.7362 Y66.0478 
X-61.8630 Y65.9631 
X-61.9887 Y65.9110 
Y64.8990 
X-61.8630 Y64.8469 
X-61.7362 Y64.7621 
X-61.6283 Y64.6542 
X-61.5435 Y64.5274 
X-61.4851 Y64.3864 
X-61.4553 Y64.2367 
Y63.0665 
X-60.3520 Y61.9633 
X-58.0119 
X-46.1107 Y73.8646 
X-46.0220 Y73.9013 
X-41.2562 
X-41.2453 Y73.9559 
X-41.1689 Y74.1405 
X-41.0579 Y74.3066 
X-40.9166 Y74.4479 
X-40.7505 Y74.5589 
X-40.5659 Y74.6353 
X-40.3699 Y74.6743 
X-38.3701 
X-38.1741 Y74.6353 
X-37.9895 Y74.5589 
X-37.8234 Y74.4479 
X-37.6821 Y74.3066 
X-37.5711 Y74.1405 
X-37.4947 Y73.9559 
X-37.4557 Y73.7599 
Y73.5601 
X-37.4947 Y73.3641 
X-37.5711 Y73.1795 
G00 Z2.5400 
G00 X-37.6821 Y75.5534 
G01 Z-0.1778 F254.00 
G01 X-37.8234 Y75.4121 F508.00 
G01 X-37.9895 Y75.3011 
X-38.1741 Y75.2247 
X-38.3701 Y75.1857 
X-40.3699 
X-40.5659 Y75.2247 
X-40.7505 Y75.3011 
X-40.9166 Y75.4121 
X-41.0579 Y75.5534 
X-41.1689 Y75.7195 
X-41.2453 Y75.9041 
X-41.2843 Y76.1001 
Y76.2999 
X-41.2453 Y76.4959 
X-41.1689 Y76.6804 
X-41.0579 Y76.8466 
X-40.9166 Y76.9879 
X-40.7505 Y77.0989 
X-40.5659 Y77.1753 
X-40.3699 Y77.2143 
X-38.3701 
X-38.1741 Y77.1753 
X-37.9895 Y77.0989 
X-37.8234 Y76.9879 
X-37.6821 Y76.8466 
X-37.5711 Y76.6804 
X-37.4947 Y76.4959 
X-37.4557 Y76.2999 
Y76.1001 
X-37.4947 Y75.9041 
X-37.5711 Y75.7195 
X-37.6821 Y75.5534 
G00 Z2.5400 
G00 X-42.7621 Y75.5766 
G01 Z-0.1778 F254.00 
G01 X-42.6511 Y75.4104 F508.00 
G01 X-42.5747 Y75.2259 
X-42.5357 Y75.0299 
Y74.8301 
X-42.5747 Y74.6341 
X-42.6511 Y74.4495 
X-42.7621 Y74.2834 
X-42.9034 Y74.1421 
X-43.0695 Y74.0311 
X-43.2541 Y73.9547 
X-43.4501 Y73.9157 
X-45.4499 
X-45.6459 Y73.9547 
X-45.8304 Y74.0311 
X-45.9966 Y74.1421 
X-46.1379 Y74.2834 
X-46.2489 Y74.4495 
X-46.3253 Y74.6341 
X-46.3362 Y74.6887 
X-50.7000 
X-57.6453 Y67.7434 
Y66.5733 
X-57.6751 Y66.4236 
X-57.7335 Y66.2826 
X-57.8182 Y66.1558 
X-57.9262 Y66.0478 
X-58.0530 Y65.9631 
X-58.1787 Y65.9110 
Y64.8990 
X-58.0530 Y64.8469 
X-57.9262 Y64.7621 
X-57.8182 Y64.6542 
X-57.7335 Y64.5274 
X-57.6751 Y64.3864 
X-57.6453 Y64.2367 
Y62.7633 
X-57.6751 Y62.6136 
X-57.7335 Y62.4726 
X-57.8182 Y62.3458 
X-57.9262 Y62.2379 
X-58.0530 Y62.1531 
X-58.1940 Y62.0947 
X-58.3437 Y62.0649 
X-58.4963 
X-58.6460 Y62.0947 
X-58.7870 Y62.1531 
X-58.9138 Y62.2379 
X-59.0217 Y62.3458 
X-59.1065 Y62.4726 
X-59.1649 Y62.6136 
X-59.1947 Y62.7633 
Y64.2367 
X-59.1649 Y64.3864 
X-59.1065 Y64.5274 
X-59.0217 Y64.6542 
X-58.9138 Y64.7621 
X-58.7870 Y64.8469 
X-58.6613 Y64.8990 
Y65.9110 
X-58.7870 Y65.9631 
X-58.9138 Y66.0478 
X-59.0217 Y66.1558 
X-59.1065 Y66.2826 
X-59.1649 Y66.4236 
X-59.1947 Y66.5733 
Y67.7434 
X-62.3299 Y70.8787 
X-75.8625 
X-75.8654 Y70.8644 
X-75.9314 Y70.7049 
X-76.0273 Y70.5614 
X-76.1494 Y70.4393 
X-76.2929 Y70.3434 
X-76.4524 Y70.2774 
X-76.6217 Y70.2437 
X-78.3183 
X-78.4876 Y70.2774 
X-78.6471 Y70.3434 
X-78.7906 Y70.4393 
X-78.9127 Y70.5614 
X-79.0086 Y70.7049 
X-79.0746 Y70.8644 
X-79.1083 Y71.0337 
Y71.2063 
X-79.0746 Y71.3756 
X-79.0086 Y71.5351 
X-78.9127 Y71.6786 
X-78.7906 Y71.8007 
X-78.6471 Y71.8966 
X-78.4876 Y71.9626 
X-78.3183 Y71.9963 
X-76.6217 
X-76.4524 Y71.9626 
X-76.2929 Y71.8966 
X-76.1494 Y71.8007 
X-76.0273 Y71.6786 
X-75.9314 Y71.5351 
X-75.8654 Y71.3756 
X-75.8625 Y71.3613 
X-62.1820 
X-62.0933 Y71.3246 
X-59.1064 Y68.3376 
X-59.0217 Y68.4642 
X-58.9138 Y68.5721 
X-58.7870 Y68.6569 
X-58.6460 Y68.7153 
X-58.4963 Y68.7451 
X-58.3437 
X-58.1940 Y68.7153 
X-58.0530 Y68.6569 
X-57.9262 Y68.5721 
X-57.8182 Y68.4642 
X-57.7336 Y68.3376 
X-50.9367 Y75.1346 
X-50.8480 Y75.1713 
X-46.3362 
X-46.3253 Y75.2259 
X-46.2489 Y75.4104 
X-46.1379 Y75.5766 
X-45.9966 Y75.7179 
X-45.8304 Y75.8289 
X-45.6459 Y75.9053 
X-45.4499 Y75.9443 
X-43.4501 
X-43.2541 Y75.9053 
X-43.0695 Y75.8289 
X-42.9034 Y75.7179 
X-42.7621 Y75.5766 
G00 Z2.5400 
G00 X-42.1146 Y61.0967 
G01 Z-0.1778 F254.00 
G01 X-42.0467 Y61.1646 F508.00 
G01 X-41.9580 Y61.2013 
X-41.2562 
X-41.2453 Y61.2559 
X-41.1689 Y61.4404 
X-41.0579 Y61.6066 
X-40.9166 Y61.7479 
X-40.7505 Y61.8589 
X-40.5659 Y61.9353 
X-40.3699 Y61.9743 
X-38.3701 
X-38.1741 Y61.9353 
X-37.9895 Y61.8589 
X-37.8234 Y61.7479 
X-37.6821 Y61.6066 
X-37.5711 Y61.4404 
X-37.4947 Y61.2559 
X-37.4557 Y61.0599 
Y60.8601 
X-37.4947 Y60.6641 
X-37.5711 Y60.4795 
X-37.6821 Y60.3134 
X-37.8234 Y60.1721 
X-37.9895 Y60.0611 
X-38.1741 Y59.9847 
X-38.3701 Y59.9457 
X-40.3699 
X-40.5659 Y59.9847 
X-40.7505 Y60.0611 
X-40.9166 Y60.1721 
X-41.0579 Y60.3134 
X-41.1689 Y60.4795 
X-41.2453 Y60.6641 
X-41.2562 Y60.7187 
X-41.6687 
Y58.0215 
X-41.3841 
X-41.3421 Y58.0041 
X-41.3099 Y57.9719 
X-41.2925 Y57.9299 
Y56.8781 
X-41.3099 Y56.8361 
X-41.3421 Y56.8039 
X-41.3841 Y56.7865 
X-42.4359 
X-42.4779 Y56.8039 
X-42.5101 Y56.8361 
X-42.5275 Y56.8781 
Y57.9299 
X-42.5101 Y57.9719 
X-42.4779 Y58.0041 
X-42.4359 Y58.0215 
X-42.1513 
Y61.0080 
X-42.1146 Y61.0967 
G00 Z2.5400 
G00 X-42.9034 Y60.4779 
G01 Z-0.1778 F254.00 
G01 X-42.7621 Y60.3366 F508.00 
G01 X-42.6511 Y60.1705 
X-42.5747 Y59.9859 
X-42.5357 Y59.7899 
Y59.5901 
X-42.5747 Y59.3941 
X-42.6511 Y59.2095 
X-42.7621 Y59.0434 
X-42.9034 Y58.9021 
X-43.0695 Y58.7911 
X-43.2541 Y58.7147 
X-43.4501 Y58.6757 
X-44.2087 
Y57.0055 
X-43.9241 
X-43.8821 Y56.9881 
X-43.8499 Y56.9559 
X-43.8325 Y56.9139 
Y55.8621 
X-43.8499 Y55.8201 
X-43.8821 Y55.7879 
X-43.9241 Y55.7705 
X-44.9759 
X-45.0179 Y55.7879 
X-45.0501 Y55.8201 
X-45.0675 Y55.8621 
Y56.9139 
X-45.0501 Y56.9559 
X-45.0179 Y56.9881 
X-44.9759 Y57.0055 
X-44.6913 
Y58.6757 
X-45.4499 
X-45.6459 Y58.7147 
X-45.8304 Y58.7911 
X-45.9966 Y58.9021 
X-46.1379 Y59.0434 
X-46.2489 Y59.2095 
X-46.3253 Y59.3941 
X-46.3643 Y59.5901 
Y59.7899 
X-46.3253 Y59.9859 
X-46.2489 Y60.1705 
X-46.1379 Y60.3366 
X-45.9966 Y60.4779 
X-45.8304 Y60.5889 
X-45.6459 Y60.6653 
X-45.4499 Y60.7043 
X-43.4501 
X-43.2541 Y60.6653 
X-43.0695 Y60.5889 
X-42.9034 Y60.4779 
G00 Z2.5400 
G00 X-41.0579 Y59.0666 
G01 Z-0.1778 F254.00 
G01 X-40.9166 Y59.2079 F508.00 
G01 X-40.7505 Y59.3189 
X-40.5659 Y59.3953 
X-40.3699 Y59.4343 
X-38.3701 
X-38.1741 Y59.3953 
X-37.9895 Y59.3189 
X-37.8234 Y59.2079 
X-37.6821 Y59.0666 
X-37.5711 Y58.9004 
X-37.4947 Y58.7159 
X-37.4557 Y58.5199 
Y58.3201 
X-37.4947 Y58.1241 
X-37.5711 Y57.9395 
X-37.6821 Y57.7734 
X-37.8234 Y57.6321 
X-37.9895 Y57.5211 
X-38.1741 Y57.4447 
X-38.3701 Y57.4057 
X-40.3699 
X-40.5659 Y57.4447 
X-40.7505 Y57.5211 
X-40.9166 Y57.6321 
X-41.0579 Y57.7734 
X-41.1689 Y57.9395 
X-41.2453 Y58.1241 
X-41.2843 Y58.3201 
Y58.5199 
X-41.2453 Y58.7159 
X-41.1689 Y58.9004 
X-41.0579 Y59.0666 
G00 Z2.5400 
G00 X-48.9299 Y59.1221 
G01 Z-0.1778 F254.00 
G01 X-48.9621 Y59.0899 F508.00 
G01 X-49.0041 Y59.0725 
X-49.2887 
Y57.7580 
X-48.3695 Y56.8387 
Y56.9139 
X-48.3521 Y56.9559 
X-48.3199 Y56.9881 
X-48.2779 Y57.0055 
X-47.2261 
X-47.1841 Y56.9881 
X-47.1519 Y56.9559 
X-47.1345 Y56.9139 
Y55.8621 
X-47.1519 Y55.8201 
X-47.1841 Y55.7879 
X-47.2261 Y55.7705 
X-48.2779 
X-48.3199 Y55.7879 
X-48.3521 Y55.8201 
X-48.3695 Y55.8621 
Y56.1722 
X-48.3967 Y56.1834 
X-48.4646 Y56.2513 
X-49.6667 Y57.4534 
X-49.7346 Y57.5213 
X-49.7713 Y57.6100 
Y59.0725 
X-50.0559 
X-50.0979 Y59.0899 
X-50.1301 Y59.1221 
X-50.1475 Y59.1641 
Y60.2159 
X-50.1301 Y60.2579 
X-50.0979 Y60.2901 
X-50.0559 Y60.3075 
X-49.0041 
X-48.9621 Y60.2901 
X-48.9299 Y60.2579 
X-48.9125 Y60.2159 
Y59.1641 
X-48.9299 Y59.1221 
G00 Z2.5400 
G00 X-49.9781 Y58.0041 
G01 Z-0.1778 F254.00 
G01 X-49.9459 Y57.9719 F508.00 
G01 X-49.9285 Y57.9299 
Y56.8781 
X-49.9459 Y56.8361 
X-49.9781 Y56.8039 
X-50.0201 Y56.7865 
X-51.0719 
X-51.1139 Y56.8039 
X-51.1461 Y56.8361 
X-51.1635 Y56.8781 
Y57.9299 
X-51.1461 Y57.9719 
X-51.1139 Y58.0041 
X-51.0719 Y58.0215 
X-50.0201 
X-49.9781 Y58.0041 
G00 Z2.5400 
G00 X-49.5121 Y56.2435 
G01 Z-0.1778 F254.00 
G01 X-49.4701 Y56.2261 F508.00 
G01 X-49.4379 Y56.1939 
X-49.4205 Y56.1519 
Y55.1001 
X-49.4379 Y55.0581 
X-49.4701 Y55.0259 
X-49.5121 Y55.0085 
X-50.0507 
Y45.3120 
X-49.9013 Y45.1626 
X-49.8334 Y45.0947 
X-49.7967 Y45.0060 
Y43.1320 
X-49.8334 Y43.0433 
X-51.1034 Y41.7733 
X-51.1713 Y41.7054 
X-51.2600 Y41.6687 
X-51.4538 
X-51.4647 Y41.6141 
X-51.5411 Y41.4295 
X-51.6521 Y41.2634 
X-51.7934 Y41.1221 
X-51.9595 Y41.0111 
X-52.1441 Y40.9347 
X-52.3401 Y40.8957 
X-54.3399 
X-54.5359 Y40.9347 
X-54.7204 Y41.0111 
X-54.8866 Y41.1221 
X-55.0279 Y41.2634 
X-55.1389 Y41.4295 
X-55.2153 Y41.6141 
X-55.2543 Y41.8101 
Y42.0099 
X-55.2153 Y42.2059 
X-55.1389 Y42.3905 
X-55.0279 Y42.5566 
X-54.8866 Y42.6979 
X-54.7204 Y42.8089 
X-54.5359 Y42.8853 
X-54.3399 Y42.9243 
X-52.3401 
X-52.1441 Y42.8853 
X-51.9595 Y42.8089 
X-51.7934 Y42.6979 
X-51.6521 Y42.5566 
X-51.5411 Y42.3905 
X-51.4647 Y42.2059 
X-51.4538 Y42.1513 
X-51.4079 
X-50.2793 Y43.2799 
Y44.8580 
X-50.4966 Y45.0753 
X-50.5333 Y45.1640 
Y55.0085 
X-50.5639 
X-50.6059 Y55.0259 
X-50.6381 Y55.0581 
X-50.6555 Y55.1001 
Y56.1519 
X-50.6381 Y56.1939 
X-50.6059 Y56.2261 
X-50.5639 Y56.2435 
X-49.5121 
G00 Z2.5400 
G00 X-49.8019 Y54.9735 
G01 Z-0.1778 F254.00 
G01 X-48.7501 Y54.9735 F508.00 
G01 X-48.7081 Y54.9561 
X-48.6759 Y54.9239 
X-48.6585 Y54.8819 
Y53.8301 
X-48.6759 Y53.7881 
X-48.7081 Y53.7559 
X-48.7501 Y53.7385 
X-49.2887 
Y40.9420 
Y40.8460 
X-49.3254 Y40.7573 
X-50.8494 Y39.2333 
X-50.9173 Y39.1654 
X-51.0060 Y39.1287 
X-51.4538 
X-51.4647 Y39.0741 
X-51.5411 Y38.8895 
X-51.6521 Y38.7234 
X-51.7934 Y38.5821 
X-51.9595 Y38.4711 
X-52.1441 Y38.3947 
X-52.3401 Y38.3557 
X-54.3399 
X-54.5359 Y38.3947 
X-54.7204 Y38.4711 
X-54.8866 Y38.5821 
X-55.0279 Y38.7234 
X-55.1389 Y38.8895 
X-55.2153 Y39.0741 
X-55.2543 Y39.2701 
Y39.4699 
X-55.2153 Y39.6659 
X-55.1389 Y39.8505 
X-55.0279 Y40.0166 
X-54.8866 Y40.1579 
X-54.7204 Y40.2689 
X-54.5359 Y40.3453 
X-54.3399 Y40.3843 
X-52.3401 
X-52.1441 Y40.3453 
X-51.9595 Y40.2689 
X-51.7934 Y40.1579 
X-51.6521 Y40.0166 
X-51.5411 Y39.8505 
X-51.4647 Y39.6659 
X-51.4538 Y39.6113 
X-51.1540 
X-49.7713 Y40.9939 
Y53.7385 
X-49.8019 
X-49.8439 Y53.7559 
X-49.8761 Y53.7881 
X-49.8935 Y53.8301 
Y54.8819 
X-49.8761 Y54.9239 
X-49.8439 Y54.9561 
X-49.8019 Y54.9735 
G00 Z2.5400 
G00 X-49.1141 Y53.6539 
G01 Z-0.1778 F254.00 
G01 X-49.0819 Y53.6861 F508.00 
G01 X-49.0399 Y53.7035 
X-47.9881 
X-47.9461 Y53.6861 
X-47.9139 Y53.6539 
X-47.8965 Y53.6119 
Y52.5601 
X-47.9139 Y52.5181 
X-47.9461 Y52.4859 
X-47.9881 Y52.4685 
X-48.5267 
Y36.1775 
X-48.2421 
X-48.2001 Y36.1601 
X-48.1679 Y36.1279 
X-48.1505 Y36.0859 
Y35.0341 
X-48.1679 Y34.9921 
X-48.2001 Y34.9599 
X-48.2421 Y34.9425 
X-49.2939 
X-49.3359 Y34.9599 
X-49.3681 Y34.9921 
X-49.3855 Y35.0341 
Y36.0859 
X-49.3681 Y36.1279 
X-49.3359 Y36.1601 
X-49.2939 Y36.1775 
X-49.0093 
Y52.4685 
X-49.0399 
X-49.0819 Y52.4859 
X-49.1141 Y52.5181 
X-49.1315 Y52.5601 
Y53.6119 
X-49.1141 Y53.6539 
G00 Z2.5400 
G00 X-48.3521 Y52.3839 
G01 Z-0.1778 F254.00 
G01 X-48.3199 Y52.4161 F508.00 
G01 X-48.2779 Y52.4335 
X-47.2261 
X-47.1841 Y52.4161 
X-47.1519 Y52.3839 
X-47.1345 Y52.3419 
Y51.2901 
X-47.1519 Y51.2481 
X-47.1841 Y51.2159 
X-47.2261 Y51.1985 
X-47.5107 
Y34.6535 
X-47.2261 
X-47.1841 Y34.6361 
X-47.1519 Y34.6039 
X-47.1345 Y34.5619 
Y33.5101 
X-47.1519 Y33.4681 
X-47.1841 Y33.4359 
X-47.2261 Y33.4185 
X-48.2779 
X-48.3199 Y33.4359 
X-48.3521 Y33.4681 
X-48.3695 Y33.5101 
Y34.5619 
X-48.3521 Y34.6039 
X-48.3199 Y34.6361 
X-48.2779 Y34.6535 
X-47.9933 
Y51.1985 
X-48.2779 
X-48.3199 Y51.2159 
X-48.3521 Y51.2481 
X-48.3695 Y51.2901 
Y52.3419 
X-48.3521 Y52.3839 
G00 Z2.5400 
G00 X-51.7934 Y47.7779 
G01 Z-0.1778 F254.00 
G01 X-51.6521 Y47.6366 F508.00 
G01 X-51.5411 Y47.4704 
X-51.4647 Y47.2859 
X-51.4257 Y47.0899 
Y46.8901 
X-51.4647 Y46.6941 
X-51.5411 Y46.5095 
X-51.6521 Y46.3434 
X-51.7934 Y46.2021 
X-51.9595 Y46.0911 
X-52.1441 Y46.0147 
X-52.3401 Y45.9757 
X-54.3399 
X-54.5359 Y46.0147 
X-54.7204 Y46.0911 
X-54.8866 Y46.2021 
X-55.0279 Y46.3434 
X-55.1389 Y46.5095 
X-55.2153 Y46.6941 
X-55.2543 Y46.8901 
Y47.0899 
X-55.2153 Y47.2859 
X-55.1389 Y47.4704 
X-55.0279 Y47.6366 
X-54.8866 Y47.7779 
X-54.7204 Y47.8889 
X-54.5359 Y47.9653 
X-54.3399 Y48.0043 
X-52.3401 
X-52.1441 Y47.9653 
X-51.9595 Y47.8889 
X-51.7934 Y47.7779 
G00 Z2.5400 
G00 X-51.7934 Y45.2379 
G01 Z-0.1778 F254.00 
G01 X-51.6521 Y45.0966 F508.00 
G01 X-51.6213 Y45.0504 
X-51.5799 Y45.0675 
X-50.5281 
X-50.4861 Y45.0501 
X-50.4539 Y45.0179 
X-50.4365 Y44.9759 
Y43.9241 
X-50.4539 Y43.8821 
X-50.4861 Y43.8499 
X-50.5281 Y43.8325 
X-51.5799 
X-51.6213 Y43.8496 
X-51.6521 Y43.8034 
X-51.7934 Y43.6621 
X-51.9595 Y43.5511 
X-52.1441 Y43.4747 
X-52.3401 Y43.4357 
X-54.3399 
X-54.5359 Y43.4747 
X-54.7204 Y43.5511 
X-54.8866 Y43.6621 
X-55.0279 Y43.8034 
X-55.1389 Y43.9695 
X-55.2153 Y44.1541 
X-55.2543 Y44.3501 
Y44.5499 
X-55.2153 Y44.7459 
X-55.1389 Y44.9305 
X-55.0279 Y45.0966 
X-54.8866 Y45.2379 
X-54.7204 Y45.3489 
X-54.5359 Y45.4253 
X-54.3399 Y45.4643 
X-52.3401 
X-52.1441 Y45.4253 
X-51.9595 Y45.3489 
X-51.7934 Y45.2379 
G00 Z2.5400 
G00 X-56.6211 Y45.2395 
G01 Z-0.1778 F254.00 
G01 X-56.7321 Y45.0734 F508.00 
G01 X-56.8734 Y44.9321 
X-57.0395 Y44.8211 
X-57.2241 Y44.7447 
X-57.4201 Y44.7057 
X-59.4199 
X-59.6159 Y44.7447 
X-59.8004 Y44.8211 
X-59.9666 Y44.9321 
X-60.1079 Y45.0734 
X-60.2189 Y45.2395 
X-60.2953 Y45.4241 
X-60.3343 Y45.6201 
Y45.8199 
X-60.2953 Y46.0159 
X-60.2189 Y46.2004 
X-60.1079 Y46.3666 
X-59.9666 Y46.5079 
X-59.8004 Y46.6189 
X-59.6159 Y46.6953 
X-59.4199 Y46.7343 
X-58.6613 
Y51.1020 
X-58.6246 Y51.1907 
X-57.6453 Y52.1700 
Y54.5100 
X-58.0119 Y54.8767 
X-84.2280 
X-87.1347 Y51.9700 
Y43.6753 
X-77.6760 
X-77.5873 Y43.6386 
X-75.6164 Y41.6676 
X-75.5317 Y41.7942 
X-75.4238 Y41.9021 
X-75.2970 Y41.9869 
X-75.1560 Y42.0453 
X-75.0063 Y42.0751 
X-74.8537 
X-74.7040 Y42.0453 
X-74.5630 Y41.9869 
X-74.4362 Y41.9021 
X-74.3282 Y41.7942 
X-74.2435 Y41.6674 
X-74.1851 Y41.5264 
X-74.1553 Y41.3767 
Y39.9033 
X-74.1851 Y39.7536 
X-74.2435 Y39.6126 
X-74.3282 Y39.4858 
X-74.4362 Y39.3779 
X-74.5630 Y39.2931 
X-74.6887 Y39.2410 
Y38.2290 
X-74.5630 Y38.1769 
X-74.4362 Y38.0921 
X-74.3282 Y37.9842 
X-74.2435 Y37.8574 
X-74.1851 Y37.7164 
X-74.1553 Y37.5667 
Y36.0933 
X-74.1851 Y35.9436 
X-74.2435 Y35.8026 
X-74.3282 Y35.6758 
X-74.4362 Y35.5678 
X-74.5630 Y35.4831 
X-74.6887 Y35.4310 
Y34.2420 
X-74.7254 Y34.1533 
X-74.7933 Y34.0854 
X-74.8820 Y34.0487 
X-74.9780 
X-75.0667 Y34.0854 
X-75.1346 Y34.1533 
X-75.1713 Y34.2420 
Y35.4310 
X-75.2970 Y35.4831 
X-75.4238 Y35.5678 
X-75.5317 Y35.6758 
X-75.6165 Y35.8026 
X-75.6749 Y35.9436 
X-75.7047 Y36.0933 
Y37.5667 
X-75.6749 Y37.7164 
X-75.6165 Y37.8574 
X-75.5317 Y37.9842 
X-75.4238 Y38.0921 
X-75.2970 Y38.1769 
X-75.1713 Y38.2290 
Y39.2410 
X-75.2970 Y39.2931 
X-75.4238 Y39.3779 
X-75.5317 Y39.4858 
X-75.6165 Y39.6126 
X-75.6749 Y39.7536 
X-75.7047 Y39.9033 
Y41.0734 
X-77.8239 Y43.1927 
X-87.2760 
X-87.4933 Y42.9754 
X-87.5820 Y42.9387 
X-93.6425 
X-93.6454 Y42.9244 
X-93.7114 Y42.7649 
X-93.8073 Y42.6214 
X-93.9294 Y42.4993 
X-94.0729 Y42.4034 
X-94.2324 Y42.3374 
X-94.4017 Y42.3037 
X-96.0983 
X-96.2676 Y42.3374 
X-96.4271 Y42.4034 
X-96.5706 Y42.4993 
X-96.6927 Y42.6214 
X-96.7886 Y42.7649 
X-96.8546 Y42.9244 
X-96.8883 Y43.0937 
Y43.2663 
X-96.8546 Y43.4356 
X-96.7886 Y43.5951 
X-96.6927 Y43.7386 
X-96.5706 Y43.8607 
X-96.4271 Y43.9566 
X-96.2676 Y44.0226 
X-96.0983 Y44.0563 
X-94.4017 
X-94.2324 Y44.0226 
X-94.0729 Y43.9566 
X-93.9294 Y43.8607 
X-93.8073 Y43.7386 
X-93.7114 Y43.5951 
X-93.6454 Y43.4356 
X-93.6425 Y43.4213 
X-87.7300 
X-87.6173 Y43.5339 
Y52.1180 
X-87.5806 Y52.2067 
X-87.5127 Y52.2746 
X-84.4647 Y55.3226 
X-84.3760 Y55.3593 
X-57.8640 
X-57.7753 Y55.3226 
X-57.7074 Y55.2547 
X-57.1994 Y54.7467 
X-57.1627 Y54.6580 
Y52.0220 
X-57.1994 Y51.9333 
X-57.2673 Y51.8654 
X-58.1787 Y50.9540 
Y46.7343 
X-57.4201 
X-57.2241 Y46.6953 
X-57.0395 Y46.6189 
X-56.8734 Y46.5079 
X-56.7321 Y46.3666 
X-56.6211 Y46.2004 
X-56.5447 Y46.0159 
X-56.5057 Y45.8199 
Y45.6201 
X-56.5447 Y45.4241 
X-56.6211 Y45.2395 
G00 Z2.5400 
G00 X-56.8734 Y36.3479 
G01 Z-0.1778 F254.00 
G01 X-56.7321 Y36.2066 F508.00 
G01 X-56.6211 Y36.0404 
X-56.5447 Y35.8559 
X-56.5057 Y35.6599 
Y35.4601 
X-56.5447 Y35.2641 
X-56.6211 Y35.0795 
X-56.7321 Y34.9134 
X-56.8734 Y34.7721 
X-57.0395 Y34.6611 
X-57.2241 Y34.5847 
X-57.4201 Y34.5457 
X-59.4199 
X-59.6159 Y34.5847 
X-59.8004 Y34.6611 
X-59.9666 Y34.7721 
X-60.1079 Y34.9134 
X-60.2189 Y35.0795 
X-60.2953 Y35.2641 
X-60.3062 Y35.3187 
X-61.1045 
Y35.0341 
X-61.1219 Y34.9921 
X-61.1541 Y34.9599 
X-61.1961 Y34.9425 
X-62.2479 
X-62.2899 Y34.9599 
X-62.3221 Y34.9921 
X-62.3395 Y35.0341 
Y36.0859 
X-62.3221 Y36.1279 
X-62.2899 Y36.1601 
X-62.2479 Y36.1775 
X-61.1961 
X-61.1541 Y36.1601 
X-61.1219 Y36.1279 
X-61.1045 Y36.0859 
Y35.8013 
X-60.3062 
X-60.2953 Y35.8559 
X-60.2189 Y36.0404 
X-60.1079 Y36.2066 
X-59.9666 Y36.3479 
X-59.8004 Y36.4589 
X-59.6159 Y36.5353 
X-59.4199 Y36.5743 
X-57.4201 
X-57.2241 Y36.5353 
X-57.0395 Y36.4589 
X-56.8734 Y36.3479 
G00 Z2.5400 
G00 X-56.8734 Y33.8079 
G01 Z-0.1778 F254.00 
G01 X-56.7321 Y33.6666 F508.00 
G01 X-56.6211 Y33.5005 
X-56.5447 Y33.3159 
X-56.5057 Y33.1199 
Y32.9201 
X-56.5447 Y32.7241 
X-56.6211 Y32.5395 
X-56.7321 Y32.3734 
X-56.8734 Y32.2321 
X-57.0395 Y32.1211 
X-57.2241 Y32.0447 
X-57.4201 Y32.0057 
X-59.4199 
X-59.6159 Y32.0447 
X-59.8004 Y32.1211 
X-59.9666 Y32.2321 
X-60.1079 Y32.3734 
X-60.2189 Y32.5395 
X-60.2953 Y32.7241 
X-60.3343 Y32.9201 
Y33.1199 
X-60.2953 Y33.3159 
X-60.2189 Y33.5005 
X-60.1079 Y33.6666 
X-59.9797 Y33.7947 
X-61.1045 
Y33.5101 
